; generated by Slic3r 1.2.9 on 2016-10-30 at 14:31:21

; external perimeters extrusion width = 0.50mm
; perimeters extrusion width = 0.85mm
; infill extrusion width = 0.87mm
; solid infill extrusion width = 0.85mm
; top infill extrusion width = 0.85mm

; external perimeters extrusion width = 0.50mm
; perimeters extrusion width = 0.85mm
; infill extrusion width = 0.87mm
; solid infill extrusion width = 0.85mm
; top infill extrusion width = 0.85mm

M107
G21 ; set units to millimeters
G90 ; use absolute coordinates
M83 ; use relative distances for extrusion
G10 P0 S210 R0 ; Set extruder temperature
G10 P1 S210 R0
T0
G1 E-4.00000 F1800.00000
G1 Z0.300 F6000.000
G1 X74.237 Y70.505 F6000.000
G1 E4.00000 F1800.00000
G1 X76.012 Y68.875 E0.19672 F900.000
G1 X78.221 Y67.911 E0.19672
G1 X80.000 Y67.691 E0.14636
G1 X130.000 Y67.691 E4.08163
G1 X132.377 Y68.088 E0.19672
G1 X134.495 Y69.237 E0.19672
G1 X136.125 Y71.012 E0.19672
G1 X137.089 Y73.221 E0.19672
G1 X137.309 Y75.000 E0.14636
G1 X137.309 Y125.000 E4.08163
G1 X136.912 Y127.377 E0.19672
G1 X135.763 Y129.495 E0.19672
G1 X133.988 Y131.125 E0.19672
G1 X131.779 Y132.089 E0.19672
G1 X130.000 Y132.309 E0.14636
G1 X80.000 Y132.309 E4.08163
G1 X77.623 Y131.912 E0.19672
G1 X75.505 Y130.763 E0.19672
G1 X73.875 Y128.988 E0.19672
G1 X72.911 Y126.779 E0.19672
G1 X72.691 Y125.000 E0.14636
G1 X72.691 Y75.000 E4.08163
G1 X73.088 Y72.623 E0.19672
G1 X74.201 Y70.571 E0.19060
G1 X74.886 Y70.742 F6000.000
G1 X76.640 Y69.256 E0.18764 F900.000
G1 X78.795 Y68.456 E0.18764
G1 X80.000 Y68.346 E0.09881
G1 X130.000 Y68.346 E4.08163
G1 X132.264 Y68.742 E0.18764
G1 X134.258 Y69.886 E0.18764
G1 X135.744 Y71.640 E0.18764
G1 X136.544 Y73.795 E0.18764
G1 X136.654 Y75.000 E0.09881
G1 X136.654 Y125.000 E4.08163
G1 X136.258 Y127.264 E0.18764
G1 X135.114 Y129.258 E0.18764
G1 X133.360 Y130.744 E0.18764
G1 X131.205 Y131.544 E0.18764
G1 X130.000 Y131.654 E0.09881
G1 X80.000 Y131.654 E4.08163
G1 X77.736 Y131.258 E0.18764
G1 X75.742 Y130.114 E0.18764
G1 X74.256 Y128.360 E0.18764
G1 X73.456 Y126.205 E0.18764
G1 X73.346 Y125.000 E0.09881
G1 X73.346 Y75.000 E4.08163
G1 X73.742 Y72.736 E0.18764
G1 X74.849 Y70.807 E0.18152
G1 E-4.00000 F1800.00000
G1 X125.795 Y104.205 F6000.000
G1 E4.00000 F1800.00000
G1 X125.795 Y108.896 E0.38293 F900.000
G1 X126.439 Y108.944 E0.05275
G1 X126.976 Y109.138 E0.04655
G1 X127.443 Y109.470 E0.04681
G1 X127.804 Y109.924 E0.04738
G1 X128.025 Y110.435 E0.04543
G1 X128.102 Y111.000 E0.04655
G1 X128.025 Y111.565 E0.04655
G1 X127.799 Y112.088 E0.04655
G1 X127.440 Y112.532 E0.04655
G1 X126.976 Y112.862 E0.04655
G1 X126.439 Y113.056 E0.04655
G1 X125.871 Y113.098 E0.04655
G1 X125.312 Y112.987 E0.04655
G1 X124.934 Y112.795 E0.03456
G1 X87.795 Y112.795 E3.03177
G1 X87.795 Y114.205 E0.11509
G1 X124.934 Y114.205 E3.03176
G1 X125.312 Y114.013 E0.03456
G1 X125.871 Y113.901 E0.04655
G1 X126.439 Y113.944 E0.04655
G1 X126.976 Y114.138 E0.04655
G1 X127.443 Y114.470 E0.04681
G1 X127.804 Y114.924 E0.04738
G1 X128.025 Y115.435 E0.04543
G1 X128.102 Y116.000 E0.04655
G1 X128.025 Y116.565 E0.04655
G1 X127.799 Y117.088 E0.04655
G1 X127.440 Y117.532 E0.04655
G1 X126.976 Y117.862 E0.04655
G1 X126.439 Y118.056 E0.04655
G1 X125.871 Y118.098 E0.04655
G1 X125.312 Y117.987 E0.04655
G1 X124.934 Y117.795 E0.03456
G1 X85.063 Y117.795 E3.25478
G1 X84.745 Y117.965 E0.02948
G1 X84.219 Y118.090 E0.04410
G1 X83.679 Y118.077 E0.04410
G1 X83.160 Y117.927 E0.04410
G1 X82.697 Y117.649 E0.04410
G1 X82.320 Y117.262 E0.04410
G1 X82.053 Y116.792 E0.04410
G1 X81.916 Y116.270 E0.04410
G1 X81.916 Y115.730 E0.04410
G1 X82.053 Y115.208 E0.04410
G1 X82.313 Y114.749 E0.04303
G1 X82.694 Y114.353 E0.04489
G1 X83.160 Y114.073 E0.04434
G1 X83.679 Y113.923 E0.04410
G1 X84.205 Y113.910 E0.04294
G1 X84.205 Y109.205 E0.38409
G1 X122.205 Y109.205 E3.10204
G1 X122.205 Y107.795 E0.11509
G1 X85.063 Y107.795 E3.03198
G1 X84.745 Y107.965 E0.02948
G1 X84.219 Y108.090 E0.04410
G1 X83.679 Y108.077 E0.04410
G1 X83.160 Y107.927 E0.04410
G1 X82.697 Y107.649 E0.04410
G1 X82.320 Y107.262 E0.04410
G1 X82.053 Y106.792 E0.04410
G1 X81.916 Y106.270 E0.04410
G1 X81.916 Y105.730 E0.04410
G1 X82.053 Y105.208 E0.04410
G1 X82.320 Y104.738 E0.04410
G1 X82.697 Y104.351 E0.04410
G1 X83.160 Y104.073 E0.04410
G1 X83.679 Y103.923 E0.04410
G1 X84.205 Y103.910 E0.04294
G1 X84.205 Y99.205 E0.38409
G1 X122.205 Y99.205 E3.10204
G1 X122.205 Y97.795 E0.11509
G1 X85.063 Y97.795 E3.03198
G1 X84.745 Y97.965 E0.02948
G1 X84.219 Y98.090 E0.04410
G1 X83.679 Y98.077 E0.04410
G1 X83.160 Y97.927 E0.04410
G1 X82.697 Y97.649 E0.04410
G1 X82.320 Y97.262 E0.04410
G1 X82.053 Y96.792 E0.04410
G1 X81.916 Y96.270 E0.04410
G1 X81.916 Y95.730 E0.04410
G1 X82.053 Y95.208 E0.04410
G1 X82.320 Y94.738 E0.04410
G1 X82.697 Y94.351 E0.04410
G1 X83.160 Y94.073 E0.04410
G1 X83.679 Y93.923 E0.04410
G1 X84.205 Y93.910 E0.04294
G1 X84.205 Y89.205 E0.38409
G1 X122.205 Y89.205 E3.10204
G1 X122.205 Y87.795 E0.11509
G1 X85.063 Y87.795 E3.03198
G1 X84.745 Y87.965 E0.02948
G1 X84.219 Y88.090 E0.04410
G1 X83.679 Y88.077 E0.04410
G1 X83.160 Y87.927 E0.04410
G1 X82.697 Y87.649 E0.04410
G1 X82.320 Y87.262 E0.04410
G1 X82.053 Y86.792 E0.04410
G1 X81.919 Y86.283 E0.04303
G1 X81.915 Y85.733 E0.04489
G1 X82.063 Y85.171 E0.04744
G1 X82.326 Y84.731 E0.04186
G1 X82.697 Y84.351 E0.04332
G1 X83.160 Y84.073 E0.04410
G1 X83.679 Y83.923 E0.04410
G1 X84.205 Y83.910 E0.04294
G1 X84.205 Y79.205 E0.38409
G1 X124.935 Y79.205 E3.32489
G1 X125.325 Y79.011 E0.03559
G1 X125.871 Y78.902 E0.04542
G1 X126.439 Y78.944 E0.04655
G1 X126.976 Y79.138 E0.04655
G1 X127.440 Y79.468 E0.04655
G1 X127.799 Y79.912 E0.04655
G1 X128.025 Y80.435 E0.04655
G1 X128.102 Y81.000 E0.04655
G1 X128.025 Y81.565 E0.04655
G1 X127.799 Y82.088 E0.04655
G1 X127.440 Y82.532 E0.04655
G1 X126.976 Y82.862 E0.04655
G1 X126.439 Y83.056 E0.04655
G1 X125.871 Y83.098 E0.04655
G1 X125.312 Y82.987 E0.04655
G1 X124.934 Y82.795 E0.03456
G1 X87.795 Y82.795 E3.03177
G1 X87.795 Y84.205 E0.11509
G1 X125.795 Y84.205 E3.10204
G1 X125.795 Y88.896 E0.38293
G1 X126.439 Y88.944 E0.05275
G1 X126.976 Y89.138 E0.04655
G1 X127.440 Y89.468 E0.04655
G1 X127.799 Y89.912 E0.04655
G1 X128.025 Y90.435 E0.04655
G1 X128.102 Y91.000 E0.04655
G1 X128.025 Y91.565 E0.04655
G1 X127.799 Y92.088 E0.04655
G1 X127.440 Y92.532 E0.04655
G1 X126.976 Y92.862 E0.04655
G1 X126.452 Y93.051 E0.04543
G1 X125.874 Y93.099 E0.04738
G1 X125.312 Y92.987 E0.04681
G1 X124.934 Y92.795 E0.03456
G1 X87.795 Y92.795 E3.03177
G1 X87.795 Y94.205 E0.11509
G1 X125.795 Y94.205 E3.10204
G1 X125.795 Y98.896 E0.38293
G1 X126.439 Y98.944 E0.05275
G1 X126.976 Y99.138 E0.04655
G1 X127.440 Y99.468 E0.04655
G1 X127.799 Y99.912 E0.04655
G1 X128.025 Y100.435 E0.04655
G1 X128.102 Y101.000 E0.04655
G1 X128.025 Y101.568 E0.04681
G1 X127.790 Y102.099 E0.04738
G1 X127.440 Y102.532 E0.04543
G1 X126.976 Y102.862 E0.04655
G1 X126.439 Y103.056 E0.04655
G1 X125.871 Y103.098 E0.04655
G1 X125.312 Y102.987 E0.04655
G1 X124.934 Y102.795 E0.03456
G1 X87.795 Y102.795 E3.03177
G1 X87.795 Y104.205 E0.11509
G1 X125.720 Y104.205 E3.09592
G1 X125.250 Y104.750 F6000.000
G1 X125.250 Y109.656 E0.26655 F630.000
G1 X125.492 Y109.533 E0.01473
G1 X125.905 Y109.451 E0.02287
G1 X126.324 Y109.482 E0.02287
G1 X126.720 Y109.625 E0.02287
G1 X127.064 Y109.870 E0.02293
G1 X127.333 Y110.207 E0.02343
G1 X127.495 Y110.583 E0.02225
G1 X127.552 Y111.000 E0.02287
G1 X127.495 Y111.417 E0.02287
G1 X127.328 Y111.804 E0.02287
G1 X127.063 Y112.131 E0.02287
G1 X126.720 Y112.375 E0.02287
G1 X126.324 Y112.518 E0.02287
G1 X125.905 Y112.549 E0.02287
G1 X125.492 Y112.467 E0.02287
G1 X125.065 Y112.250 E0.02603
G1 X87.250 Y112.250 E2.05457
G1 X87.250 Y114.750 E0.13583
G1 X125.092 Y114.750 E2.05605
G1 X125.492 Y114.533 E0.02472
G1 X125.905 Y114.451 E0.02287
G1 X126.324 Y114.482 E0.02287
G1 X126.720 Y114.625 E0.02287
G1 X127.064 Y114.870 E0.02293
G1 X127.333 Y115.207 E0.02343
G1 X127.495 Y115.583 E0.02225
G1 X127.552 Y116.000 E0.02287
G1 X127.495 Y116.417 E0.02287
G1 X127.328 Y116.804 E0.02287
G1 X127.063 Y117.131 E0.02287
G1 X126.720 Y117.375 E0.02287
G1 X126.324 Y117.518 E0.02287
G1 X125.905 Y117.549 E0.02287
G1 X125.492 Y117.467 E0.02287
G1 X125.065 Y117.250 E0.02603
G1 X84.927 Y117.250 E2.18081
G1 X84.550 Y117.451 E0.02321
G1 X84.162 Y117.544 E0.02167
G1 X83.763 Y117.534 E0.02167
G1 X83.380 Y117.423 E0.02167
G1 X83.038 Y117.218 E0.02167
G1 X82.759 Y116.932 E0.02167
G1 X82.562 Y116.585 E0.02167
G1 X82.461 Y116.199 E0.02167
G1 X82.461 Y115.801 E0.02167
G1 X82.562 Y115.415 E0.02167
G1 X82.754 Y115.077 E0.02108
G1 X83.037 Y114.783 E0.02220
G1 X83.380 Y114.577 E0.02173
G1 X83.763 Y114.466 E0.02167
G1 X84.162 Y114.456 E0.02167
G1 X84.750 Y114.596 E0.03285
G1 X84.750 Y109.750 E0.26330
G1 X122.750 Y109.750 E2.06465
G1 X122.750 Y107.250 E0.13583
G1 X84.927 Y107.250 E2.05506
G1 X84.550 Y107.451 E0.02321
G1 X84.162 Y107.544 E0.02167
G1 X83.763 Y107.534 E0.02167
G1 X83.380 Y107.423 E0.02167
G1 X83.038 Y107.218 E0.02167
G1 X82.759 Y106.932 E0.02167
G1 X82.562 Y106.585 E0.02167
G1 X82.461 Y106.199 E0.02167
G1 X82.461 Y105.801 E0.02167
G1 X82.562 Y105.415 E0.02167
G1 X82.759 Y105.068 E0.02167
G1 X83.038 Y104.782 E0.02167
G1 X83.380 Y104.577 E0.02167
G1 X83.763 Y104.466 E0.02167
G1 X84.162 Y104.456 E0.02167
G1 X84.750 Y104.596 E0.03285
G1 X84.750 Y99.750 E0.26330
G1 X122.750 Y99.750 E2.06465
G1 X122.750 Y97.250 E0.13583
G1 X84.927 Y97.250 E2.05506
G1 X84.550 Y97.451 E0.02321
G1 X84.162 Y97.544 E0.02167
G1 X83.763 Y97.534 E0.02167
G1 X83.380 Y97.423 E0.02167
G1 X83.038 Y97.218 E0.02167
G1 X82.759 Y96.932 E0.02167
G1 X82.562 Y96.585 E0.02167
G1 X82.461 Y96.199 E0.02167
G1 X82.461 Y95.801 E0.02167
G1 X82.562 Y95.415 E0.02167
G1 X82.759 Y95.068 E0.02167
G1 X83.038 Y94.782 E0.02167
G1 X83.380 Y94.577 E0.02167
G1 X83.763 Y94.466 E0.02167
G1 X84.151 Y94.457 E0.02108
G1 X84.750 Y94.594 E0.03340
G1 X84.750 Y89.750 E0.26321
G1 X122.750 Y89.750 E2.06465
G1 X122.750 Y87.250 E0.13583
G1 X84.927 Y87.250 E2.05506
G1 X84.550 Y87.451 E0.02321
G1 X84.162 Y87.544 E0.02167
G1 X83.763 Y87.534 E0.02167
G1 X83.380 Y87.423 E0.02167
G1 X83.038 Y87.218 E0.02167
G1 X82.759 Y86.932 E0.02167
G1 X82.562 Y86.585 E0.02167
G1 X82.464 Y86.210 E0.02108
G1 X82.461 Y85.801 E0.02220
G1 X82.570 Y85.384 E0.02343
G1 X82.761 Y85.066 E0.02019
G1 X83.038 Y84.782 E0.02151
G1 X83.380 Y84.577 E0.02167
G1 X83.763 Y84.466 E0.02167
G1 X84.162 Y84.456 E0.02167
G1 X84.750 Y84.596 E0.03285
G1 X84.750 Y79.750 E0.26330
G1 X125.063 Y79.750 E2.19032
G1 X125.503 Y79.531 E0.02672
G1 X125.905 Y79.451 E0.02225
G1 X126.324 Y79.482 E0.02287
G1 X126.720 Y79.625 E0.02287
G1 X127.063 Y79.869 E0.02287
G1 X127.328 Y80.196 E0.02287
G1 X127.495 Y80.583 E0.02287
G1 X127.552 Y81.000 E0.02287
G1 X127.495 Y81.417 E0.02287
G1 X127.328 Y81.804 E0.02287
G1 X127.063 Y82.131 E0.02287
G1 X126.720 Y82.375 E0.02287
G1 X126.324 Y82.518 E0.02287
G1 X125.905 Y82.549 E0.02287
G1 X125.492 Y82.467 E0.02287
G1 X125.065 Y82.250 E0.02603
G1 X87.250 Y82.250 E2.05457
G1 X87.250 Y84.750 E0.13583
G1 X125.250 Y84.750 E2.06465
G1 X125.250 Y89.656 E0.26655
G1 X125.492 Y89.533 E0.01473
G1 X125.905 Y89.451 E0.02287
G1 X126.324 Y89.482 E0.02287
G1 X126.720 Y89.625 E0.02287
G1 X127.063 Y89.869 E0.02287
G1 X127.328 Y90.196 E0.02287
G1 X127.495 Y90.583 E0.02287
G1 X127.552 Y91.000 E0.02287
G1 X127.495 Y91.417 E0.02287
G1 X127.328 Y91.804 E0.02287
G1 X127.063 Y92.131 E0.02287
G1 X126.720 Y92.375 E0.02287
G1 X126.335 Y92.514 E0.02225
G1 X125.906 Y92.550 E0.02343
G1 X125.492 Y92.467 E0.02293
G1 X125.092 Y92.250 E0.02472
G1 X87.250 Y92.250 E2.05605
G1 X87.250 Y94.750 E0.13583
G1 X125.250 Y94.750 E2.06465
G1 X125.250 Y99.656 E0.26655
G1 X125.492 Y99.533 E0.01473
G1 X125.905 Y99.451 E0.02287
G1 X126.324 Y99.482 E0.02287
G1 X126.720 Y99.625 E0.02287
G1 X127.063 Y99.869 E0.02287
G1 X127.328 Y100.196 E0.02287
G1 X127.495 Y100.583 E0.02287
G1 X127.552 Y101.000 E0.02287
G1 X127.495 Y101.418 E0.02293
G1 X127.321 Y101.813 E0.02343
G1 X127.063 Y102.131 E0.02225
G1 X126.720 Y102.375 E0.02287
G1 X126.324 Y102.518 E0.02287
G1 X125.905 Y102.549 E0.02287
G1 X125.492 Y102.467 E0.02287
G1 X125.065 Y102.250 E0.02603
G1 X87.250 Y102.250 E2.05457
G1 X87.250 Y104.750 E0.13583
G1 X125.175 Y104.750 E2.06057
G1 X125.750 Y104.750 F6000.000
G1 X128.102 Y108.586 F6000.000
G1 X128.610 Y111.673 F6000.000
G1 X128.653 Y115.953 F6000.000
G1 X128.102 Y118.414 F6000.000
G1 X127.121 Y120.026 F6000.000
G1 X126.146 Y121.146 F6000.000
G1 X129.000 Y124.000 F6000.000
G1 X129.205 Y124.205 F6000.000
G1 X80.795 Y124.205 E3.95183 F900.000
G1 X80.795 Y75.795 E3.95183
G1 X129.205 Y75.795 E3.95183
G1 X129.205 Y124.130 E3.94570
G1 X129.750 Y124.750 F6000.000
G1 X80.250 Y124.750 E2.68948 F630.000
G1 X80.250 Y75.250 E2.68948
G1 X129.750 Y75.250 E2.68948
G1 X129.750 Y124.675 E2.68540
G1 X129.317 Y124.500 F6000.000
G1 X128.807 Y118.251 F6000.000
G1 X128.451 Y117.894 E0.04121 F900.000
G1 X127.523 Y117.893 E0.07590
G1 X128.807 Y119.178 E0.14855
G1 X128.807 Y120.105 E0.07583
G1 X126.954 Y118.251 E0.21438
G1 X126.235 Y118.460 E0.06121
G1 X128.807 Y121.032 E0.29752
G1 X128.807 Y121.960 E0.07583
G1 X125.260 Y118.412 E0.41028
G1 X124.113 Y118.193 E0.09550
G1 X128.807 Y122.887 E0.54292
G1 X128.784 Y123.791 E0.07395
G1 X123.186 Y118.193 E0.64747
G1 X122.259 Y118.193 E0.07583
G1 X127.874 Y123.807 E0.64939
G1 X126.946 Y123.807 E0.07583
G1 X121.331 Y118.193 E0.64939
G1 X120.404 Y118.193 E0.07583
G1 X126.019 Y123.807 E0.64939
G1 X125.092 Y123.807 E0.07583
G1 X119.477 Y118.193 E0.64939
G1 X118.549 Y118.193 E0.07583
G1 X124.164 Y123.807 E0.64939
G1 X123.237 Y123.807 E0.07583
G1 X117.622 Y118.193 E0.64939
G1 X116.695 Y118.193 E0.07583
G1 X122.310 Y123.807 E0.64939
G1 X121.383 Y123.807 E0.07583
G1 X115.768 Y118.193 E0.64939
G1 X114.840 Y118.193 E0.07583
G1 X120.455 Y123.807 E0.64939
G1 X119.528 Y123.807 E0.07583
G1 X113.913 Y118.193 E0.64939
G1 X112.986 Y118.193 E0.07583
G1 X118.601 Y123.807 E0.64939
G1 X117.674 Y123.807 E0.07583
G1 X112.059 Y118.193 E0.64939
G1 X111.131 Y118.193 E0.07583
G1 X116.746 Y123.807 E0.64939
G1 X115.819 Y123.807 E0.07583
G1 X110.204 Y118.193 E0.64939
G1 X109.277 Y118.193 E0.07583
G1 X114.892 Y123.807 E0.64939
G1 X113.965 Y123.807 E0.07583
G1 X108.350 Y118.193 E0.64939
G1 X107.422 Y118.193 E0.07583
G1 X113.037 Y123.807 E0.64939
G1 X112.110 Y123.807 E0.07583
G1 X106.495 Y118.193 E0.64939
G1 X105.568 Y118.193 E0.07583
G1 X111.183 Y123.807 E0.64939
G1 X110.255 Y123.807 E0.07583
G1 X104.640 Y118.193 E0.64939
G1 X103.713 Y118.193 E0.07583
G1 X109.328 Y123.807 E0.64939
G1 X108.401 Y123.807 E0.07583
G1 X102.786 Y118.193 E0.64939
G1 X101.859 Y118.193 E0.07583
G1 X107.474 Y123.807 E0.64939
G1 X106.546 Y123.807 E0.07583
G1 X100.931 Y118.193 E0.64939
G1 X100.004 Y118.193 E0.07583
G1 X105.619 Y123.807 E0.64939
G1 X104.692 Y123.807 E0.07583
G1 X99.077 Y118.193 E0.64939
G1 X98.150 Y118.193 E0.07583
G1 X103.765 Y123.807 E0.64939
G1 X102.837 Y123.807 E0.07583
G1 X97.222 Y118.193 E0.64939
G1 X96.295 Y118.193 E0.07583
G1 X101.910 Y123.807 E0.64939
G1 X100.983 Y123.807 E0.07583
G1 X95.368 Y118.193 E0.64939
G1 X94.441 Y118.193 E0.07583
G1 X100.056 Y123.807 E0.64939
G1 X99.128 Y123.807 E0.07583
G1 X93.513 Y118.193 E0.64939
G1 X92.586 Y118.193 E0.07583
G1 X98.201 Y123.807 E0.64939
G1 X97.274 Y123.807 E0.07583
G1 X91.659 Y118.193 E0.64939
G1 X90.731 Y118.193 E0.07583
G1 X96.346 Y123.807 E0.64939
G1 X95.419 Y123.807 E0.07583
G1 X89.804 Y118.193 E0.64939
G1 X88.877 Y118.193 E0.07583
G1 X94.492 Y123.807 E0.64939
G1 X93.565 Y123.807 E0.07583
G1 X87.950 Y118.193 E0.64939
G1 X87.022 Y118.193 E0.07583
G1 X92.637 Y123.807 E0.64939
G1 X91.710 Y123.807 E0.07583
G1 X86.095 Y118.193 E0.64939
G1 X85.168 Y118.193 E0.07583
G1 X90.783 Y123.807 E0.64939
G1 X89.856 Y123.807 E0.07583
G1 X84.460 Y118.412 E0.62397
G1 X83.597 Y118.476 E0.07081
G1 X88.928 Y123.807 E0.61660
G1 X88.001 Y123.807 E0.07583
G1 X81.966 Y117.773 E0.69795
G1 X81.437 Y118.170 E0.05416
G1 X87.074 Y123.807 E0.65195
G1 X86.146 Y123.807 E0.07583
G1 X81.193 Y118.853 E0.57295
G1 X81.702 Y118.436 E0.05389
G1 X81.194 Y117.928 E0.05881
G1 X81.193 Y119.781 F6000.000
G1 X85.219 Y123.807 E0.46570 F900.000
