; generated by Slic3r 1.0.0RC2 on 2015-01-02 at 17:02:13

; layer_height = 0.24
; perimeters = 2
; top_solid_layers = 4
; bottom_solid_layers = 3
; fill_density = 0.3
; perimeter_speed = 20
; infill_speed = 20
; travel_speed = 60
; nozzle_diameter = 0.5
; filament_diameter = 1.75
; extrusion_multiplier = 1
; perimeters extrusion width = 0.50mm
; infill extrusion width = 0.87mm
; solid infill extrusion width = 0.85mm
; top infill extrusion width = 0.85mm

G21 ; set units to millimeters
G90 ; use absolute coordinates
M83 ; use relative distances for extrusion
M140 S65; Set bed temperature
G28 ; Home all axes
G1 Z5 F200 ; lift nozzle
G1 X2 Y50 F2000; Go to wait for warm position
M116; Wait for all temperatures
G10 P1 S185 R0 ; Set extruder temperature
T1; Select extruder
M116; Wait for all temperatures
G1 F1800.000 E-4.00000
G1 Z0.240 F3600.000
G1 X78.400 Y78.400 F3600.000
G1 E4.00000 F1800.000
G1 X79.390 Y77.600 E0.06350 F240.000
G1 X80.510 Y76.990 E0.06363
G1 X81.730 Y76.620 E0.06360
G1 X83.000 Y76.500 E0.06364
G1 X139.000 Y76.500 E2.79385
G1 X140.270 Y76.620 E0.06364
G1 X141.490 Y76.990 E0.06360
G1 X142.610 Y77.600 E0.06363
G1 X143.600 Y78.400 E0.06350
G1 X144.400 Y79.390 E0.06350
G1 X145.010 Y80.510 E0.06363
G1 X145.380 Y81.730 E0.06360
G1 X145.500 Y83.000 E0.06364
G1 X145.500 Y117.000 E1.69627
G1 X145.380 Y118.270 E0.06364
G1 X145.010 Y119.490 E0.06360
G1 X144.400 Y120.610 E0.06363
G1 X143.600 Y121.600 E0.06350
G1 X142.610 Y122.400 E0.06350
G1 X141.490 Y123.010 E0.06363
G1 X140.270 Y123.380 E0.06360
G1 X139.000 Y123.500 E0.06364
G1 X83.000 Y123.500 E2.79385
G1 X81.730 Y123.380 E0.06364
G1 X80.510 Y123.010 E0.06360
G1 X79.390 Y122.400 E0.06363
G1 X78.400 Y121.600 E0.06350
G1 X77.600 Y120.610 E0.06350
G1 X76.990 Y119.490 E0.06363
G1 X76.620 Y118.270 E0.06360
G1 X76.500 Y117.000 E0.06364
G1 X76.500 Y83.000 E1.69627
G1 X76.620 Y81.730 E0.06364
G1 X76.990 Y80.510 E0.06360
G1 X77.600 Y79.390 E0.06363
G1 X78.353 Y78.458 E0.05976
G1 F1800.000 E-4.00000
G1 X83.750 Y83.750 F3600.000
G1 E4.00000 F1800.000
G1 X138.250 Y83.750 E2.71902 F240.000
G1 X138.250 Y116.250 E1.62143
G1 X83.750 Y116.250 E2.71902
G1 X83.750 Y83.825 E1.61769
G1 X83.250 Y83.250 F3600.000
G1 X138.750 Y83.250 E2.76891 F168.000
G1 X138.750 Y116.750 E1.67132
G1 X83.250 Y116.750 E2.76891
G1 X83.250 Y83.325 E1.66758
G1 X83.683 Y83.500 F3600.000
G1 X84.220 Y115.861 F3600.000
G1 X84.139 Y115.780 E0.00912 F240.000
G1 X84.139 Y114.643 E0.09123
G1 X85.357 Y115.861 E0.13814
G1 X86.494 Y115.861 E0.09123
G1 X84.139 Y113.506 E0.26715
G1 X84.139 Y112.369 E0.09123
G1 X87.631 Y115.861 E0.39616
G1 X88.768 Y115.861 E0.09123
G1 X84.139 Y111.232 E0.52517
G1 X84.139 Y110.095 E0.09123
G1 X89.905 Y115.861 E0.65419
G1 X91.042 Y115.861 E0.09123
G1 X84.139 Y108.958 E0.78320
G1 X84.139 Y107.821 E0.09123
G1 X92.179 Y115.861 E0.91221
G1 X93.317 Y115.861 E0.09123
G1 X84.139 Y106.683 E1.04122
G1 X84.139 Y105.546 E0.09123
G1 X94.454 Y115.861 E1.17024
G1 X95.591 Y115.861 E0.09123
G1 X84.139 Y104.409 E1.29925
G1 X84.139 Y103.272 E0.09123
G1 X96.728 Y115.861 E1.42826
G1 X97.865 Y115.861 E0.09123
G1 X84.139 Y102.135 E1.55727
G1 X84.139 Y100.998 E0.09123
G1 X99.002 Y115.861 E1.68629
G1 X100.139 Y115.861 E0.09123
G1 X84.139 Y99.861 E1.81530
G1 X84.139 Y98.724 E0.09123
G1 X101.276 Y115.861 E1.94431
G1 X102.413 Y115.861 E0.09123
G1 X84.139 Y97.587 E2.07333
G1 X84.139 Y96.450 E0.09123
G1 X103.550 Y115.861 E2.20234
G1 X104.687 Y115.861 E0.09123
G1 X84.139 Y95.313 E2.33135
G1 X84.139 Y94.176 E0.09123
G1 X105.824 Y115.861 E2.46036
G1 X106.962 Y115.861 E0.09123
G1 X84.139 Y93.038 E2.58938
G1 X84.139 Y91.901 E0.09123
G1 X108.099 Y115.861 E2.71839
G1 X109.236 Y115.861 E0.09123
G1 X84.139 Y90.764 E2.84740
G1 X84.139 Y89.627 E0.09123
G1 X110.373 Y115.861 E2.97641
G1 X111.510 Y115.861 E0.09123
G1 X84.139 Y88.490 E3.10543
G1 X84.139 Y87.353 E0.09123
G1 X112.647 Y115.861 E3.23444
G1 X113.784 Y115.861 E0.09123
G1 X84.139 Y86.216 E3.36345
G1 X84.139 Y85.079 E0.09123
G1 X114.921 Y115.861 E3.49246
G1 X116.058 Y115.861 E0.09123
G1 X84.337 Y84.139 E3.59905
G1 X85.474 Y84.139 E0.09123
G1 X117.195 Y115.861 E3.59905
G1 X118.332 Y115.861 E0.09123
G1 X86.611 Y84.139 E3.59905
G1 X87.748 Y84.139 E0.09123
G1 X119.470 Y115.861 E3.59905
G1 X120.607 Y115.861 E0.09123
G1 X88.885 Y84.139 E3.59905
G1 X90.023 Y84.139 E0.09123
G1 X121.744 Y115.861 E3.59905
G1 X122.881 Y115.861 E0.09123
G1 X91.160 Y84.139 E3.59905
G1 X92.297 Y84.139 E0.09123
G1 X124.018 Y115.861 E3.59905
G1 X125.155 Y115.861 E0.09123
G1 X93.434 Y84.139 E3.59905
G1 X94.571 Y84.139 E0.09123
G1 X126.292 Y115.861 E3.59905
G1 X127.429 Y115.861 E0.09123
G1 X95.708 Y84.139 E3.59905
G1 X96.845 Y84.139 E0.09123
G1 X128.566 Y115.861 E3.59905
G1 X129.703 Y115.861 E0.09123
G1 X97.982 Y84.139 E3.59905
G1 X99.119 Y84.139 E0.09123
G1 X130.840 Y115.861 E3.59905
G1 X131.977 Y115.861 E0.09123
G1 X100.256 Y84.139 E3.59905
G1 X101.393 Y84.139 E0.09123
G1 X133.115 Y115.861 E3.59905
G1 X134.252 Y115.861 E0.09123
G1 X102.531 Y84.139 E3.59905
G1 X103.668 Y84.139 E0.09123
G1 X135.389 Y115.861 E3.59905
G1 X136.526 Y115.861 E0.09123
G1 X104.805 Y84.139 E3.59905
G1 X105.942 Y84.139 E0.09123
G1 X137.663 Y115.861 E3.59905
G1 X137.861 Y114.921 E0.07702
G1 X107.079 Y84.139 E3.49246
G1 X108.216 Y84.139 E0.09123
G1 X137.861 Y113.784 E3.36345
G1 X137.861 Y112.647 E0.09123
G1 X109.353 Y84.139 E3.23443
G1 X110.490 Y84.139 E0.09123
G1 X137.861 Y111.510 E3.10542
G1 X137.861 Y110.373 E0.09123
G1 X111.627 Y84.139 E2.97641
G1 X112.764 Y84.139 E0.09123
G1 X137.861 Y109.236 E2.84739
G1 X137.861 Y108.099 E0.09123
G1 X113.901 Y84.139 E2.71838
G1 X115.038 Y84.139 E0.09123
G1 X137.861 Y106.962 E2.58937
G1 X137.861 Y105.824 E0.09123
G1 X116.176 Y84.139 E2.46036
G1 X117.313 Y84.139 E0.09123
G1 X137.861 Y104.687 E2.33134
G1 X137.861 Y103.550 E0.09123
G1 X118.450 Y84.139 E2.20233
G1 X119.587 Y84.139 E0.09123
G1 X137.861 Y102.413 E2.07332
G1 X137.861 Y101.276 E0.09123
G1 X120.724 Y84.139 E1.94431
G1 X121.861 Y84.139 E0.09123
G1 X137.861 Y100.139 E1.81529
G1 X137.861 Y99.002 E0.09123
G1 X122.998 Y84.139 E1.68628
G1 X124.135 Y84.139 E0.09123
G1 X137.861 Y97.865 E1.55727
G1 X137.861 Y96.728 E0.09123
G1 X125.272 Y84.139 E1.42826
G1 X126.409 Y84.139 E0.09123
G1 X137.861 Y95.591 E1.29924
G1 X137.861 Y94.454 E0.09123
G1 X127.546 Y84.139 E1.17023
G1 X128.684 Y84.139 E0.09123
G1 X137.861 Y93.316 E1.04122
G1 X137.861 Y92.179 E0.09123
G1 X129.821 Y84.139 E0.91220
G1 X130.958 Y84.139 E0.09123
G1 X137.861 Y91.042 E0.78319
G1 X137.861 Y89.905 E0.09123
G1 X132.095 Y84.139 E0.65418
G1 X133.232 Y84.139 E0.09123
G1 X137.861 Y88.768 E0.52517
G1 X137.861 Y87.631 E0.09123
G1 X134.369 Y84.139 E0.39615
G1 X135.506 Y84.139 E0.09123
G1 X137.861 Y86.494 E0.26714
G1 X137.861 Y85.357 E0.09123
G1 X136.643 Y84.139 E0.13813
G1 X137.780 Y84.139 E0.09123
G1 X137.861 Y84.220 E0.00912
G1 F1800.000 E-4.00000
G1 Z0.480 F3600.000
G1 X138.250 Y83.750 F3600.000
G1 E4.00000 F1800.000
G1 X138.250 Y116.250 E1.62143 F1200
G1 X83.750 Y116.250 E2.71902
G1 X83.750 Y83.750 E1.62143
G1 X138.175 Y83.750 E2.71527
G1 X138.750 Y83.250 F3600.000
G1 X138.750 Y116.750 E1.67132 F840
G1 X83.250 Y116.750 E2.76891
G1 X83.250 Y83.250 E1.67132
G1 X138.675 Y83.250 E2.76516
G1 X138.500 Y83.683 F3600.000
G1 X137.861 Y115.780 F3600.000
G1 X137.780 Y115.861 E0.00912 F1200
G1 X136.643 Y115.861 E0.09123
G1 X137.861 Y114.643 E0.13814
G1 X137.861 Y113.506 E0.09123
G1 X135.506 Y115.861 E0.26715
G1 X134.369 Y115.861 E0.09123
G1 X137.861 Y112.369 E0.39616
G1 X137.861 Y111.232 E0.09123
G1 X133.232 Y115.861 E0.52517
G1 X132.095 Y115.861 E0.09123
G1 X137.861 Y110.095 E0.65419
G1 X137.861 Y108.958 E0.09123
G1 X130.958 Y115.861 E0.78320
G1 X129.821 Y115.861 E0.09123
G1 X137.861 Y107.821 E0.91221
G1 X137.861 Y106.683 E0.09123
G1 X128.683 Y115.861 E1.04122
G1 X127.546 Y115.861 E0.09123
G1 X137.861 Y105.546 E1.17024
G1 X137.861 Y104.409 E0.09123
G1 X126.409 Y115.861 E1.29925
G1 X125.272 Y115.861 E0.09123
G1 X137.861 Y103.272 E1.42826
G1 X137.861 Y102.135 E0.09123
G1 X124.135 Y115.861 E1.55727
G1 X122.998 Y115.861 E0.09123
G1 X137.861 Y100.998 E1.68629
G1 X137.861 Y99.861 E0.09123
G1 X121.861 Y115.861 E1.81530
G1 X120.724 Y115.861 E0.09123
G1 X137.861 Y98.724 E1.94431
G1 X137.861 Y97.587 E0.09123
G1 X119.587 Y115.861 E2.07333
G1 X118.450 Y115.861 E0.09123
G1 X137.861 Y96.450 E2.20234
G1 X137.861 Y95.313 E0.09123
G1 X117.313 Y115.861 E2.33135
G1 X116.176 Y115.861 E0.09123
G1 X137.861 Y94.176 E2.46036
G1 X137.861 Y93.038 E0.09123
G1 X115.038 Y115.861 E2.58938
G1 X113.901 Y115.861 E0.09123
G1 X137.861 Y91.901 E2.71839
G1 X137.861 Y90.764 E0.09123
G1 X112.764 Y115.861 E2.84740
G1 X111.627 Y115.861 E0.09123
G1 X137.861 Y89.627 E2.97641
G1 X137.861 Y88.490 E0.09123
G1 X110.490 Y115.861 E3.10543
G1 X109.353 Y115.861 E0.09123
G1 X137.861 Y87.353 E3.23444
G1 X137.861 Y86.216 E0.09123
G1 X108.216 Y115.861 E3.36345
G1 X107.079 Y115.861 E0.09123
G1 X137.861 Y85.079 E3.49246
G1 X137.663 Y84.139 E0.07702
G1 X105.942 Y115.861 E3.59905
G1 X104.805 Y115.861 E0.09123
G1 X136.526 Y84.139 E3.59905
G1 X135.389 Y84.139 E0.09123
G1 X103.668 Y115.861 E3.59905
G1 X102.530 Y115.861 E0.09123
G1 X134.252 Y84.139 E3.59905
G1 X133.115 Y84.139 E0.09123
G1 X101.393 Y115.861 E3.59905
G1 X100.256 Y115.861 E0.09123
G1 X131.977 Y84.139 E3.59905
G1 X130.840 Y84.139 E0.09123
G1 X99.119 Y115.861 E3.59905
G1 X97.982 Y115.861 E0.09123
G1 X129.703 Y84.139 E3.59905
G1 X128.566 Y84.139 E0.09123
G1 X96.845 Y115.861 E3.59905
G1 X95.708 Y115.861 E0.09123
G1 X127.429 Y84.139 E3.59905
G1 X126.292 Y84.139 E0.09123
G1 X94.571 Y115.861 E3.59905
G1 X93.434 Y115.861 E0.09123
G1 X125.155 Y84.139 E3.59905
G1 X124.018 Y84.139 E0.09123
G1 X92.297 Y115.861 E3.59905
G1 X91.160 Y115.861 E0.09123
G1 X122.881 Y84.139 E3.59905
G1 X121.744 Y84.139 E0.09123
G1 X90.023 Y115.861 E3.59905
G1 X88.885 Y115.861 E0.09123
G1 X120.607 Y84.139 E3.59905
G1 X119.469 Y84.139 E0.09123
G1 X87.748 Y115.861 E3.59905
G1 X86.611 Y115.861 E0.09123
G1 X118.332 Y84.139 E3.59905
G1 X117.195 Y84.139 E0.09123
G1 X85.474 Y115.861 E3.59905
G1 X84.337 Y115.861 E0.09123
G1 X116.058 Y84.139 E3.59905
G1 X114.921 Y84.139 E0.09123
G1 X84.139 Y114.921 E3.49246
G1 X84.139 Y113.784 E0.09123
G1 X113.784 Y84.139 E3.36345
G1 X112.647 Y84.139 E0.09123
G1 X84.139 Y112.647 E3.23443
G1 X84.139 Y111.510 E0.09123
G1 X111.510 Y84.139 E3.10542
G1 X110.373 Y84.139 E0.09123
G1 X84.139 Y110.373 E2.97641
G1 X84.139 Y109.236 E0.09123
G1 X109.236 Y84.139 E2.84739
G1 X108.099 Y84.139 E0.09123
G1 X84.139 Y108.099 E2.71838
G1 X84.139 Y106.962 E0.09123
G1 X106.962 Y84.139 E2.58937
G1 X105.824 Y84.139 E0.09123
G1 X84.139 Y105.824 E2.46036
G1 X84.139 Y104.687 E0.09123
G1 X104.687 Y84.139 E2.33134
G1 X103.550 Y84.139 E0.09123
G1 X84.139 Y103.550 E2.20233
G1 X84.139 Y102.413 E0.09123
G1 X102.413 Y84.139 E2.07332
G1 X101.276 Y84.139 E0.09123
G1 X84.139 Y101.276 E1.94431
G1 X84.139 Y100.139 E0.09123
G1 X100.139 Y84.139 E1.81529
G1 X99.002 Y84.139 E0.09123
G1 X84.139 Y99.002 E1.68628
G1 X84.139 Y97.865 E0.09123
G1 X97.865 Y84.139 E1.55727
G1 X96.728 Y84.139 E0.09123
G1 X84.139 Y96.728 E1.42826
G1 X84.139 Y95.591 E0.09123
G1 X95.591 Y84.139 E1.29924
G1 X94.454 Y84.139 E0.09123
G1 X84.139 Y94.454 E1.17023
G1 X84.139 Y93.316 E0.09123
G1 X93.316 Y84.139 E1.04122
G1 X92.179 Y84.139 E0.09123
G1 X84.139 Y92.179 E0.91220
G1 X84.139 Y91.042 E0.09123
G1 X91.042 Y84.139 E0.78319
G1 X89.905 Y84.139 E0.09123
G1 X84.139 Y89.905 E0.65418
G1 X84.139 Y88.768 E0.09123
G1 X88.768 Y84.139 E0.52517
G1 X87.631 Y84.139 E0.09123
G1 X84.139 Y87.631 E0.39615
G1 X84.139 Y86.494 E0.09123
G1 X86.494 Y84.139 E0.26714
G1 X85.357 Y84.139 E0.09123
G1 X84.139 Y85.357 E0.13813
G1 X84.139 Y84.220 E0.09123
G1 X84.220 Y84.139 E0.00912
G1 F1800.000 E-4.00000
G1 Z0.720 F3600.000
G1 X83.750 Y83.750 F3600.000
G1 E4.00000 F1800.000
G1 X138.250 Y83.750 E2.71902 F1200
G1 X138.250 Y116.250 E1.62143
G1 X83.750 Y116.250 E2.71902
G1 X83.750 Y83.825 E1.61769
G1 X83.250 Y83.250 F3600.000
G1 X138.750 Y83.250 E2.76891 F840
G1 X138.750 Y116.750 E1.67132
G1 X83.250 Y116.750 E2.76891
G1 X83.250 Y83.325 E1.66758
G1 X83.683 Y83.500 F3600.000
G1 X84.220 Y115.861 F3600.000
G1 X84.139 Y115.780 E0.00912 F1200
G1 X84.139 Y114.643 E0.09123
G1 X85.357 Y115.861 E0.13814
G1 X86.494 Y115.861 E0.09123
G1 X84.139 Y113.506 E0.26715
G1 X84.139 Y112.369 E0.09123
G1 X87.631 Y115.861 E0.39616
G1 X88.768 Y115.861 E0.09123
G1 X84.139 Y111.232 E0.52517
G1 X84.139 Y110.095 E0.09123
G1 X89.905 Y115.861 E0.65419
G1 X91.042 Y115.861 E0.09123
G1 X84.139 Y108.958 E0.78320
G1 X84.139 Y107.821 E0.09123
G1 X92.179 Y115.861 E0.91221
G1 X93.317 Y115.861 E0.09123
G1 X84.139 Y106.683 E1.04122
G1 X84.139 Y105.546 E0.09123
G1 X94.454 Y115.861 E1.17024
G1 X95.591 Y115.861 E0.09123
G1 X84.139 Y104.409 E1.29925
G1 X84.139 Y103.272 E0.09123
G1 X96.728 Y115.861 E1.42826
G1 X97.865 Y115.861 E0.09123
G1 X84.139 Y102.135 E1.55727
G1 X84.139 Y100.998 E0.09123
G1 X99.002 Y115.861 E1.68629
G1 X100.139 Y115.861 E0.09123
G1 X84.139 Y99.861 E1.81530
G1 X84.139 Y98.724 E0.09123
G1 X101.276 Y115.861 E1.94431
G1 X102.413 Y115.861 E0.09123
G1 X84.139 Y97.587 E2.07333
G1 X84.139 Y96.450 E0.09123
G1 X103.550 Y115.861 E2.20234
G1 X104.687 Y115.861 E0.09123
G1 X84.139 Y95.313 E2.33135
G1 X84.139 Y94.176 E0.09123
G1 X105.824 Y115.861 E2.46036
G1 X106.962 Y115.861 E0.09123
G1 X84.139 Y93.038 E2.58938
G1 X84.139 Y91.901 E0.09123
G1 X108.099 Y115.861 E2.71839
G1 X109.236 Y115.861 E0.09123
G1 X84.139 Y90.764 E2.84740
G1 X84.139 Y89.627 E0.09123
G1 X110.373 Y115.861 E2.97641
G1 X111.510 Y115.861 E0.09123
G1 X84.139 Y88.490 E3.10543
G1 X84.139 Y87.353 E0.09123
G1 X112.647 Y115.861 E3.23444
G1 X113.784 Y115.861 E0.09123
G1 X84.139 Y86.216 E3.36345
G1 X84.139 Y85.079 E0.09123
G1 X114.921 Y115.861 E3.49246
G1 X116.058 Y115.861 E0.09123
G1 X84.337 Y84.139 E3.59905
G1 X85.474 Y84.139 E0.09123
G1 X117.195 Y115.861 E3.59905
G1 X118.332 Y115.861 E0.09123
G1 X86.611 Y84.139 E3.59905
G1 X87.748 Y84.139 E0.09123
G1 X119.470 Y115.861 E3.59905
G1 X120.607 Y115.861 E0.09123
G1 X88.885 Y84.139 E3.59905
G1 X90.023 Y84.139 E0.09123
G1 X121.744 Y115.861 E3.59905
G1 X122.881 Y115.861 E0.09123
G1 X91.160 Y84.139 E3.59905
G1 X92.297 Y84.139 E0.09123
G1 X124.018 Y115.861 E3.59905
G1 X125.155 Y115.861 E0.09123
G1 X93.434 Y84.139 E3.59905
G1 X94.571 Y84.139 E0.09123
G1 X126.292 Y115.861 E3.59905
G1 X127.429 Y115.861 E0.09123
G1 X95.708 Y84.139 E3.59905
G1 X96.845 Y84.139 E0.09123
G1 X128.566 Y115.861 E3.59905
G1 X129.703 Y115.861 E0.09123
G1 X97.982 Y84.139 E3.59905
G1 X99.119 Y84.139 E0.09123
G1 X130.840 Y115.861 E3.59905
G1 X131.977 Y115.861 E0.09123
G1 X100.256 Y84.139 E3.59905
G1 X101.393 Y84.139 E0.09123
G1 X133.115 Y115.861 E3.59905
G1 X134.252 Y115.861 E0.09123
G1 X102.531 Y84.139 E3.59905
G1 X103.668 Y84.139 E0.09123
G1 X135.389 Y115.861 E3.59905
G1 X136.526 Y115.861 E0.09123
G1 X104.805 Y84.139 E3.59905
G1 X105.942 Y84.139 E0.09123
G1 X137.663 Y115.861 E3.59905
G1 X137.861 Y114.921 E0.07702
G1 X107.079 Y84.139 E3.49246
G1 X108.216 Y84.139 E0.09123
G1 X137.861 Y113.784 E3.36345
G1 X137.861 Y112.647 E0.09123
G1 X109.353 Y84.139 E3.23443
G1 X110.490 Y84.139 E0.09123
G1 X137.861 Y111.510 E3.10542
G1 X137.861 Y110.373 E0.09123
G1 X111.627 Y84.139 E2.97641
G1 X112.764 Y84.139 E0.09123
G1 X137.861 Y109.236 E2.84739
G1 X137.861 Y108.099 E0.09123
G1 X113.901 Y84.139 E2.71838
G1 X115.038 Y84.139 E0.09123
G1 X137.861 Y106.962 E2.58937
G1 X137.861 Y105.824 E0.09123
G1 X116.176 Y84.139 E2.46036
G1 X117.313 Y84.139 E0.09123
G1 X137.861 Y104.687 E2.33134
G1 X137.861 Y103.550 E0.09123
G1 X118.450 Y84.139 E2.20233
G1 X119.587 Y84.139 E0.09123
G1 X137.861 Y102.413 E2.07332
G1 X137.861 Y101.276 E0.09123
G1 X120.724 Y84.139 E1.94431
G1 X121.861 Y84.139 E0.09123
G1 X137.861 Y100.139 E1.81529
G1 X137.861 Y99.002 E0.09123
G1 X122.998 Y84.139 E1.68628
G1 X124.135 Y84.139 E0.09123
G1 X137.861 Y97.865 E1.55727
G1 X137.861 Y96.728 E0.09123
G1 X125.272 Y84.139 E1.42826
G1 X126.409 Y84.139 E0.09123
G1 X137.861 Y95.591 E1.29924
G1 X137.861 Y94.454 E0.09123
G1 X127.546 Y84.139 E1.17023
G1 X128.684 Y84.139 E0.09123
G1 X137.861 Y93.316 E1.04122
