; generated by Slic3r 1.2.5 on 2015-04-27 at 14:58:11

; external perimeters extrusion width = 0.50mm
; perimeters extrusion width = 0.85mm
; infill extrusion width = 0.87mm
; solid infill extrusion width = 0.85mm
; top infill extrusion width = 0.85mm

; external perimeters extrusion width = 0.50mm
; perimeters extrusion width = 0.85mm
; infill extrusion width = 0.87mm
; solid infill extrusion width = 0.85mm
; top infill extrusion width = 0.85mm

M107
M140 S65		    ; Turn the bed on
G21             ; metric values
G90             ; absolute positioning
M83             ; Relative extrudes
M107            ; start with the fan off
G28             ; zero the machine
G1 Z5 F200      ; Go to...
G1 X5 Y30 F2000 ; ...wait for warm position
M116            ; Wait for the bed to heat
G10 P0 S185 R160; Tool 1 Operating and standby temperatures
G10 P1 S195 R160; Tool 2 Operating and standby temperatures
T0              ; Select Tool 1
M116            ; Wait for tools to get to their operating or standby temperatures

G21 ; set units to millimeters
G90 ; use absolute coordinates
M83 ; use relative distances for extrusion
T0
G1 E-4.00000 F1800.00000
G1 Z0.240 F3600.000
G1 X40.682 Y38.054 F3600.000
G1 E4.00000 F1800.00000
G1 X43.054 Y35.682 E0.26724 F240.000
G1 X45.160 Y33.718 E0.22944
G1 X47.510 Y31.670 E0.24834
G1 X50.116 Y29.560 E0.26724
G1 X52.416 Y27.827 E0.22944
G1 X54.967 Y26.035 E0.24834
G1 X57.780 Y24.209 E0.26724
G1 X60.454 Y22.607 E0.24834
G1 X62.973 Y21.211 E0.22943
G1 X65.961 Y19.688 E0.26724
G1 X68.788 Y18.374 E0.24834
G1 X71.439 Y17.249 E0.22943
G1 X74.570 Y16.047 E0.26724
G1 X77.293 Y15.110 E0.22943
G1 X80.272 Y14.194 E0.24834
G1 X83.512 Y13.326 E0.26724
G1 X86.550 Y12.629 E0.24834
G1 X89.377 Y12.080 E0.22943
G1 X92.690 Y11.555 E0.26724
G1 X95.548 Y11.204 E0.22943
G1 X98.653 Y10.928 E0.24834
G1 X102.002 Y10.753 E0.26724
G1 X104.881 Y10.703 E0.22944
G1 X105.464 Y10.709 E0.04644
G1 X108.235 Y10.761 E0.22081 F240.000
G1 X111.111 Y10.912 E0.22943
G1 X114.216 Y11.179 E0.24834
G1 X117.545 Y11.588 E0.26724
G1 X120.623 Y12.080 E0.24834
G1 X123.450 Y12.629 E0.22943
G1 X124.019 Y12.756 E0.04643
G1 X126.718 Y13.384 E0.22081
G1 X129.500 Y14.129 E0.22943
G1 X132.482 Y15.036 E0.24834
G1 X135.653 Y16.128 E0.26724
G1 X138.561 Y17.249 E0.24834
G1 X141.212 Y18.374 E0.22943
G1 X144.039 Y19.688 E0.24834
G1 X146.818 Y21.099 E0.24834
G1 X149.751 Y22.725 E0.26724
G1 X152.220 Y24.209 E0.22943
G1 X154.836 Y25.903 E0.24834
G1 X157.392 Y27.687 E0.24834
G1 X160.070 Y29.706 E0.26724
G1 X162.490 Y31.670 E0.24834
G1 X164.840 Y33.718 E0.24834
G1 X166.946 Y35.682 E0.22943
G1 X169.153 Y37.883 E0.24834
G1 X171.282 Y40.160 E0.24833
G1 X173.482 Y42.692 E0.26723
G1 X175.440 Y45.116 E0.24834
G1 X177.313 Y47.608 E0.24835
G1 X179.097 Y50.164 E0.24834
G1 X180.791 Y52.780 E0.24832
G1 X182.275 Y55.248 E0.22944
G1 X183.789 Y57.973 E0.24834
G1 X185.312 Y60.961 E0.26724
G1 X186.626 Y63.788 E0.24833
G1 X187.751 Y66.439 E0.22943
G1 X188.872 Y69.347 E0.24834
G1 X189.964 Y72.518 E0.26723
G1 X190.871 Y75.500 E0.24835
G1 X191.674 Y78.512 E0.24834
G1 X192.321 Y81.318 E0.22944
G1 X192.920 Y84.377 E0.24833
G1 X193.412 Y87.455 E0.24834
G1 X193.821 Y90.784 E0.26724
G1 X194.088 Y93.889 E0.24834
G1 X194.239 Y96.765 E0.22943
G1 X194.297 Y99.881 E0.24834
G1 X194.247 Y102.998 E0.24834
G1 X194.072 Y106.347 E0.26724
G1 X193.796 Y109.452 E0.24834
G1 X193.445 Y112.310 E0.22943
G1 X193.016 Y115.048 E0.22080
G1 X192.920 Y115.623 E0.04644
G1 X192.371 Y118.450 E0.22943
G1 X191.674 Y121.488 E0.24833
G1 X190.871 Y124.500 E0.24835
G1 X189.890 Y127.707 E0.26724
G1 X188.953 Y130.430 E0.22943
G1 X187.840 Y133.341 E0.24834
G1 X186.626 Y136.212 E0.24834
G1 X185.312 Y139.039 E0.24833
G1 X183.789 Y142.027 E0.26723
G1 X182.275 Y144.752 E0.24835
G1 X180.791 Y147.220 E0.22944
G1 X179.097 Y149.836 E0.24832
G1 X177.313 Y152.392 E0.24835
G1 X175.440 Y154.883 E0.24833
G1 X173.482 Y157.309 E0.24835
G1 X171.282 Y159.840 E0.26723
G1 X169.153 Y162.117 E0.24834
G1 X166.946 Y164.318 E0.24834
G1 X164.840 Y166.282 E0.22943
G1 X162.309 Y168.482 E0.26723
G1 X159.883 Y170.440 E0.24835
G1 X157.392 Y172.313 E0.24833
G1 X155.033 Y173.965 E0.22944
G1 X152.421 Y175.666 E0.24834
G1 X149.752 Y177.275 E0.24833
G1 X146.818 Y178.901 E0.26724
G1 X144.039 Y180.312 E0.24834
G1 X141.429 Y181.529 E0.22943
G1 X138.561 Y182.751 E0.24833
G1 X135.653 Y183.872 E0.24834
G1 X132.707 Y184.890 E0.24834
G1 X129.500 Y185.871 E0.26724
G1 X126.488 Y186.674 E0.24835
G1 X123.682 Y187.321 E0.22943
G1 X120.623 Y187.920 E0.24833
G1 X117.545 Y188.412 E0.24834
G1 X114.216 Y188.821 E0.26724
G1 X111.111 Y189.088 E0.24834
G1 X108.235 Y189.239 E0.22943
G1 X107.652 Y189.253 E0.04643
G1 X104.881 Y189.297 E0.22081
G1 X102.002 Y189.247 E0.22944
G1 X98.653 Y189.072 E0.26723
G1 X95.548 Y188.796 E0.24834
G1 X92.690 Y188.445 E0.22943
G1 X89.952 Y188.015 E0.22082
G1 X89.377 Y187.920 E0.04643
G1 X86.550 Y187.371 E0.22944
G1 X83.512 Y186.674 E0.24833
G1 X80.272 Y185.806 E0.26725
G1 X77.518 Y184.964 E0.22943
G1 X76.966 Y184.778 E0.04642
G1 X74.347 Y183.872 E0.22082
G1 X71.659 Y182.840 E0.22943
G1 X68.571 Y181.529 E0.26723
G1 X65.748 Y180.208 E0.24835
G1 X62.973 Y178.789 E0.24834
G1 X60.248 Y177.275 E0.24834
G1 X57.780 Y175.791 E0.22943
G1 X55.164 Y174.097 E0.24833
G1 X52.608 Y172.313 E0.24834
G1 X50.117 Y170.440 E0.24834
G1 X47.510 Y168.330 E0.26724
G1 X45.337 Y166.440 E0.22944
G1 X44.907 Y166.046 E0.04643
G1 X42.883 Y164.153 E0.22081
G1 X40.847 Y162.117 E0.22943
G1 X38.718 Y159.840 E0.24834
G1 X36.518 Y157.308 E0.26724
G1 X34.560 Y154.883 E0.24834
G1 X32.827 Y152.584 E0.22943
G1 X31.035 Y150.033 E0.24833
G1 X29.334 Y147.421 E0.24834
G1 X27.725 Y144.751 E0.24833
G1 X26.211 Y142.027 E0.24834
G1 X24.688 Y139.039 E0.26724
G1 X23.471 Y136.429 E0.22943
G1 X22.384 Y133.880 E0.22080
G1 X22.160 Y133.341 E0.04644
G1 X21.128 Y130.653 E0.22943
G1 X20.036 Y127.482 E0.26724
G1 X19.129 Y124.500 E0.24834
G1 X18.326 Y121.488 E0.24834
G1 X17.629 Y118.450 E0.24834
G1 X17.080 Y115.623 E0.22943
G1 X16.588 Y112.545 E0.24834
G1 X16.179 Y109.216 E0.26724
G1 X15.912 Y106.111 E0.24834
G1 X15.761 Y103.235 E0.22944
G1 X15.703 Y100.119 E0.24833
G1 X15.761 Y96.765 E0.26724
G1 X15.928 Y93.653 E0.24834
G1 X16.179 Y90.784 E0.22943
G1 X16.246 Y90.205 E0.04644
G1 X16.588 Y87.455 E0.22080
G1 X17.039 Y84.611 E0.22944
G1 X17.629 Y81.550 E0.24834
G1 X18.384 Y78.282 E0.26724
G1 X19.194 Y75.272 E0.24834
G1 X20.110 Y72.293 E0.24834
G1 X21.047 Y69.570 E0.22943
G1 X22.160 Y66.659 E0.24834
G1 X23.374 Y63.788 E0.24834
G1 X24.792 Y60.748 E0.26724
G1 X26.211 Y57.973 E0.24834
G1 X27.725 Y55.249 E0.24834
G1 X29.209 Y52.780 E0.22943
G1 X30.903 Y50.164 E0.24834
G1 X32.687 Y47.608 E0.24834
G1 X34.706 Y44.930 E0.26724
G1 X36.670 Y42.510 E0.24834
G1 X38.560 Y40.337 E0.22943
G1 X40.631 Y38.109 E0.24236
G1 E-4.00000 F1800.00000
G1 X170.627 Y79.127 F3600.000
G1 E4.00000 F1800.00000
G1 X181.373 Y79.127 E0.85626 F240.000
G1 X181.373 Y120.873 E3.32616
G1 X170.627 Y120.873 E0.85626 F240.000
G1 X170.627 Y79.202 E3.32018
G1 X171.250 Y79.750 F3600.000
G1 X180.750 Y79.750 E0.75691 F168.000
G1 X180.750 Y120.250 E3.22681
G1 X171.250 Y120.250 E0.75691
G1 X171.250 Y79.825 E3.22083
G1 X171.250 Y79.250 F3600.000
G1 X138.873 Y100.627 F3600.000
G1 X138.873 Y106.373 E0.45789 F240.000
G1 X133.127 Y106.373 E0.45789 F240.000
G1 X133.127 Y100.627 E0.45789
G1 X138.798 Y100.627 E0.45191
G1 X138.250 Y101.250 F3600.000
G1 X138.250 Y105.750 E0.35853 F240.000
G1 X133.750 Y105.750 E0.35853
G1 X133.750 Y101.250 E0.35853
G1 X138.175 Y101.250 E0.35256 F240.000
G1 X138.750 Y101.250 F3600.000
G1 X133.873 Y98.373 F3600.000
G1 X128.127 Y98.373 E0.45789 F240.000
G1 X128.127 Y92.627 E0.45789
G1 X133.873 Y92.627 E0.45789
G1 X133.873 Y98.298 E0.45191
G1 X133.250 Y97.750 F3600.000
G1 X128.750 Y97.750 E0.35853 F240.000
G1 X128.750 Y93.250 E0.35853
G1 X133.250 Y93.250 E0.35853 F240.000
G1 X133.250 Y97.675 E0.35256
G1 X133.250 Y98.250 F3600.000
G1 X39.373 Y97.675 F3600.000
G1 X39.373 Y120.873 E1.84832 F240.000
G1 X28.627 Y120.873 E0.85626 F240.000
G1 X28.627 Y79.127 E3.32616
G1 X39.373 Y79.127 E0.85626
G1 X39.373 Y97.600 E1.47186
G1 X38.750 Y97.600 F3600.000
G1 X38.750 Y120.250 E1.80462 F168.000
G1 X29.250 Y120.250 E0.75691
G1 X29.250 Y79.750 E3.22681
G1 X38.750 Y79.750 E0.75691 F168.000
G1 X38.750 Y97.525 E1.41621
G1 X39.183 Y97.850 F3600.000
G1 X71.127 Y97.525 F3600.000
G1 X71.127 Y92.627 E0.39028 F240.000
G1 X76.873 Y92.627 E0.45789
G1 X76.873 Y98.373 E0.45789
G1 X71.127 Y98.373 E0.45789 F240.000
G1 X71.127 Y97.600 E0.06163
G1 X71.750 Y97.600 F3600.000
G1 X71.750 Y93.250 E0.34658 F240.000
G1 X76.250 Y93.250 E0.35853 F240.000
G1 X76.250 Y97.750 E0.35853
G1 X71.750 Y97.750 E0.35853
G1 X71.750 Y97.675 E0.00598
G1 X71.317 Y97.350 F3600.000
G1 X76.127 Y100.627 F3600.000
G1 X81.873 Y100.627 E0.45789 F240.000
G1 X81.873 Y106.373 E0.45789
G1 X76.127 Y106.373 E0.45789 F240.000
G1 X76.127 Y100.702 E0.45191
G1 X76.750 Y101.250 F3600.000
G1 X81.250 Y101.250 E0.35853 F240.000
G1 X81.250 Y105.750 E0.35853
G1 X76.750 Y105.750 E0.35853
G1 X76.750 Y101.325 E0.35256
G1 X76.750 Y100.750 F3600.000
G1 E-4.00000 F1800.00000
G1 X88.627 Y123.627 F3600.000
G1 E4.00000 F1800.00000
G1 X96.373 Y123.627 E0.61724 F240.000
G1 X96.373 Y127.873 E0.33838
G1 X88.627 Y127.873 E0.61724 F240.000
G1 X88.627 Y123.702 E0.33240
G1 X89.250 Y124.250 F3600.000
G1 X95.750 Y124.250 E0.51788 F240.000
G1 X95.750 Y127.250 E0.23902
G1 X89.250 Y127.250 E0.51788
G1 X89.250 Y124.325 E0.23305
G1 X89.250 Y123.750 F3600.000
G1 E-4.00000 F1800.00000
G1 X92.127 Y150.627 F3600.000
G1 E4.00000 F1800.00000
G1 X97.873 Y150.627 E0.45789 F240.000
G1 X97.873 Y156.373 E0.45789
G1 X92.127 Y156.373 E0.45789 F240.000
G1 X92.127 Y150.702 E0.45191
G1 X92.750 Y151.250 F3600.000
G1 X97.250 Y151.250 E0.35853 F240.000
G1 X97.250 Y155.750 E0.35853
G1 X92.750 Y155.750 E0.35853
G1 X92.750 Y151.325 E0.35256
G1 X92.750 Y150.750 F3600.000
G1 X86.873 Y151.325 F3600.000
G1 X86.873 Y156.373 E0.40223 F240.000
G1 X81.127 Y156.373 E0.45789 F240.000
G1 X81.127 Y150.627 E0.45789
G1 X86.873 Y150.627 E0.45789
G1 X86.873 Y151.250 E0.04968
G1 X86.250 Y151.250 F3600.000
G1 X86.250 Y155.750 E0.35853 F240.000
G1 X81.750 Y155.750 E0.35853
G1 X81.750 Y151.250 E0.35853
G1 X86.175 Y151.250 E0.35256 F240.000
G1 X86.750 Y151.250 F3600.000
G1 E-4.00000 F1800.00000
G1 X26.370 Y78.120 F3600.000
G1 E4.00000 F1800.00000
G1 X26.536 Y77.501 E0.05112 F240.000
G1 X27.369 Y74.776 E0.22700
G1 X28.296 Y72.082 E0.22700
G1 X29.317 Y69.422 E0.22700
G1 X30.431 Y66.800 E0.22700
G1 X31.635 Y64.217 E0.22700
G1 X32.928 Y61.679 E0.22700
G1 X34.309 Y59.187 E0.22700
G1 X35.777 Y56.745 E0.22700
G1 X37.329 Y54.355 E0.22700
G1 X38.963 Y52.021 E0.22700
G1 X40.885 Y49.489 E0.25331
G1 X42.471 Y47.532 E0.20069
G1 X44.340 Y45.381 E0.22700
G1 X46.283 Y43.298 E0.22700
G1 X48.298 Y41.283 E0.22700
G1 X50.381 Y39.340 E0.22700
G1 X52.532 Y37.471 E0.22700
G1 X54.746 Y35.678 E0.22700
G1 X57.021 Y33.963 E0.22700
G1 X59.355 Y32.329 E0.22700
G1 X61.745 Y30.777 E0.22700
G1 X64.379 Y29.203 E0.24453
G1 X66.679 Y27.928 E0.20947
G1 X69.217 Y26.635 E0.22700
G1 X71.800 Y25.431 E0.22700
G1 X74.422 Y24.317 E0.22700
G1 X77.082 Y23.296 E0.22700
G1 X79.776 Y22.369 E0.22700
G1 X82.501 Y21.536 E0.22700
G1 X85.253 Y20.798 E0.22700
G1 X88.029 Y20.157 E0.22700
G1 X90.826 Y19.614 E0.22700
G1 X93.640 Y19.168 E0.22700
G1 X96.468 Y18.821 E0.22700
G1 X99.306 Y18.572 E0.22700
G1 X102.482 Y18.418 E0.25331
G1 X105.000 Y18.374 E0.20069 F240.000
G1 X107.849 Y18.423 E0.22700
G1 X110.694 Y18.572 E0.22700
G1 X113.532 Y18.821 E0.22700
G1 X116.360 Y19.168 E0.22700
G1 X119.174 Y19.614 E0.22700
G1 X121.971 Y20.157 E0.22700
G1 X124.747 Y20.798 E0.22700
G1 X127.499 Y21.536 E0.22700
G1 X130.224 Y22.369 E0.22700
G1 X132.918 Y23.296 E0.22700
G1 X135.578 Y24.317 E0.22700
G1 X138.200 Y25.431 E0.22700
G1 X140.783 Y26.635 E0.22700
G1 X143.321 Y27.928 E0.22700
G1 X145.813 Y29.309 E0.22700
G1 X148.255 Y30.777 E0.22700
G1 X150.645 Y32.329 E0.22700
G1 X152.979 Y33.963 E0.22700
G1 X155.511 Y35.885 E0.25331
G1 X157.468 Y37.471 E0.20069
G1 X159.619 Y39.340 E0.22700
G1 X161.702 Y41.283 E0.22700
G1 X163.717 Y43.298 E0.22700
G1 X165.660 Y45.381 E0.22700
G1 X167.529 Y47.532 E0.22700
G1 X169.322 Y49.746 E0.22700
G1 X171.037 Y52.021 E0.22700
G1 X172.671 Y54.355 E0.22700
G1 X174.223 Y56.745 E0.22700
G1 X175.691 Y59.187 E0.22700
G1 X177.072 Y61.679 E0.22700
G1 X178.365 Y64.217 E0.22700
G1 X179.569 Y66.800 E0.22700
G1 X180.683 Y69.422 E0.22701
G1 X181.704 Y72.082 E0.22700
G1 X182.728 Y75.092 E0.25331
G1 X183.464 Y77.501 E0.20069
G1 X184.202 Y80.253 E0.22700
G1 X184.843 Y83.029 E0.22700
G1 X185.386 Y85.826 E0.22700
G1 X185.832 Y88.640 E0.22700
G1 X186.179 Y91.468 E0.22700
G1 X186.428 Y94.306 E0.22700
G1 X186.577 Y97.151 E0.22700
G1 X186.626 Y100.000 E0.22700
G1 X186.577 Y102.849 E0.22700
G1 X186.428 Y105.694 E0.22700
G1 X186.179 Y108.532 E0.22700
G1 X185.832 Y111.360 E0.22700
G1 X185.386 Y114.174 E0.22700
G1 X184.843 Y116.971 E0.22700
G1 X184.202 Y119.747 E0.22700
G1 X183.464 Y122.499 E0.22700
G1 X182.631 Y125.224 E0.22700
G1 X181.704 Y127.918 E0.22700
G1 X180.683 Y130.578 E0.22700
G1 X179.569 Y133.200 E0.22700
G1 X178.365 Y135.783 E0.22700
G1 X177.072 Y138.321 E0.22701
G1 X175.691 Y140.813 E0.22700
G1 X174.223 Y143.255 E0.22700
G1 X172.671 Y145.645 E0.22701
G1 X171.037 Y147.979 E0.22700
G1 X169.322 Y150.254 E0.22700
G1 X167.529 Y152.468 E0.22700
G1 X165.660 Y154.619 E0.22701
G1 X163.717 Y156.702 E0.22700
G1 X161.702 Y158.717 E0.22700
G1 X159.619 Y160.660 E0.22700
G1 X157.468 Y162.529 E0.22701
G1 X155.254 Y164.322 E0.22700
G1 X152.979 Y166.037 E0.22700
G1 X150.645 Y167.671 E0.22700
G1 X148.255 Y169.223 E0.22700
G1 X145.813 Y170.691 E0.22700
G1 X143.321 Y172.072 E0.22700
G1 X140.783 Y173.365 E0.22700
G1 X138.200 Y174.569 E0.22700
G1 X135.578 Y175.683 E0.22700
G1 X132.918 Y176.704 E0.22700
G1 X130.224 Y177.631 E0.22700
G1 X127.499 Y178.464 E0.22701
G1 X124.747 Y179.202 E0.22700
G1 X121.971 Y179.843 E0.22700
G1 X119.174 Y180.386 E0.22700
G1 X116.360 Y180.832 E0.22700
G1 X113.532 Y181.179 E0.22700
G1 X110.694 Y181.428 E0.22700
G1 X107.849 Y181.577 E0.22700
G1 X105.000 Y181.626 E0.22700
G1 X102.151 Y181.577 E0.22700
G1 X99.306 Y181.428 E0.22700
G1 X96.468 Y181.179 E0.22700
G1 X93.640 Y180.832 E0.22700
G1 X90.826 Y180.386 E0.22700
G1 X88.029 Y179.843 E0.22700
G1 X85.253 Y179.202 E0.22700
G1 X82.501 Y178.464 E0.22700
G1 X79.464 Y177.524 E0.25331
G1 X77.082 Y176.704 E0.20069
G1 X74.422 Y175.683 E0.22700
G1 X71.800 Y174.569 E0.22701
G1 X69.217 Y173.365 E0.22700
G1 X66.679 Y172.072 E0.22700
G1 X64.187 Y170.691 E0.22700
G1 X61.745 Y169.223 E0.22700
G1 X59.355 Y167.671 E0.22700
G1 X57.021 Y166.037 E0.22700
G1 X54.746 Y164.322 E0.22700
G1 X52.532 Y162.529 E0.22700
G1 X50.140 Y160.435 E0.25331
G1 X48.298 Y158.717 E0.20069
G1 X46.283 Y156.702 E0.22700
G1 X44.340 Y154.619 E0.22700
G1 X42.471 Y152.468 E0.22701
G1 X40.678 Y150.254 E0.22700
G1 X38.963 Y147.979 E0.22700
G1 X37.329 Y145.645 E0.22700
G1 X35.777 Y143.255 E0.22700
G1 X34.309 Y140.813 E0.22700
G1 X32.928 Y138.321 E0.22700
G1 X31.635 Y135.783 E0.22700
G1 X30.431 Y133.200 E0.22700
G1 X29.317 Y130.578 E0.22700
G1 X28.296 Y127.918 E0.22701
G1 X27.369 Y125.224 E0.22700
G1 X26.536 Y122.499 E0.22700
G1 X25.798 Y119.747 E0.22700
G1 X25.157 Y116.971 E0.22700
G1 X24.614 Y114.174 E0.22700
G1 X24.168 Y111.360 E0.22700
G1 X23.821 Y108.532 E0.22700
G1 X23.572 Y105.694 E0.22700
G1 X23.423 Y102.849 E0.22700
G1 X23.374 Y100.000 E0.22700
G1 X23.423 Y97.151 E0.22700
G1 X23.572 Y94.306 E0.22700
G1 X23.821 Y91.468 E0.22700
G1 X24.168 Y88.640 E0.22700
G1 X24.614 Y85.826 E0.22700
G1 X25.157 Y83.029 E0.22700
G1 X25.798 Y80.253 E0.22700
G1 X26.350 Y78.193 E0.16991
G1 X25.748 Y78.031 F3600.000
G1 X25.936 Y77.329 E0.05796 F168.000
G1 X26.776 Y74.583 E0.22874
G1 X27.710 Y71.869 E0.22874
G1 X28.739 Y69.189 E0.22874
G1 X29.861 Y66.546 E0.22874
G1 X31.229 Y63.640 E0.25591
G1 X32.378 Y61.386 E0.20155
G1 X33.769 Y58.875 E0.22874
G1 X35.248 Y56.414 E0.22874
G1 X36.812 Y54.006 E0.22874
G1 X38.458 Y51.655 E0.22874
G1 X40.186 Y49.362 E0.22874
G1 X42.217 Y46.873 E0.25591
G1 X43.876 Y44.964 E0.20155
G1 X45.834 Y42.864 E0.22874
