;Sliced at: Tue 28-04-2015 21:02:12
;Basic settings: Layer height: 0.2 Walls: 1.5 Fill: 60
;M190 S65 ;Uncomment to add your own bed temperature line
;M109 S185 ;Uncomment to add your own temperature line
M140 S65		    ; Turn the bed on
G21             ; metric values
G90             ; absolute positioning
M83             ; Relative extrudes
M107            ; start with the fan off
G28             ; zero the machine
G1 Z5 F9000  ; Go to...
G1 X5 Y30 F9000 ; ...wait for warm position
M116            ; Wait for the bed to heat
G10 P0 S185 R140; Tool 1 Operating and standby temperatures
G10 P1 S195 R140; Tool 2 Operating and standby temperatures
T0              ; Select Tool 0
M116            ; Wait for tools to get to their operating or standby temperatures

;Layer count: 15
;LAYER:0
M107
G1 F1800.000 E-4.0
G1 Z0.200
G1 F9000 X107.500 Y81.250 
G1 F1800.000 E4.0
;TYPE:SKIRT
G1 F600 X121.000 Y81.250 E0.56126
G1 X121.000 Y118.750 E1.55907
G1 X107.500 Y118.750 E0.56127
G1 X107.500 Y81.250 E1.55907
G1 F9000 X108.000 Y81.750
G1 F600 X120.500 Y81.750 E0.51969
G1 X120.500 Y118.250 E1.51749
G1 X108.000 Y118.250 E0.51969
G1 X108.000 Y81.750 E1.51749
G1 F2400 E-4.50000
G1 F9000 X112.930 Y86.425
;TYPE:FILL
G1 F2400 E4.50000
G1 F600 X113.631 Y86.537 E0.01323
G1 X114.809 Y86.537 E0.01312
G1 X115.511 Y86.650 E0.02956
G1 F9000 X116.000 Y86.825
;TYPE:WALL-INNER
G1 F600 X112.500 Y86.825 E0.14552
G1 X112.500 Y86.250 E0.02390
G1 X116.000 Y86.250 E0.14551
G1 X116.000 Y86.825 E0.02391
G1 F9000 X116.316 Y87.434
G1 X116.316 Y111.566
G1 X116.000 Y112.175
G1 F600 X116.000 Y113.750 E0.06548
G1 X112.500 Y113.750 E0.14551
G1 X112.500 Y112.175 E0.06549
G1 X116.000 Y112.175 E0.14551
G1 F9000 X116.425 Y111.675
G1 F600 X116.425 Y87.325 E1.01235
G1 X112.075 Y87.325 E0.18086
G1 X112.075 Y111.675 E1.01235
G1 X116.425 Y111.675 E0.18085
G1 F9000 X116.500 Y114.250
G1 F600 X112.000 Y114.250 E0.18709
G1 X112.000 Y85.750 E1.18489
G1 X116.500 Y85.750 E0.18709
G1 X116.500 Y114.250 E1.18489
G1 F9000 X117.000 Y114.750
;TYPE:WALL-OUTER
G1 F600 X111.500 Y114.750 E0.22867
G1 X111.500 Y85.250 E1.22647
G1 X117.000 Y85.250 E0.22866
G1 X117.000 Y114.750 E1.22647
G1 F9000 X116.650 Y114.490
G1 X115.925 Y111.525
G1 X115.925 Y111.175
G1 F600 X115.925 Y87.825 E0.97078
G1 X112.575 Y87.825 E0.13927
G1 X112.575 Y111.175 E0.97078
G1 X115.925 Y111.175 E0.13928
G1 F9000 X115.532 Y112.350
;TYPE:SKIN
G1 F600 X115.824 Y112.642 E0.01717
G1 F9000 X115.824 Y113.349
G1 F600 X114.824 Y112.350 E0.05877
G1 F9000 X114.117 Y112.350
G1 F600 X115.342 Y113.574 E0.07199
G1 F9000 X114.635 Y113.574
G1 F600 X113.410 Y112.350 E0.07200
G1 F9000 X112.703 Y112.350
G1 F600 X113.927 Y113.574 E0.07196
G1 F9000 X113.220 Y113.574
G1 F600 X112.673 Y113.027 E0.03217
G92 E0
G1 F2400 E-16.50000
;Switch between the current extruder and the next extruder, when printing with multiple extruders.
;This code is added before the T(n)

T1
;Switch between the current extruder and the next extruder, when printing with multiple extruders.
;This code is added after the T(n)

G1 F9000 X113.925 Y109.825
;TYPE:WALL-INNER
G1 F2400 E16.50000
G1 F600 X113.925 Y89.175 E0.85853
G1 X114.575 Y89.175 E0.02702
G1 X114.575 Y109.825 E0.85853
G1 X113.925 Y109.825 E0.02702
G1 F9000 X113.425 Y110.325
G1 F600 X113.425 Y88.675 E0.90010
G1 X115.075 Y88.675 E0.06860
G1 X115.075 Y110.325 E0.90011
G1 X113.425 Y110.325 E0.06860
G1 F9000 X112.925 Y110.825
;TYPE:WALL-OUTER
G1 F600 X112.925 Y88.175 E0.94167
G1 X115.575 Y88.175 E0.11018
G1 X115.575 Y110.825 E0.94167
G1 X112.925 Y110.825 E0.11018
G1 F9000 X113.185 Y110.475
G1 X114.246 Y109.650
;TYPE:SKIN
G1 F600 X114.248 Y109.299 E0.00867
G1 X114.248 Y108.592 E0.01763
G1 X114.248 Y107.885 E0.01764
G1 X114.248 Y107.178 E0.01764
G1 X114.248 Y106.471 E0.01763
G1 X114.248 Y105.764 E0.01764
G1 X114.248 Y105.056 E0.01766
G1 X114.248 Y104.349 E0.01769
G1 X114.248 Y103.642 E0.01764
G1 X114.248 Y102.935 E0.01764
G1 X114.248 Y102.228 E0.01763
G1 X114.248 Y101.521 E0.01764
G1 X114.248 Y100.814 E0.01763
G1 X114.248 Y100.107 E0.01764
G1 X114.248 Y99.400 E0.01764
G1 X114.248 Y98.692 E0.01766
G1 X114.248 Y97.985 E0.01769
G1 X114.248 Y97.278 E0.01764
G1 X114.248 Y96.571 E0.01764
G1 X114.248 Y95.864 E0.01763
G1 X114.248 Y95.157 E0.01764
G1 X114.248 Y94.450 E0.01763
G1 X114.248 Y93.743 E0.01764
G1 X114.248 Y93.036 E0.01764
G1 X114.248 Y92.328 E0.01766
G1 X114.248 Y91.621 E0.01769
G1 X114.248 Y90.914 E0.01770
G1 X114.248 Y90.207 E0.01763
G1 X114.098 Y89.703 E0.02187
;LAYER:1
M106 S127
G1 F1800.000 E-4.0
G1 Z0.400
G1 F9000 X113.925 Y89.175 
G1 F1800.000 E4.0
;TYPE:WALL-INNER
G1 F600 X114.575 Y89.175 E0.02702
G1 X114.575 Y109.825 E0.85853
G1 X113.925 Y109.825 E0.02702
G1 X113.925 Y89.175 E0.85853
G1 F9000 X113.425 Y88.675
G1 F600 X115.075 Y88.675 E0.06860
G1 X115.075 Y110.325 E0.90010
G1 X113.425 Y110.325 E0.06860
G1 X113.425 Y88.675 E0.90010
G1 F9000 X112.925 Y88.175
;TYPE:WALL-OUTER
G1 F600 X115.575 Y88.175 E0.11018
G1 X115.575 Y110.825 E0.94167
G1 X112.925 Y110.825 E0.11018
G1 X112.925 Y88.175 E0.94167
G1 F9000 X113.275 Y88.435
G1 X114.399 Y89.601
;TYPE:SKIN
G1 F1140 X114.249 Y90.104 E0.01759
G1 X114.249 Y90.811 E0.01758
G1 X114.249 Y91.518 E0.01758
G1 X114.249 Y92.225 E0.01758
G1 X114.249 Y92.932 E0.01757
G1 X114.249 Y93.639 E0.01758
G1 X114.249 Y94.346 E0.01758
G1 X114.249 Y95.053 E0.01758
G1 X114.249 Y95.760 E0.01757
G1 X114.249 Y96.468 E0.01761
G1 X114.249 Y97.175 E0.01757
G1 X114.249 Y97.882 E0.01758
G1 X114.249 Y98.589 E0.01758
G1 X114.249 Y99.296 E0.01757
G1 X114.249 Y100.003 E0.01758
G1 X114.249 Y100.710 E0.01758
G1 X114.249 Y101.417 E0.01758
G1 X114.249 Y102.124 E0.01757
G1 X114.249 Y102.832 E0.01761
G1 X114.249 Y103.539 E0.01757
G1 X114.249 Y104.246 E0.01758
G1 X114.249 Y104.953 E0.01758
G1 X114.249 Y105.660 E0.01758
G1 X114.249 Y106.367 E0.01757
G1 X114.249 Y107.074 E0.01758
G1 X114.249 Y107.781 E0.01758
G1 X114.249 Y108.488 E0.01758
G1 X114.249 Y109.196 E0.01760
G1 X114.148 Y109.650 E0.01933
G92 E0
G1 F2400 E-16.50000
;Switch between the current extruder and the next extruder, when printing with multiple extruders.
;This code is added before the T(n)

T0
;Switch between the current extruder and the next extruder, when printing with multiple extruders.
;This code is added after the T(n)

G1 F9000 X114.148 Y111.525
G1 X112.184 Y111.566
G1 X112.184 Y87.434
G1 X114.206 Y86.650
;TYPE:FILL
G1 F2400 E16.50000
G1 F600 X114.907 Y86.537 E0.01317
G1 X115.609 Y86.424 E0.02956
G1 F9000 X113.253 Y86.424
G1 F600 X113.028 Y86.650 E0.01326
G1 F9000 X112.500 Y86.825
;TYPE:WALL-INNER
G1 F600 X112.500 Y86.250 E0.02390
G1 X116.000 Y86.250 E0.14551
G1 X116.000 Y86.825 E0.02391
G1 X112.500 Y86.825 E0.14551
G1 F9000 X116.316 Y87.434
G1 X116.316 Y111.566
G1 X112.500 Y112.175
G1 F600 X116.000 Y112.175 E0.14552
G1 X116.000 Y113.750 E0.06548
G1 X112.500 Y113.750 E0.14551
G1 X112.500 Y112.175 E0.06548
G1 F9000 X112.075 Y111.675
G1 F600 X116.425 Y111.675 E0.18085
G1 X116.425 Y87.325 E1.01236
G1 X112.075 Y87.325 E0.18085
G1 X112.075 Y111.675 E1.01236
G1 F9000 X112.000 Y114.250
G1 F600 X112.000 Y85.750 E1.18489
G1 X116.500 Y85.750 E0.18709
G1 X116.500 Y114.250 E1.18489
G1 X112.000 Y114.250 E0.18709
G1 F9000 X111.500 Y114.750
;TYPE:WALL-OUTER
G1 F600 X111.500 Y85.250 E1.22647
G1 X117.000 Y85.250 E0.22866
G1 X117.000 Y114.750 E1.22647
G1 X111.500 Y114.750 E0.22866
G1 F9000 X111.760 Y114.400
G1 X112.225 Y111.175
G1 X112.575 Y111.175
G1 F600 X115.925 Y111.175 E0.13928
G1 X115.925 Y87.825 E0.97078
G1 X112.575 Y87.825 E0.13927
G1 X112.575 Y111.175 E0.97078
G1 F9000 X112.863 Y112.350
;TYPE:SKIN
G1 F1140 X112.674 Y112.538 E0.01109
G1 F9000 X112.674 Y113.245
G1 F1140 X113.570 Y112.350 E0.05265
G1 F9000 X114.277 Y112.350
G1 F1140 X113.052 Y113.574 E0.07199
G1 F9000 X113.760 Y113.574
G1 F1140 X114.984 Y112.350 E0.07197
G1 F9000 X115.691 Y112.350
G1 F1140 X114.466 Y113.575 E0.07203
G1 F9000 X115.173 Y113.575
G1 F1140 X115.824 Y112.924 E0.03827
;LAYER:2
M106 S255
G1 F1800.000 E-4.0
G1 Z0.600
G1 F9000 X112.184 Y111.566 
G1 F1800.000 E4.0
G1 X112.184 Y87.434
G1 X115.511 Y86.650
;TYPE:FILL
G1 F720 X114.809 Y86.537 E0.01319
G1 X113.631 Y86.537 E0.01312
G1 X112.930 Y86.425 E0.02952
G1 F9000 X112.500 Y86.250
;TYPE:WALL-INNER
G1 F720 X116.000 Y86.250 E0.14551
G1 X116.000 Y86.825 E0.02391
G1 X112.500 Y86.825 E0.14551
G1 X112.500 Y86.250 E0.02390
G1 F9000 X116.316 Y87.434
G1 X116.316 Y111.566
G1 X112.500 Y112.175
G1 F720 X116.000 Y112.175 E0.14552
G1 X116.000 Y113.750 E0.06548
G1 X112.500 Y113.750 E0.14551
G1 X112.500 Y112.175 E0.06548
G1 F9000 X112.075 Y111.675
G1 F720 X116.425 Y111.675 E0.18085
G1 X116.425 Y87.325 E1.01236
G1 X112.075 Y87.325 E0.18085
G1 X112.075 Y111.675 E1.01236
G1 F9000 X112.000 Y114.250
G1 F720 X112.000 Y85.750 E1.18489
G1 X116.500 Y85.750 E0.18709
G1 X116.500 Y114.250 E1.18489
G1 X112.000 Y114.250 E0.18709
G1 F9000 X111.500 Y114.750
;TYPE:WALL-OUTER
G1 F720 X111.500 Y85.250 E1.22647
G1 X117.000 Y85.250 E0.22866
G1 X117.000 Y114.750 E1.22647
G1 X111.500 Y114.750 E0.22866
G1 F9000 X111.760 Y114.400
G1 X112.225 Y111.175
G1 X112.575 Y111.175
G1 F720 X115.925 Y111.175 E0.13928
G1 X115.925 Y87.825 E0.97078
G1 X112.575 Y87.825 E0.13927
G1 X112.575 Y111.175 E0.97078
G1 F9000 X112.703 Y112.350
;TYPE:SKIN
G1 F1800 X113.927 Y113.574 E0.07197
G1 F9000 X113.220 Y113.574
G1 F1800 X112.673 Y113.027 E0.03216
G1 F9000 X113.410 Y112.350
G1 F1800 X114.635 Y113.574 E0.07200
G1 F9000 X115.342 Y113.574
G1 F1800 X114.117 Y112.350 E0.07199
G1 F9000 X114.824 Y112.350
G1 F1800 X115.824 Y113.349 E0.05877
G1 F9000 X115.824 Y112.642
G1 F1800 X115.532 Y112.350 E0.01717
G92 E0
G1 F2400 E-16.50000
;Switch between the current extruder and the next extruder, when printing with multiple extruders.
;This code is added before the T(n)

T1
;Switch between the current extruder and the next extruder, when printing with multiple extruders.
;This code is added after the T(n)

G1 F9000 X115.315 Y110.475
G1 X114.575 Y109.825
;TYPE:WALL-INNER
G1 F2400 E16.50000
G1 F720 X113.925 Y109.825 E0.02702
G1 X113.925 Y89.175 E0.85853
G1 X114.575 Y89.175 E0.02702
G1 X114.575 Y109.825 E0.85853
G1 F9000 X115.075 Y110.325
G1 F720 X113.425 Y110.325 E0.06860
G1 X113.425 Y88.675 E0.90010
G1 X115.075 Y88.675 E0.06860
G1 X115.075 Y110.325 E0.90011
G1 F9000 X115.575 Y110.825
;TYPE:WALL-OUTER
G1 F720 X112.925 Y110.825 E0.11017
G1 X112.925 Y88.175 E0.94168
G1 X115.575 Y88.175 E0.11017
G1 X115.575 Y110.825 E0.94168
G1 F9000 X115.225 Y110.565
G1 X114.246 Y109.650
;TYPE:SKIN
G1 F1800 X114.248 Y109.299 E0.00867
G1 X114.248 Y108.592 E0.01763
G1 X114.248 Y107.885 E0.01764
G1 X114.248 Y107.178 E0.01764
G1 X114.248 Y106.471 E0.01763
G1 X114.248 Y105.764 E0.01764
G1 X114.248 Y105.056 E0.01766
G1 X114.248 Y104.349 E0.01769
G1 X114.248 Y103.642 E0.01764
G1 X114.248 Y102.935 E0.01764
G1 X114.248 Y102.228 E0.01763
G1 X114.248 Y101.521 E0.01764
G1 X114.248 Y100.814 E0.01763
G1 X114.248 Y100.107 E0.01764
G1 X114.248 Y99.400 E0.01764
G1 X114.248 Y98.692 E0.01766
G1 X114.248 Y97.985 E0.01769
G1 X114.248 Y97.278 E0.01764
G1 X114.248 Y96.571 E0.01764
G1 X114.248 Y95.864 E0.01763
G1 X114.248 Y95.157 E0.01764
G1 X114.248 Y94.450 E0.01763
G1 X114.248 Y93.743 E0.01764
G1 X114.248 Y93.036 E0.01764
G1 X114.248 Y92.328 E0.01766
G1 X114.248 Y91.621 E0.01769
G1 X114.248 Y90.914 E0.01770
G1 X114.248 Y90.207 E0.01763
G1 X114.098 Y89.703 E0.02187
;LAYER:3
G1 F1800.000 E-4.0
G1 Z0.800
G1 F9000 X113.925 Y89.175 
G1 F1800.000 E4.0
;TYPE:WALL-INNER
G1 F780 X114.575 Y89.175 E0.02702
G1 X114.575 Y109.825 E0.85853
G1 X113.925 Y109.825 E0.02702
G1 X113.925 Y89.175 E0.85853
G1 F9000 X113.425 Y88.675
G1 F780 X115.075 Y88.675 E0.06860
G1 X115.075 Y110.325 E0.90010
G1 X113.425 Y110.325 E0.06860
G1 X113.425 Y88.675 E0.90010
G1 F9000 X112.925 Y88.175
;TYPE:WALL-OUTER
G1 F780 X115.575 Y88.175 E0.11018
G1 X115.575 Y110.825 E0.94167
G1 X112.925 Y110.825 E0.11018
G1 X112.925 Y88.175 E0.94167
G1 F9000 X113.275 Y88.435
G1 X114.399 Y89.601
;TYPE:SKIN
G1 F2340 X114.249 Y90.104 E0.01759
G1 X114.249 Y90.811 E0.01758
G1 X114.249 Y91.518 E0.01758
G1 X114.249 Y92.225 E0.01758
G1 X114.249 Y92.932 E0.01757
G1 X114.249 Y93.639 E0.01758
G1 X114.249 Y94.346 E0.01758
G1 X114.249 Y95.053 E0.01758
G1 X114.249 Y95.760 E0.01757
G1 X114.249 Y96.468 E0.01761
G1 X114.249 Y97.175 E0.01757
G1 X114.249 Y97.882 E0.01758
G1 X114.249 Y98.589 E0.01758
G1 X114.249 Y99.296 E0.01757
G1 X114.249 Y100.003 E0.01758
G1 X114.249 Y100.710 E0.01758
G1 X114.249 Y101.417 E0.01758
G1 X114.249 Y102.124 E0.01757
G1 X114.249 Y102.832 E0.01761
G1 X114.249 Y103.539 E0.01757
G1 X114.249 Y104.246 E0.01758
G1 X114.249 Y104.953 E0.01758
G1 X114.249 Y105.660 E0.01758
G1 X114.249 Y106.367 E0.01757
G1 X114.249 Y107.074 E0.01758
G1 X114.249 Y107.781 E0.01758
G1 X114.249 Y108.488 E0.01758
G1 X114.249 Y109.196 E0.01760
G1 X114.148 Y109.650 E0.01933
G92 E0
G1 F2400 E-16.50000
;Switch between the current extruder and the next extruder, when printing with multiple extruders.
;This code is added before the T(n)

T0
;Switch between the current extruder and the next extruder, when printing with multiple extruders.
;This code is added after the T(n)

G1 F9000 X114.148 Y111.525
G1 X112.184 Y111.566
G1 X112.184 Y87.434
G1 X114.206 Y86.650
;TYPE:FILL
G1 F2400 E16.50000
G1 F780 X114.907 Y86.537 E0.01317
G1 X115.609 Y86.424 E0.02956
G1 F9000 X113.253 Y86.424
G1 F780 X113.028 Y86.650 E0.01326
G1 F9000 X112.500 Y86.825
;TYPE:WALL-INNER
G1 F780 X112.500 Y86.250 E0.02390
G1 X116.000 Y86.250 E0.14551
G1 X116.000 Y86.825 E0.02391
G1 X112.500 Y86.825 E0.14551
G1 F9000 X116.316 Y87.434
G1 X116.316 Y111.566
G1 X112.500 Y112.175
G1 F780 X116.000 Y112.175 E0.14552
G1 X116.000 Y113.750 E0.06548
G1 X112.500 Y113.750 E0.14551
G1 X112.500 Y112.175 E0.06548
G1 F9000 X112.075 Y111.675
G1 F780 X116.425 Y111.675 E0.18085
G1 X116.425 Y87.325 E1.01236
G1 X112.075 Y87.325 E0.18085
G1 X112.075 Y111.675 E1.01236
G1 F9000 X112.000 Y114.250
G1 F780 X112.000 Y85.750 E1.18489
G1 X116.500 Y85.750 E0.18709
G1 X116.500 Y114.250 E1.18489
G1 X112.000 Y114.250 E0.18709
G1 F9000 X111.500 Y114.750
;TYPE:WALL-OUTER
G1 F780 X111.500 Y85.250 E1.22647
G1 X117.000 Y85.250 E0.22866
G1 X117.000 Y114.750 E1.22647
G1 X111.500 Y114.750 E0.22866
G1 F9000 X111.760 Y114.400
G1 X112.225 Y111.175
G1 X112.575 Y111.175
G1 F780 X115.925 Y111.175 E0.13928
G1 X115.925 Y87.825 E0.97078
G1 X112.575 Y87.825 E0.13927
G1 X112.575 Y111.175 E0.97078
G1 F9000 X112.863 Y112.350
;TYPE:SKIN
G1 F2340 X112.674 Y112.538 E0.01109
G1 F9000 X112.674 Y113.245
G1 F2340 X113.570 Y112.350 E0.05265
G1 F9000 X114.277 Y112.350
G1 F2340 X113.052 Y113.574 E0.07199
G1 F9000 X113.760 Y113.574
G1 F2340 X114.984 Y112.350 E0.07197
G1 F9000 X115.691 Y112.350
G1 F2340 X114.466 Y113.575 E0.07203
G1 F9000 X115.173 Y113.575
G1 F2340 X115.824 Y112.924 E0.03827
;LAYER:4
G1 F1800.000 E-4.0
G1 Z1.000
G1 F9000 X115.824 Y112.880 
G1 F1800.000 E4.0
;TYPE:FILL
G1 F900 X115.294 Y112.350 E0.03116
G1 F9000 X114.116 Y112.350
G1 F900 X115.341 Y113.574 E0.07200
G1 F9000 X114.162 Y113.574
G1 F900 X112.938 Y112.350 E0.07197
G1 F9000 X112.673 Y113.263
G1 F900 X112.984 Y113.574 E0.01828
G1 F9000 X112.184 Y111.566
G1 X112.184 Y87.434
G1 X113.155 Y86.650
G1 F900 X112.930 Y86.425 E0.01323
G1 F9000 X114.108 Y86.425
G1 F900 X114.809 Y86.537 E0.01322
G1 X115.511 Y86.650 E0.02957
G1 F9000 X116.000 Y86.825
;TYPE:WALL-INNER
G1 F900 X112.500 Y86.825 E0.14551
G1 X112.500 Y86.250 E0.02390
G1 X116.000 Y86.250 E0.14552
G1 X116.000 Y86.825 E0.02390
G1 F9000 X116.316 Y87.434
G1 X116.316 Y111.566
G1 X116.000 Y112.175
G1 F900 X116.000 Y113.750 E0.06548
G1 X112.500 Y113.750 E0.14552
G1 X112.500 Y112.175 E0.06548
G1 X116.000 Y112.175 E0.14551
G1 F9000 X116.425 Y111.675
G1 F900 X116.425 Y87.325 E1.01236
G1 X112.075 Y87.325 E0.18085
G1 X112.075 Y111.675 E1.01235
G1 X116.425 Y111.675 E0.18086
G1 F9000 X116.500 Y114.250
G1 F900 X112.000 Y114.250 E0.18708
G1 X112.000 Y85.750 E1.18490
G1 X116.500 Y85.750 E0.18708
G1 X116.500 Y114.250 E1.18490
G1 F9000 X117.000 Y114.750
;TYPE:WALL-OUTER
G1 F900 X111.500 Y114.750 E0.22866
G1 X111.500 Y85.250 E1.22647
G1 X117.000 Y85.250 E0.22866
G1 X117.000 Y114.750 E1.22647
G1 F9000 X116.650 Y114.490
G1 X115.925 Y111.525
G1 X115.925 Y111.175
G1 F900 X115.925 Y87.825 E0.97078
G1 X112.575 Y87.825 E0.13928
G1 X112.575 Y111.175 E0.97078
G1 X115.925 Y111.175 E0.13927
G1 F9000 X115.750 Y112.425
G92 E0
G1 F2400 E-16.50000
;Switch between the current extruder and the next extruder, when printing with multiple extruders.
;This code is added before the T(n)

T1
;Switch between the current extruder and the next extruder, when printing with multiple extruders.
;This code is added after the T(n)

G1 F9000 X115.315 Y110.475
G1 X114.399 Y109.099
;TYPE:FILL
G1 F2400 E16.50000
G1 F900 X114.248 Y108.359 E0.01765
G1 X114.248 Y107.181 E0.01763
G1 X114.248 Y106.003 E0.01763
G1 X114.248 Y104.825 E0.01763
G1 X114.248 Y103.647 E0.01763
G1 X114.248 Y102.469 E0.01763
G1 X114.248 Y101.291 E0.01763
G1 X114.248 Y100.113 E0.01763
G1 X114.248 Y98.935 E0.01764
G1 X114.248 Y97.757 E0.01763
G1 X114.248 Y96.579 E0.01763
G1 X114.248 Y95.401 E0.01763
G1 X114.248 Y94.222 E0.01765
G1 X114.248 Y93.044 E0.01763
G1 X114.248 Y91.866 E0.01763
G1 X114.248 Y90.688 E0.01763
G1 X114.098 Y89.949 E0.03135
G1 F9000 X113.925 Y89.175
;TYPE:WALL-INNER
G1 F900 X114.575 Y89.175 E0.02702
G1 X114.575 Y109.825 E0.85853
G1 X113.925 Y109.825 E0.02703
G1 X113.925 Y89.175 E0.85852
G1 F9000 X113.425 Y88.675
G1 F900 X115.075 Y88.675 E0.06860
G1 X115.075 Y110.325 E0.90010
G1 X113.425 Y110.325 E0.06860
G1 X113.425 Y88.675 E0.90011
G1 F9000 X112.925 Y88.175
;TYPE:WALL-OUTER
G1 F900 X115.575 Y88.175 E0.11017
G1 X115.575 Y110.825 E0.94168
G1 X112.925 Y110.825 E0.11017
G1 X112.925 Y88.175 E0.94168
G1 F9000 X113.275 Y88.435
G1 X114.175 Y89.425
;LAYER:5
G1 F1800.000 E-4.0
G1 Z1.200
G1 X114.399 Y89.991 
G1 F1800.000 E4.0
;TYPE:FILL
G1 F900 X114.249 Y90.730 E0.01762
G1 X114.249 Y91.908 E0.01753
G1 X114.249 Y93.086 E0.01753
G1 X114.249 Y94.264 E0.01754
G1 X114.249 Y95.442 E0.01753
G1 X114.249 Y96.620 E0.01753
G1 X114.249 Y97.798 E0.01754
G1 X114.249 Y98.976 E0.01753
G1 X114.249 Y100.154 E0.01753
G1 X114.249 Y101.332 E0.01754
G1 X114.249 Y102.510 E0.01753
G1 X114.249 Y103.688 E0.01753
G1 X114.249 Y104.866 E0.01754
G1 X114.249 Y106.044 E0.01753
G1 X114.249 Y107.222 E0.01753
G1 X114.249 Y108.400 E0.01754
G1 X114.099 Y109.139 E0.03135
G1 F9000 X113.925 Y109.825
;TYPE:WALL-INNER
G1 F900 X113.925 Y89.175 E0.85852
G1 X114.575 Y89.175 E0.02703
G1 X114.575 Y109.825 E0.85853
G1 X113.925 Y109.825 E0.02702
G1 F9000 X113.425 Y110.325
G1 F900 X113.425 Y88.675 E0.90010
G1 X115.075 Y88.675 E0.06860
G1 X115.075 Y110.325 E0.90010
G1 X113.425 Y110.325 E0.06860
G1 F9000 X112.925 Y110.825
;TYPE:WALL-OUTER
G1 F900 X112.925 Y88.175 E0.94168
G1 X115.575 Y88.175 E0.11017
G1 X115.575 Y110.825 E0.94168
G1 X112.925 Y110.825 E0.11018
G1 F9000 X113.185 Y110.475
G1 X114.175 Y109.575
G92 E0
G1 F2400 E-16.50000
;Switch between the current extruder and the next extruder, when printing with multiple extruders.
;This code is added before the T(n)

T0
;Switch between the current extruder and the next extruder, when printing with multiple extruders.
;This code is added after the T(n)

G1 F9000 X112.225 Y109.575
G1 X112.184 Y111.566
G1 X114.423 Y112.350
;TYPE:FILL
G1 F2400 E16.50000
G1 F900 X113.198 Y113.574 E0.07200
G1 F9000 X112.674 Y112.920
G1 F900 X113.245 Y112.350 E0.03354
G1 F9000 X114.375 Y113.575
G1 F900 X115.601 Y112.350 E0.07205
G1 F9000 X115.824 Y113.305
G1 F900 X115.553 Y113.575 E0.01591
G1 F9000 X112.184 Y111.566
G1 X112.184 Y87.434
G1 X115.384 Y86.650
G1 F900 X115.609 Y86.424 E0.01326
G1 F9000 X114.431 Y86.424
G1 F900 X113.729 Y86.537 E0.01318
G1 X113.028 Y86.650 E0.02952
G1 F9000 X112.500 Y86.825
;TYPE:WALL-INNER
G1 F900 X112.500 Y86.250 E0.02391
G1 X116.000 Y86.250 E0.14551
G1 X116.000 Y86.825 E0.02391
G1 X112.500 Y86.825 E0.14551
G1 F9000 X116.316 Y87.434
G1 X116.316 Y111.566
G1 X112.500 Y112.175
G1 F900 X116.000 Y112.175 E0.14551
G1 X116.000 Y113.750 E0.06548
G1 X112.500 Y113.750 E0.14552
G1 X112.500 Y112.175 E0.06548
G1 F9000 X112.075 Y111.675
G1 F900 X116.425 Y111.675 E0.18085
G1 X116.425 Y87.325 E1.01235
G1 X112.075 Y87.325 E0.18086
G1 X112.075 Y111.675 E1.01235
G1 F9000 X112.000 Y114.250
G1 F900 X112.000 Y85.750 E1.18489
G1 X116.500 Y85.750 E0.18709
G1 X116.500 Y114.250 E1.18489
G1 X112.000 Y114.250 E0.18709
G1 F9000 X111.500 Y114.750
;TYPE:WALL-OUTER
G1 F900 X111.500 Y85.250 E1.22647
G1 X117.000 Y85.250 E0.22866
G1 X117.000 Y114.750 E1.22647
G1 X111.500 Y114.750 E0.22866
G1 F9000 X111.760 Y114.400
G1 X112.225 Y111.175
G1 X112.575 Y111.175
G1 F900 X115.925 Y111.175 E0.13928
G1 X115.925 Y87.825 E0.97078
G1 X112.575 Y87.825 E0.13928
G1 X112.575 Y111.175 E0.97078
;LAYER:6
G1 F1800.000 E-4.0
G1 Z1.400
G1 F9000 X112.938 Y112.350 
G1 F1800.000 E4.0
;TYPE:FILL
G1 F900 X114.162 Y113.574 E0.07197
G1 F9000 X112.984 Y113.574
G1 F900 X112.673 Y113.263 E0.01828
G1 F9000 X114.116 Y112.350
G1 F900 X115.341 Y113.574 E0.07200
G1 F9000 X115.824 Y112.880
G1 F900 X115.294 Y112.350 E0.03116
G1 F9000 X112.184 Y111.566
G1 X112.184 Y87.434
G1 X115.511 Y86.650
G1 F900 X114.809 Y86.537 E0.01318
G1 X113.631 Y86.537 E0.01313
G1 X112.930 Y86.425 E0.02951
G1 F9000 X112.500 Y86.250
;TYPE:WALL-INNER
G1 F900 X116.000 Y86.250 E0.14552
G1 X116.000 Y86.825 E0.02390
G1 X112.500 Y86.825 E0.14551
G1 X112.500 Y86.250 E0.02391
G1 F9000 X116.316 Y87.434
G1 X116.316 Y111.566
G1 X112.500 Y112.175
G1 F900 X116.000 Y112.175 E0.14551
G1 X116.000 Y113.750 E0.06548
G1 X112.500 Y113.750 E0.14552
G1 X112.500 Y112.175 E0.06548
G1 F9000 X112.075 Y111.675
G1 F900 X116.425 Y111.675 E0.18085
G1 X116.425 Y87.325 E1.01236
G1 X112.075 Y87.325 E0.18085
G1 X112.075 Y111.675 E1.01235
G1 F9000 X112.000 Y114.250
G1 F900 X112.000 Y85.750 E1.18490
G1 X116.500 Y85.750 E0.18708
G1 X116.500 Y114.250 E1.18490
G1 X112.000 Y114.250 E0.18708
G1 F9000 X111.500 Y114.750
;TYPE:WALL-OUTER
G1 F900 X111.500 Y85.250 E1.22647
G1 X117.000 Y85.250 E0.22866
G1 X117.000 Y114.750 E1.22647
G1 X111.500 Y114.750 E0.22867
G1 F9000 X111.760 Y114.400
G1 X112.225 Y111.175
G1 X112.575 Y111.175
G1 F900 X115.925 Y111.175 E0.13927
G1 X115.925 Y87.825 E0.97078
G1 X112.575 Y87.825 E0.13928
G1 X112.575 Y111.175 E0.97078
G92 E0
G1 F2400 E-16.50000
;Switch between the current extruder and the next extruder, when printing with multiple extruders.
;This code is added before the T(n)

T1
;Switch between the current extruder and the next extruder, when printing with multiple extruders.
;This code is added after the T(n)

G1 F9000 X113.185 Y110.475
G1 X114.399 Y109.099
;TYPE:FILL
G1 F2400 E16.50000
G1 F900 X114.248 Y108.359 E0.01765
G1 X114.248 Y107.181 E0.01763
G1 X114.248 Y106.003 E0.01763
G1 X114.248 Y104.825 E0.01763
G1 X114.248 Y103.647 E0.01763
G1 X114.248 Y102.469 E0.01763
G1 X114.248 Y101.291 E0.01763
G1 X114.248 Y100.113 E0.01763
G1 X114.248 Y98.935 E0.01764
G1 X114.248 Y97.757 E0.01763
G1 X114.248 Y96.579 E0.01763
G1 X114.248 Y95.401 E0.01763
G1 X114.248 Y94.222 E0.01765
G1 X114.248 Y93.044 E0.01763
G1 X114.248 Y91.866 E0.01763
G1 X114.248 Y90.688 E0.01763
G1 X114.098 Y89.949 E0.03135
G1 F9000 X113.925 Y89.175
;TYPE:WALL-INNER
G1 F900 X114.575 Y89.175 E0.02702
G1 X114.575 Y109.825 E0.85853
G1 X113.925 Y109.825 E0.02703
G1 X113.925 Y89.175 E0.85852
G1 F9000 X113.425 Y88.675
G1 F900 X115.075 Y88.675 E0.06860
G1 X115.075 Y110.325 E0.90010
G1 X113.425 Y110.325 E0.06860
G1 X113.425 Y88.675 E0.90011
G1 F9000 X112.925 Y88.175
;TYPE:WALL-OUTER
G1 F900 X115.575 Y88.175 E0.11017
G1 X115.575 Y110.825 E0.94168
G1 X112.925 Y110.825 E0.11017
G1 X112.925 Y88.175 E0.94168
G1 F9000 X113.275 Y88.435
G1 X114.175 Y89.425
;LAYER:7
G1 F1800.000 E-4.0
G1 Z1.600
G1 X114.399 Y89.991 
G1 F1800.000 E4.0
;TYPE:FILL
G1 F900 X114.249 Y90.730 E0.01762
G1 X114.249 Y91.908 E0.01753
G1 X114.249 Y93.086 E0.01753
G1 X114.249 Y94.264 E0.01754
G1 X114.249 Y95.442 E0.01753
G1 X114.249 Y96.620 E0.01753
G1 X114.249 Y97.798 E0.01754
G1 X114.249 Y98.976 E0.01753
G1 X114.249 Y100.154 E0.01753
G1 X114.249 Y101.332 E0.01754
G1 X114.249 Y102.510 E0.01753
G1 X114.249 Y103.688 E0.01753
G1 X114.249 Y104.866 E0.01754
G1 X114.249 Y106.044 E0.01753
G1 X114.249 Y107.222 E0.01753
G1 X114.249 Y108.400 E0.01754
G1 X114.099 Y109.139 E0.03135
G1 F9000 X113.925 Y109.825
;TYPE:WALL-INNER
G1 F900 X113.925 Y89.175 E0.85852
G1 X114.575 Y89.175 E0.02703
G1 X114.575 Y109.825 E0.85853
G1 X113.925 Y109.825 E0.02702
G1 F9000 X113.425 Y110.325
G1 F900 X113.425 Y88.675 E0.90010
G1 X115.075 Y88.675 E0.06860
G1 X115.075 Y110.325 E0.90010
G1 X113.425 Y110.325 E0.06860
G1 F9000 X112.925 Y110.825
;TYPE:WALL-OUTER
G1 F900 X112.925 Y88.175 E0.94168
G1 X115.575 Y88.175 E0.11017
G1 X115.575 Y110.825 E0.94168
G1 X112.925 Y110.825 E0.11018
G1 F9000 X113.185 Y110.475
G1 X114.175 Y109.575
G92 E0
G1 F2400 E-16.50000
;Switch between the current extruder and the next extruder, when printing with multiple extruders.
;This code is added before the T(n)

T0
;Switch between the current extruder and the next extruder, when printing with multiple extruders.
;This code is added after the T(n)

G1 F9000 X112.225 Y109.575
G1 X112.184 Y111.566
G1 X114.423 Y112.350
;TYPE:FILL
G1 F2400 E16.50000
G1 F900 X113.198 Y113.574 E0.07200
G1 F9000 X112.674 Y112.920
G1 F900 X113.245 Y112.350 E0.03354
G1 F9000 X114.375 Y113.575
G1 F900 X115.601 Y112.350 E0.07205
G1 F9000 X115.824 Y113.305
G1 F900 X115.553 Y113.575 E0.01591
G1 F9000 X112.184 Y111.566
G1 X112.184 Y87.434
G1 X115.384 Y86.650
G1 F900 X115.609 Y86.424 E0.01326
G1 F9000 X114.431 Y86.424
G1 F900 X113.729 Y86.537 E0.01318
G1 X113.028 Y86.650 E0.02952
G1 F9000 X112.500 Y86.825
;TYPE:WALL-INNER
G1 F900 X112.500 Y86.250 E0.02391
G1 X116.000 Y86.250 E0.14551
G1 X116.000 Y86.825 E0.02391
G1 X112.500 Y86.825 E0.14551
G1 F9000 X116.316 Y87.434
G1 X116.316 Y111.566
G1 X112.500 Y112.175
G1 F900 X116.000 Y112.175 E0.14551
G1 X116.000 Y113.750 E0.06548
G1 X112.500 Y113.750 E0.14552
G1 X112.500 Y112.175 E0.06548
G1 F9000 X112.075 Y111.675
G1 F900 X116.425 Y111.675 E0.18085
G1 X116.425 Y87.325 E1.01235
G1 X112.075 Y87.325 E0.18086
G1 X112.075 Y111.675 E1.01235
G1 F9000 X112.000 Y114.250
G1 F900 X112.000 Y85.750 E1.18489
G1 X116.500 Y85.750 E0.18709
G1 X116.500 Y114.250 E1.18489
G1 X112.000 Y114.250 E0.18709
G1 F9000 X111.500 Y114.750
;TYPE:WALL-OUTER
G1 F900 X111.500 Y85.250 E1.22647
G1 X117.000 Y85.250 E0.22866
G1 X117.000 Y114.750 E1.22647
G1 X111.500 Y114.750 E0.22866
G1 F9000 X111.760 Y114.400
G1 X112.225 Y111.175
G1 X112.575 Y111.175
G1 F900 X115.925 Y111.175 E0.13928
G1 X115.925 Y87.825 E0.97078
G1 X112.575 Y87.825 E0.13928
G1 X112.575 Y111.175 E0.97078
;LAYER:8
G1 F1800.000 E-4.0
G1 Z1.800
G1 F9000 X112.938 Y112.350 
G1 F1800.000 E4.0
;TYPE:FILL
G1 F900 X114.162 Y113.574 E0.07197
G1 F9000 X112.984 Y113.574
G1 F900 X112.673 Y113.263 E0.01828
G1 F9000 X114.116 Y112.350
G1 F900 X115.341 Y113.574 E0.07200
G1 F9000 X115.824 Y112.880
G1 F900 X115.294 Y112.350 E0.03116
G1 F9000 X112.184 Y111.566
G1 X112.184 Y87.434
G1 X115.511 Y86.650
G1 F900 X114.809 Y86.537 E0.01318
G1 X113.631 Y86.537 E0.01313
G1 X112.930 Y86.425 E0.02951
G1 F9000 X112.500 Y86.250
;TYPE:WALL-INNER
G1 F900 X116.000 Y86.250 E0.14552
G1 X116.000 Y86.825 E0.02390
G1 X112.500 Y86.825 E0.14551
G1 X112.500 Y86.250 E0.02391
G1 F9000 X116.316 Y87.434
G1 X116.316 Y111.566
G1 X112.500 Y112.175
G1 F900 X116.000 Y112.175 E0.14551
G1 X116.000 Y113.750 E0.06548
G1 X112.500 Y113.750 E0.14552
G1 X112.500 Y112.175 E0.06548
G1 F9000 X112.075 Y111.675
G1 F900 X116.425 Y111.675 E0.18085
G1 X116.425 Y87.325 E1.01236
G1 X112.075 Y87.325 E0.18085
G1 X112.075 Y111.675 E1.01235
G1 F9000 X112.000 Y114.250
G1 F900 X112.000 Y85.750 E1.18490
G1 X116.500 Y85.750 E0.18708
G1 X116.500 Y114.250 E1.18490
G1 X112.000 Y114.250 E0.18708
G1 F9000 X111.500 Y114.750
;TYPE:WALL-OUTER
G1 F900 X111.500 Y85.250 E1.22647
G1 X117.000 Y85.250 E0.22866
G1 X117.000 Y114.750 E1.22647
G1 X111.500 Y114.750 E0.22867
G1 F9000 X111.760 Y114.400
G1 X112.225 Y111.175
G1 X112.575 Y111.175
G1 F900 X115.925 Y111.175 E0.13927
G1 X115.925 Y87.825 E0.97078
G1 X112.575 Y87.825 E0.13928
G1 X112.575 Y111.175 E0.97078
G92 E0
G1 F2400 E-16.50000
;Switch between the current extruder and the next extruder, when printing with multiple extruders.
;This code is added before the T(n)

T1
;Switch between the current extruder and the next extruder, when printing with multiple extruders.
;This code is added after the T(n)

G1 F9000 X113.185 Y110.475
G1 X114.399 Y109.099
;TYPE:FILL
G1 F2400 E16.50000
G1 F900 X114.248 Y108.359 E0.01765
G1 X114.248 Y107.181 E0.01763
G1 X114.248 Y106.003 E0.01763
G1 X114.248 Y104.825 E0.01763
G1 X114.248 Y103.647 E0.01763
G1 X114.248 Y102.469 E0.01763
G1 X114.248 Y101.291 E0.01763
G1 X114.248 Y100.113 E0.01763
G1 X114.248 Y98.935 E0.01764
G1 X114.248 Y97.757 E0.01763
G1 X114.248 Y96.579 E0.01763
G1 X114.248 Y95.401 E0.01763
G1 X114.248 Y94.222 E0.01765
G1 X114.248 Y93.044 E0.01763
G1 X114.248 Y91.866 E0.01763
G1 X114.248 Y90.688 E0.01763
G1 X114.098 Y89.949 E0.03135
G1 F9000 X113.925 Y89.175
;TYPE:WALL-INNER
G1 F900 X114.575 Y89.175 E0.02702
G1 X114.575 Y109.825 E0.85853
G1 X113.925 Y109.825 E0.02703
G1 X113.925 Y89.175 E0.85852
G1 F9000 X113.425 Y88.675
G1 F900 X115.075 Y88.675 E0.06860
G1 X115.075 Y110.325 E0.90010
G1 X113.425 Y110.325 E0.06860
G1 X113.425 Y88.675 E0.90011
G1 F9000 X112.925 Y88.175
;TYPE:WALL-OUTER
G1 F900 X115.575 Y88.175 E0.11017
G1 X115.575 Y110.825 E0.94168
G1 X112.925 Y110.825 E0.11017
G1 X112.925 Y88.175 E0.94168
G1 F9000 X113.275 Y88.435
G1 X114.175 Y89.425
;LAYER:9
G1 F1800.000 E-4.0
G1 Z2.000
G1 X114.399 Y89.991 
G1 F1800.000 E4.0
;TYPE:FILL
G1 F900 X114.249 Y90.730 E0.01762
G1 X114.249 Y91.908 E0.01753
G1 X114.249 Y93.086 E0.01753
G1 X114.249 Y94.264 E0.01754
G1 X114.249 Y95.442 E0.01753
G1 X114.249 Y96.620 E0.01753
G1 X114.249 Y97.798 E0.01754
G1 X114.249 Y98.976 E0.01753
G1 X114.249 Y100.154 E0.01753
G1 X114.249 Y101.332 E0.01754
G1 X114.249 Y102.510 E0.01753
G1 X114.249 Y103.688 E0.01753
G1 X114.249 Y104.866 E0.01754
G1 X114.249 Y106.044 E0.01753
G1 X114.249 Y107.222 E0.01753
G1 X114.249 Y108.400 E0.01754
G1 X114.099 Y109.139 E0.03135
G1 F9000 X113.925 Y109.825
;TYPE:WALL-INNER
G1 F900 X113.925 Y89.175 E0.85852
G1 X114.575 Y89.175 E0.02703
G1 X114.575 Y109.825 E0.85853
G1 X113.925 Y109.825 E0.02702
G1 F9000 X113.425 Y110.325
G1 F900 X113.425 Y88.675 E0.90010
G1 X115.075 Y88.675 E0.06860
G1 X115.075 Y110.325 E0.90010
G1 X113.425 Y110.325 E0.06860
G1 F9000 X112.925 Y110.825
;TYPE:WALL-OUTER
G1 F900 X112.925 Y88.175 E0.94168
G1 X115.575 Y88.175 E0.11017
G1 X115.575 Y110.825 E0.94168
G1 X112.925 Y110.825 E0.11018
G1 F9000 X113.185 Y110.475
G1 X114.175 Y109.575
G92 E0
G1 F2400 E-16.50000
;Switch between the current extruder and the next extruder, when printing with multiple extruders.
;This code is added before the T(n)

T0
;Switch between the current extruder and the next extruder, when printing with multiple extruders.
;This code is added after the T(n)

G1 F9000 X112.225 Y109.575
G1 X112.184 Y111.566
G1 X114.423 Y112.350
;TYPE:FILL
G1 F2400 E16.50000
G1 F900 X113.198 Y113.574 E0.07200
G1 F9000 X112.674 Y112.920
G1 F900 X113.245 Y112.350 E0.03354
G1 F9000 X114.375 Y113.575
G1 F900 X115.601 Y112.350 E0.07205
G1 F9000 X115.824 Y113.305
G1 F900 X115.553 Y113.575 E0.01591
G1 F9000 X112.184 Y111.566
G1 X112.184 Y87.434
G1 X115.384 Y86.650
G1 F900 X115.609 Y86.424 E0.01326
G1 F9000 X114.431 Y86.424
G1 F900 X113.729 Y86.537 E0.01318
G1 X113.028 Y86.650 E0.02952
G1 F9000 X112.500 Y86.825
;TYPE:WALL-INNER
G1 F900 X112.500 Y86.250 E0.02391
G1 X116.000 Y86.250 E0.14551
G1 X116.000 Y86.825 E0.02391
G1 X112.500 Y86.825 E0.14551
G1 F9000 X116.316 Y87.434
G1 X116.316 Y111.566
G1 X112.500 Y112.175
G1 F900 X116.000 Y112.175 E0.14551
G1 X116.000 Y113.750 E0.06548
G1 X112.500 Y113.750 E0.14552
G1 X112.500 Y112.175 E0.06548
G1 F9000 X112.075 Y111.675
G1 F900 X116.425 Y111.675 E0.18085
G1 X116.425 Y87.325 E1.01235
G1 X112.075 Y87.325 E0.18086
G1 X112.075 Y111.675 E1.01235
G1 F9000 X112.000 Y114.250
G1 F900 X112.000 Y85.750 E1.18489
G1 X116.500 Y85.750 E0.18709
G1 X116.500 Y114.250 E1.18489
G1 X112.000 Y114.250 E0.18709
G1 F9000 X111.500 Y114.750
;TYPE:WALL-OUTER
G1 F900 X111.500 Y85.250 E1.22647
G1 X117.000 Y85.250 E0.22866
G1 X117.000 Y114.750 E1.22647
G1 X111.500 Y114.750 E0.22866
G1 F9000 X111.760 Y114.400
G1 X112.225 Y111.175
G1 X112.575 Y111.175
G1 F900 X115.925 Y111.175 E0.13928
G1 X115.925 Y87.825 E0.97078
G1 X112.575 Y87.825 E0.13928
G1 X112.575 Y111.175 E0.97078
;LAYER:10
G1 F1800.000 E-4.0
G1 Z2.200
G1 F9000 X112.938 Y112.350 
G1 F1800.000 E4.0
;TYPE:FILL
G1 F900 X114.162 Y113.574 E0.07197
G1 F9000 X112.984 Y113.574
G1 F900 X112.673 Y113.263 E0.01828
G1 F9000 X114.116 Y112.350
G1 F900 X115.341 Y113.574 E0.07200
G1 F9000 X115.824 Y112.880
G1 F900 X115.294 Y112.350 E0.03116
G1 F9000 X112.184 Y111.566
G1 X112.184 Y87.434
G1 X115.511 Y86.650
G1 F900 X114.809 Y86.537 E0.01318
G1 X113.631 Y86.537 E0.01313
G1 X112.930 Y86.425 E0.02951
G1 F9000 X112.500 Y86.250
;TYPE:WALL-INNER
G1 F900 X116.000 Y86.250 E0.14552
G1 X116.000 Y86.825 E0.02390
G1 X112.500 Y86.825 E0.14551
G1 X112.500 Y86.250 E0.02391
G1 F9000 X116.316 Y87.434
G1 X116.316 Y111.566
G1 X112.500 Y112.175
G1 F900 X116.000 Y112.175 E0.14551
G1 X116.000 Y113.750 E0.06548
G1 X112.500 Y113.750 E0.14552
G1 X112.500 Y112.175 E0.06548
G1 F9000 X112.075 Y111.675
G1 F900 X116.425 Y111.675 E0.18085
G1 X116.425 Y87.325 E1.01236
G1 X112.075 Y87.325 E0.18085
G1 X112.075 Y111.675 E1.01235
G1 F9000 X112.000 Y114.250
G1 F900 X112.000 Y85.750 E1.18490
G1 X116.500 Y85.750 E0.18708
G1 X116.500 Y114.250 E1.18490
G1 X112.000 Y114.250 E0.18708
G1 F9000 X111.500 Y114.750
;TYPE:WALL-OUTER
G1 F900 X111.500 Y85.250 E1.22647
G1 X117.000 Y85.250 E0.22866
G1 X117.000 Y114.750 E1.22647
G1 X111.500 Y114.750 E0.22867
G1 F9000 X111.760 Y114.400
G1 X112.225 Y111.175
G1 X112.575 Y111.175
G1 F900 X115.925 Y111.175 E0.13927
G1 X115.925 Y87.825 E0.97078
G1 X112.575 Y87.825 E0.13928
G1 X112.575 Y111.175 E0.97078
G92 E0
G1 F2400 E-16.50000
;Switch between the current extruder and the next extruder, when printing with multiple extruders.
;This code is added before the T(n)

T1
;Switch between the current extruder and the next extruder, when printing with multiple extruders.
;This code is added after the T(n)

G1 F9000 X113.185 Y110.475
G1 X114.399 Y109.099
;TYPE:FILL
G1 F2400 E16.50000
G1 F900 X114.248 Y108.359 E0.01765
G1 X114.248 Y107.181 E0.01763
G1 X114.248 Y106.003 E0.01763
G1 X114.248 Y104.825 E0.01763
G1 X114.248 Y103.647 E0.01763
G1 X114.248 Y102.469 E0.01763
G1 X114.248 Y101.291 E0.01763
G1 X114.248 Y100.113 E0.01763
G1 X114.248 Y98.935 E0.01764
G1 X114.248 Y97.757 E0.01763
G1 X114.248 Y96.579 E0.01763
G1 X114.248 Y95.401 E0.01763
G1 X114.248 Y94.222 E0.01765
G1 X114.248 Y93.044 E0.01763
G1 X114.248 Y91.866 E0.01763
G1 X114.248 Y90.688 E0.01763
G1 X114.098 Y89.949 E0.03135
G1 F9000 X113.925 Y89.175
;TYPE:WALL-INNER
G1 F900 X114.575 Y89.175 E0.02702
G1 X114.575 Y109.825 E0.85853
G1 X113.925 Y109.825 E0.02703
G1 X113.925 Y89.175 E0.85852
G1 F9000 X113.425 Y88.675
G1 F900 X115.075 Y88.675 E0.06860
G1 X115.075 Y110.325 E0.90010
G1 X113.425 Y110.325 E0.06860
G1 X113.425 Y88.675 E0.90011
G1 F9000 X112.925 Y88.175
;TYPE:WALL-OUTER
G1 F900 X115.575 Y88.175 E0.11017
G1 X115.575 Y110.825 E0.94168
G1 X112.925 Y110.825 E0.11017
G1 X112.925 Y88.175 E0.94168
G1 F9000 X113.275 Y88.435
G1 X114.175 Y89.425
;LAYER:11
G1 F1800.000 E-4.0
G1 Z2.400
G1 X113.925 Y89.175 
G1 F1800.000 E4.0
;TYPE:WALL-INNER
G1 F900 X114.575 Y89.175 E0.02702
G1 X114.575 Y109.825 E0.85853
G1 X113.925 Y109.825 E0.02702
G1 X113.925 Y89.175 E0.85853
G1 F9000 X113.425 Y88.675
G1 F900 X115.075 Y88.675 E0.06860
G1 X115.075 Y110.325 E0.90010
G1 X113.425 Y110.325 E0.06860
G1 X113.425 Y88.675 E0.90010
G1 F9000 X112.925 Y88.175
;TYPE:WALL-OUTER
G1 F900 X115.575 Y88.175 E0.11018
G1 X115.575 Y110.825 E0.94168
G1 X112.925 Y110.825 E0.11017
G1 X112.925 Y88.175 E0.94168
G1 F9000 X113.275 Y88.435
G1 X114.399 Y89.601
;TYPE:SKIN
G1 F3000 X114.249 Y90.104 E0.01759
G1 X114.249 Y90.811 E0.01757
G1 X114.249 Y91.518 E0.01758
G1 X114.249 Y92.225 E0.01758
G1 X114.249 Y92.932 E0.01758
G1 X114.249 Y93.639 E0.01757
G1 X114.249 Y94.346 E0.01758
G1 X114.249 Y95.053 E0.01758
G1 X114.249 Y95.760 E0.01758
G1 X114.249 Y96.468 E0.01760
G1 X114.249 Y97.175 E0.01757
G1 X114.249 Y97.882 E0.01758
G1 X114.249 Y98.589 E0.01758
G1 X114.249 Y99.296 E0.01758
G1 X114.249 Y100.003 E0.01757
G1 X114.249 Y100.710 E0.01758
G1 X114.249 Y101.417 E0.01758
G1 X114.249 Y102.124 E0.01758
G1 X114.249 Y102.832 E0.01760
G1 X114.249 Y103.539 E0.01758
G1 X114.249 Y104.246 E0.01757
G1 X114.249 Y104.953 E0.01758
G1 X114.249 Y105.660 E0.01758
G1 X114.249 Y106.367 E0.01758
G1 X114.249 Y107.074 E0.01757
G1 X114.249 Y107.781 E0.01758
G1 X114.249 Y108.488 E0.01758
G1 X114.249 Y109.196 E0.01760
G1 X114.148 Y109.650 E0.01934
G92 E0
G1 F2400 E-16.50000
;Switch between the current extruder and the next extruder, when printing with multiple extruders.
;This code is added before the T(n)

T0
;Switch between the current extruder and the next extruder, when printing with multiple extruders.
;This code is added after the T(n)

G1 F9000 X114.148 Y111.525
G1 X112.184 Y111.566
G1 X112.184 Y87.434
G1 X114.206 Y86.650
;TYPE:FILL
G1 F2400 E16.50000
G1 F900 X114.907 Y86.537 E0.01317
G1 X115.609 Y86.424 E0.02956
G1 F9000 X113.253 Y86.424
G1 F900 X113.028 Y86.650 E0.01326
G1 F9000 X112.500 Y86.825
;TYPE:WALL-INNER
G1 F900 X112.500 Y86.250 E0.02390
G1 X116.000 Y86.250 E0.14551
G1 X116.000 Y86.825 E0.02391
G1 X112.500 Y86.825 E0.14551
G1 F9000 X116.316 Y87.434
G1 X116.316 Y111.566
G1 X112.500 Y112.175
G1 F900 X116.000 Y112.175 E0.14552
G1 X116.000 Y113.750 E0.06548
G1 X112.500 Y113.750 E0.14551
G1 X112.500 Y112.175 E0.06548
G1 F9000 X112.075 Y111.675
G1 F900 X116.425 Y111.675 E0.18085
G1 X116.425 Y87.325 E1.01236
G1 X112.075 Y87.325 E0.18085
G1 X112.075 Y111.675 E1.01236
G1 F9000 X112.000 Y114.250
G1 F900 X112.000 Y85.750 E1.18489
G1 X116.500 Y85.750 E0.18709
G1 X116.500 Y114.250 E1.18489
G1 X112.000 Y114.250 E0.18709
G1 F9000 X111.500 Y114.750
;TYPE:WALL-OUTER
G1 F900 X111.500 Y85.250 E1.22647
G1 X117.000 Y85.250 E0.22866
G1 X117.000 Y114.750 E1.22647
G1 X111.500 Y114.750 E0.22866
G1 F9000 X111.760 Y114.400
G1 X112.225 Y111.175
G1 X112.575 Y111.175
G1 F900 X115.925 Y111.175 E0.13928
G1 X115.925 Y87.825 E0.97078
G1 X112.575 Y87.825 E0.13927
G1 X112.575 Y111.175 E0.97078
G1 F9000 X112.863 Y112.350
;TYPE:SKIN
G1 F3000 X112.674 Y112.538 E0.01109
G1 F9000 X112.674 Y113.245
G1 F3000 X113.570 Y112.350 E0.05265
G1 F9000 X114.277 Y112.350
G1 F3000 X113.052 Y113.574 E0.07199
G1 F9000 X113.760 Y113.574
G1 F3000 X114.984 Y112.350 E0.07197
G1 F9000 X115.691 Y112.350
G1 F3000 X114.466 Y113.575 E0.07203
G1 F9000 X115.173 Y113.575
G1 F3000 X115.824 Y112.924 E0.03827
;LAYER:12
G1 F1800.000 E-4.0
G1 Z2.600
G1 F9000 X112.184 Y111.566 
G1 F1800.000 E4.0
G1 X112.184 Y87.434
G1 X115.511 Y86.650
;TYPE:FILL
G1 F900 X114.809 Y86.537 E0.01319
G1 X113.631 Y86.537 E0.01312
G1 X112.930 Y86.425 E0.02952
G1 F9000 X112.500 Y86.250
;TYPE:WALL-INNER
G1 F900 X116.000 Y86.250 E0.14551
G1 X116.000 Y86.825 E0.02391
G1 X112.500 Y86.825 E0.14551
G1 X112.500 Y86.250 E0.02390
G1 F9000 X116.316 Y87.434
G1 X116.316 Y111.566
G1 X112.500 Y112.175
G1 F900 X116.000 Y112.175 E0.14552
G1 X116.000 Y113.750 E0.06548
G1 X112.500 Y113.750 E0.14551
G1 X112.500 Y112.175 E0.06548
G1 F9000 X112.075 Y111.675
G1 F900 X116.425 Y111.675 E0.18085
G1 X116.425 Y87.325 E1.01236
G1 X112.075 Y87.325 E0.18085
G1 X112.075 Y111.675 E1.01236
G1 F9000 X112.000 Y114.250
G1 F900 X112.000 Y85.750 E1.18489
G1 X116.500 Y85.750 E0.18709
G1 X116.500 Y114.250 E1.18489
G1 X112.000 Y114.250 E0.18709
G1 F9000 X111.500 Y114.750
;TYPE:WALL-OUTER
G1 F900 X111.500 Y85.250 E1.22647
G1 X117.000 Y85.250 E0.22866
G1 X117.000 Y114.750 E1.22647
G1 X111.500 Y114.750 E0.22866
G1 F9000 X111.760 Y114.400
G1 X112.225 Y111.175
G1 X112.575 Y111.175
G1 F900 X115.925 Y111.175 E0.13928
G1 X115.925 Y87.825 E0.97078
G1 X112.575 Y87.825 E0.13927
G1 X112.575 Y111.175 E0.97078
G1 F9000 X112.703 Y112.350
;TYPE:SKIN
G1 F3000 X113.927 Y113.574 E0.07197
G1 F9000 X113.220 Y113.574
G1 F3000 X112.673 Y113.027 E0.03216
G1 F9000 X113.410 Y112.350
G1 F3000 X114.635 Y113.574 E0.07200
G1 F9000 X115.342 Y113.574
G1 F3000 X114.117 Y112.350 E0.07199
G1 F9000 X114.824 Y112.350
G1 F3000 X115.824 Y113.349 E0.05877
G1 F9000 X115.824 Y112.642
G1 F3000 X115.532 Y112.350 E0.01717
G92 E0
G1 F2400 E-16.50000
;Switch between the current extruder and the next extruder, when printing with multiple extruders.
;This code is added before the T(n)

T1
;Switch between the current extruder and the next extruder, when printing with multiple extruders.
;This code is added after the T(n)

G1 F9000 X115.315 Y110.475
G1 X114.575 Y109.825
;TYPE:WALL-INNER
G1 F2400 E16.50000
G1 F900 X113.925 Y109.825 E0.02702
G1 X113.925 Y89.175 E0.85853
G1 X114.575 Y89.175 E0.02702
G1 X114.575 Y109.825 E0.85853
G1 F9000 X115.075 Y110.325
G1 F900 X113.425 Y110.325 E0.06860
G1 X113.425 Y88.675 E0.90010
G1 X115.075 Y88.675 E0.06860
G1 X115.075 Y110.325 E0.90011
G1 F9000 X115.575 Y110.825
;TYPE:WALL-OUTER
G1 F900 X112.925 Y110.825 E0.11017
G1 X112.925 Y88.175 E0.94168
G1 X115.575 Y88.175 E0.11017
G1 X115.575 Y110.825 E0.94168
G1 F9000 X115.225 Y110.565
G1 X114.246 Y109.650
;TYPE:SKIN
G1 F3000 X114.248 Y109.299 E0.00867
G1 X114.248 Y108.592 E0.01763
G1 X114.248 Y107.885 E0.01764
G1 X114.248 Y107.178 E0.01764
G1 X114.248 Y106.471 E0.01763
G1 X114.248 Y105.764 E0.01764
G1 X114.248 Y105.056 E0.01766
G1 X114.248 Y104.349 E0.01769
G1 X114.248 Y103.642 E0.01764
G1 X114.248 Y102.935 E0.01764
G1 X114.248 Y102.228 E0.01763
G1 X114.248 Y101.521 E0.01764
G1 X114.248 Y100.814 E0.01763
G1 X114.248 Y100.107 E0.01764
G1 X114.248 Y99.400 E0.01764
G1 X114.248 Y98.692 E0.01766
G1 X114.248 Y97.985 E0.01769
G1 X114.248 Y97.278 E0.01764
G1 X114.248 Y96.571 E0.01764
G1 X114.248 Y95.864 E0.01763
G1 X114.248 Y95.157 E0.01764
G1 X114.248 Y94.450 E0.01763
G1 X114.248 Y93.743 E0.01764
G1 X114.248 Y93.036 E0.01764
G1 X114.248 Y92.328 E0.01766
G1 X114.248 Y91.621 E0.01769
G1 X114.248 Y90.914 E0.01770
G1 X114.248 Y90.207 E0.01763
G1 X114.098 Y89.703 E0.02187
;LAYER:13
G1 F1800.000 E-4.0
G1 Z2.800
G1 F9000 X113.925 Y89.175 
G1 F1800.000 E4.0
;TYPE:WALL-INNER
G1 F900 X114.575 Y89.175 E0.02702
G1 X114.575 Y109.825 E0.85853
G1 X113.925 Y109.825 E0.02702
G1 X113.925 Y89.175 E0.85853
G1 F9000 X113.425 Y88.675
G1 F900 X115.075 Y88.675 E0.06860
G1 X115.075 Y110.325 E0.90010
G1 X113.425 Y110.325 E0.06860
G1 X113.425 Y88.675 E0.90010
G1 F9000 X112.925 Y88.175
;TYPE:WALL-OUTER
G1 F900 X115.575 Y88.175 E0.11018
G1 X115.575 Y110.825 E0.94167
G1 X112.925 Y110.825 E0.11018
G1 X112.925 Y88.175 E0.94167
G1 F9000 X113.275 Y88.435
G1 X114.399 Y89.601
;TYPE:SKIN
G1 F3000 X114.249 Y90.104 E0.01759
G1 X114.249 Y90.811 E0.01758
G1 X114.249 Y91.518 E0.01758
G1 X114.249 Y92.225 E0.01758
G1 X114.249 Y92.932 E0.01757
G1 X114.249 Y93.639 E0.01758
G1 X114.249 Y94.346 E0.01758
G1 X114.249 Y95.053 E0.01758
G1 X114.249 Y95.760 E0.01757
G1 X114.249 Y96.468 E0.01761
G1 X114.249 Y97.175 E0.01757
G1 X114.249 Y97.882 E0.01758
G1 X114.249 Y98.589 E0.01758
G1 X114.249 Y99.296 E0.01757
G1 X114.249 Y100.003 E0.01758
G1 X114.249 Y100.710 E0.01758
G1 X114.249 Y101.417 E0.01758
G1 X114.249 Y102.124 E0.01757
G1 X114.249 Y102.832 E0.01761
G1 X114.249 Y103.539 E0.01757
G1 X114.249 Y104.246 E0.01758
G1 X114.249 Y104.953 E0.01758
G1 X114.249 Y105.660 E0.01758
G1 X114.249 Y106.367 E0.01757
G1 X114.249 Y107.074 E0.01758
G1 X114.249 Y107.781 E0.01758
G1 X114.249 Y108.488 E0.01758
G1 X114.249 Y109.196 E0.01760
G1 X114.148 Y109.650 E0.01933
G92 E0
G1 F2400 E-16.50000
;Switch between the current extruder and the next extruder, when printing with multiple extruders.
;This code is added before the T(n)

T0
;Switch between the current extruder and the next extruder, when printing with multiple extruders.
;This code is added after the T(n)

G1 F9000 X114.148 Y111.525
G1 X112.184 Y111.566
G1 X112.184 Y87.434
G1 X114.206 Y86.650
;TYPE:FILL
G1 F2400 E16.50000
G1 F900 X114.907 Y86.537 E0.01317
G1 X115.609 Y86.424 E0.02956
G1 F9000 X113.253 Y86.424
G1 F900 X113.028 Y86.650 E0.01326
G1 F9000 X112.500 Y86.825
;TYPE:WALL-INNER
G1 F900 X112.500 Y86.250 E0.02390
G1 X116.000 Y86.250 E0.14551
G1 X116.000 Y86.825 E0.02391
G1 X112.500 Y86.825 E0.14551
G1 F9000 X116.316 Y87.434
G1 X116.316 Y111.566
G1 X112.500 Y112.175
G1 F900 X116.000 Y112.175 E0.14552
G1 X116.000 Y113.750 E0.06548
G1 X112.500 Y113.750 E0.14551
G1 X112.500 Y112.175 E0.06548
G1 F9000 X112.075 Y111.675
G1 F900 X116.425 Y111.675 E0.18085
G1 X116.425 Y87.325 E1.01236
G1 X112.075 Y87.325 E0.18085
G1 X112.075 Y111.675 E1.01236
G1 F9000 X112.000 Y114.250
G1 F900 X112.000 Y85.750 E1.18489
G1 X116.500 Y85.750 E0.18709
G1 X116.500 Y114.250 E1.18489
G1 X112.000 Y114.250 E0.18709
G1 F9000 X111.500 Y114.750
;TYPE:WALL-OUTER
G1 F900 X111.500 Y85.250 E1.22647
G1 X117.000 Y85.250 E0.22866
G1 X117.000 Y114.750 E1.22647
G1 X111.500 Y114.750 E0.22866
G1 F9000 X111.760 Y114.400
G1 X112.225 Y111.175
G1 X112.575 Y111.175
G1 F900 X115.925 Y111.175 E0.13928
G1 X115.925 Y87.825 E0.97078
G1 X112.575 Y87.825 E0.13927
G1 X112.575 Y111.175 E0.97078
G1 F9000 X112.863 Y112.350
;TYPE:SKIN
G1 F3000 X112.674 Y112.538 E0.01109
G1 F9000 X112.674 Y113.245
G1 F3000 X113.570 Y112.350 E0.05265
G1 F9000 X114.277 Y112.350
G1 F3000 X113.052 Y113.574 E0.07199
G1 F9000 X113.760 Y113.574
G1 F3000 X114.984 Y112.350 E0.07197
G1 F9000 X115.691 Y112.350
G1 F3000 X114.466 Y113.575 E0.07203
G1 F9000 X115.173 Y113.575
G1 F3000 X115.824 Y112.924 E0.03827
;LAYER:14
G1 F1800.000 E-4.0
G1 Z3.000
G1 F9000 X112.184 Y111.566 
G1 F1800.000 E4.0
G1 X112.184 Y87.434
G1 X115.511 Y86.650
;TYPE:FILL
G1 F900 X114.809 Y86.537 E0.01319
G1 X113.631 Y86.537 E0.01312
G1 X112.930 Y86.425 E0.02952
G1 F9000 X112.500 Y86.250
;TYPE:WALL-INNER
G1 F900 X116.000 Y86.250 E0.14551
G1 X116.000 Y86.825 E0.02391
G1 X112.500 Y86.825 E0.14551
G1 X112.500 Y86.250 E0.02390
G1 F9000 X116.316 Y87.434
G1 X116.316 Y111.566
G1 X112.500 Y112.175
G1 F900 X116.000 Y112.175 E0.14552
G1 X116.000 Y113.750 E0.06548
G1 X112.500 Y113.750 E0.14551
G1 X112.500 Y112.175 E0.06548
G1 F9000 X112.075 Y111.675
G1 F900 X116.425 Y111.675 E0.18085
G1 X116.425 Y87.325 E1.01236
G1 X112.075 Y87.325 E0.18085
G1 X112.075 Y111.675 E1.01236
G1 F9000 X112.000 Y114.250
G1 F900 X112.000 Y85.750 E1.18489
G1 X116.500 Y85.750 E0.18709
G1 X116.500 Y114.250 E1.18489
G1 X112.000 Y114.250 E0.18709
G1 F9000 X111.500 Y114.750
;TYPE:WALL-OUTER
G1 F900 X111.500 Y85.250 E1.22647
G1 X117.000 Y85.250 E0.22866
G1 X117.000 Y114.750 E1.22647
G1 X111.500 Y114.750 E0.22866
G1 F9000 X111.760 Y114.400
G1 X112.225 Y111.175
G1 X112.575 Y111.175
G1 F900 X115.925 Y111.175 E0.13928
G1 X115.925 Y87.825 E0.97078
G1 X112.575 Y87.825 E0.13927
G1 X112.575 Y111.175 E0.97078
G1 F9000 X112.703 Y112.350
;TYPE:SKIN
G1 F3000 X113.927 Y113.574 E0.07197
G1 F9000 X113.220 Y113.574
G1 F3000 X112.673 Y113.027 E0.03216
G1 F9000 X113.410 Y112.350
G1 F3000 X114.635 Y113.574 E0.07200
G1 F9000 X115.342 Y113.574
G1 F3000 X114.117 Y112.350 E0.07199
G1 F9000 X114.824 Y112.350
G1 F3000 X115.824 Y113.349 E0.05877
G1 F9000 X115.824 Y112.642
G1 F3000 X115.532 Y112.350 E0.01717
G92 E0
G1 F2400 E-16.50000
;Switch between the current extruder and the next extruder, when printing with multiple extruders.
;This code is added before the T(n)

T1
;Switch between the current extruder and the next extruder, when printing with multiple extruders.
;This code is added after the T(n)

G1 F9000 X115.315 Y110.475
G1 X114.575 Y109.825
;TYPE:WALL-INNER
G1 F2400 E16.50000
G1 F900 X113.925 Y109.825 E0.02702
G1 X113.925 Y89.175 E0.85853
G1 X114.575 Y89.175 E0.02702
G1 X114.575 Y109.825 E0.85853
G1 F9000 X115.075 Y110.325
G1 F900 X113.425 Y110.325 E0.06860
G1 X113.425 Y88.675 E0.90010
G1 X115.075 Y88.675 E0.06860
G1 X115.075 Y110.325 E0.90011
G1 F9000 X115.575 Y110.825
;TYPE:WALL-OUTER
G1 F900 X112.925 Y110.825 E0.11017
G1 X112.925 Y88.175 E0.94168
G1 X115.575 Y88.175 E0.11017
G1 X115.575 Y110.825 E0.94168
G1 F9000 X115.225 Y110.565
G1 X114.246 Y109.650
;TYPE:SKIN
G1 F3000 X114.248 Y109.299 E0.00867
G1 X114.248 Y108.592 E0.01763
G1 X114.248 Y107.885 E0.01764
G1 X114.248 Y107.178 E0.01764
G1 X114.248 Y106.471 E0.01763
G1 X114.248 Y105.764 E0.01764
G1 X114.248 Y105.056 E0.01766
G1 X114.248 Y104.349 E0.01769
G1 X114.248 Y103.642 E0.01764
G1 X114.248 Y102.935 E0.01764
G1 X114.248 Y102.228 E0.01763
G1 X114.248 Y101.521 E0.01764
G1 X114.248 Y100.814 E0.01763
G1 X114.248 Y100.107 E0.01764
G1 X114.248 Y99.400 E0.01764
G1 X114.248 Y98.692 E0.01766
G1 X114.248 Y97.985 E0.01769
G1 X114.248 Y97.278 E0.01764
G1 X114.248 Y96.571 E0.01764
G1 X114.248 Y95.864 E0.01763
G1 X114.248 Y95.157 E0.01764
G1 X114.248 Y94.450 E0.01763
G1 X114.248 Y93.743 E0.01764
G1 X114.248 Y93.036 E0.01764
G1 X114.248 Y92.328 E0.01766
G1 X114.248 Y91.621 E0.01769
G1 X114.248 Y90.914 E0.01770
G1 X114.248 Y90.207 E0.01763
G1 X114.098 Y89.703 E0.02187
M107
G1 F2400 E-4.50000
G1 F1800.000 E-4.0
G1 Z8.000
G1 F9000 X114.098 Y89.703 
G1 F1800.000 E4.0
;End GCode
M107
G1 F15000 X2
G10 P0 R-273
G10 P1 R-273
T99
M0

