; generated by Slic3r 1.2.5 on 2015-04-27 at 15:06:59

; external perimeters extrusion width = 0.50mm
; perimeters extrusion width = 0.85mm
; infill extrusion width = 0.87mm
; solid infill extrusion width = 0.85mm
; top infill extrusion width = 0.85mm

; external perimeters extrusion width = 0.50mm
; perimeters extrusion width = 0.85mm
; infill extrusion width = 0.87mm
; solid infill extrusion width = 0.85mm
; top infill extrusion width = 0.85mm

M107
M140 S65		    ; Turn the bed on
G21             ; metric values
G90             ; absolute positioning
M83             ; Relative extrudes
M107            ; start with the fan off
G28             ; zero the machine
G1 Z5 F200      ; Go to...
G1 X5 Y30 F2000 ; ...wait for warm position
M116            ; Wait for the bed to heat
G10 P0 S185 R160; Tool 1 Operating and standby temperatures
G10 P1 S195 R160; Tool 2 Operating and standby temperatures
T0              ; Select Tool 1
M116            ; Wait for tools to get to their operating or standby temperatures

G21 ; set units to millimeters
G90 ; use absolute coordinates
M83 ; use relative distances for extrusion
T0
G1 E-4.00000 F1800.00000
G1 Z0.240 F3600.000
G1 X96.743 Y80.689 F3600.000
G1 E4.00000 F1800.00000
G1 X98.502 Y79.170 E0.18513 F240.000
G1 X100.670 Y78.333 E0.18513
G1 X102.000 Y78.202 E0.10652
G1 X108.000 Y78.202 E0.47805
G1 X110.289 Y78.599 E0.18513
G1 X112.311 Y79.743 E0.18513 F240.000
G1 X113.830 Y81.502 E0.18513
G1 X114.667 Y83.670 E0.18513
G1 X114.798 Y85.000 E0.10652
G1 X114.798 Y115.000 E2.39023
G1 X114.401 Y117.289 E0.18513
G1 X113.257 Y119.311 E0.18513
G1 X111.498 Y120.830 E0.18513
G1 X109.330 Y121.667 E0.18513
G1 X108.000 Y121.798 E0.10652
G1 X102.000 Y121.798 E0.47805
G1 X99.711 Y121.401 E0.18513
G1 X97.689 Y120.257 E0.18513
G1 X96.170 Y118.498 E0.18513
G1 X95.333 Y116.330 E0.18513
G1 X95.202 Y115.000 E0.10652
G1 X95.202 Y85.000 E2.39023
G1 X95.599 Y82.711 E0.18513
G1 X96.706 Y80.754 E0.17915
G1 E-4.00000 F1800.00000
G1 X103.250 Y87.750 F3600.000
G1 E4.00000 F1800.00000
G1 X106.750 Y87.750 E0.27886 F168.000
G1 X106.750 Y111.250 E1.87234
G1 X103.250 Y111.250 E0.27886 F168.000
G1 X103.250 Y87.825 E1.86637
G1 X103.250 Y87.250 F3600.000
G1 E-4.00000 F1800.00000
G1 X105.986 Y114.127 F3600.000
G1 E4.00000 F1800.00000
G1 X102.873 Y114.127 E0.24796 F240.000
G1 X102.873 Y111.873 E0.17951
G1 X107.127 Y111.873 E0.33886 F240.000
G1 X107.127 Y114.127 E0.17951
G1 X106.061 Y114.127 E0.08492
G1 E-4.00000 F1800.00000
G1 X103.565 Y85.873 F3600.000
G1 E4.00000 F1800.00000
G1 X107.127 Y85.873 E0.28379 F240.000
G1 X107.127 Y87.127 E0.09983
G1 X102.873 Y87.127 E0.33886
G1 X102.873 Y85.873 E0.09983
G1 X103.490 Y85.873 E0.04909 F240.000
G1 X103.490 Y85.250 F3600.000
G1 X107.750 Y85.250 E0.33944 F168.000
G1 X107.750 Y114.750 E2.35039
G1 X102.250 Y114.750 E0.43821 F168.000
G1 X102.250 Y85.250 E2.35039
G1 X103.415 Y85.250 E0.09279
G1 X103.740 Y85.683 F3600.000
G1 X103.273 Y86.500 F3600.000
G1 X106.727 Y86.500 E0.12874 F120.000
G1 X106.563 Y112.477 F3600.000
G1 X106.523 Y112.437 E0.00555 F240.000
G1 X106.259 Y113.563 E0.11355
G1 X105.132 Y112.437 E0.15633
G1 X104.868 Y113.563 E0.11355
G1 X103.741 Y112.437 E0.15633
G1 X103.437 Y113.523 E0.11073
G1 X103.477 Y113.563 E0.00555
G1 E-10.00000 F1800.00000
T1
G1 E-4.00000 F900.00000
G1 X104.373 Y99.918 F3600.000
G1 E4.00000 F900.00000
G1 X104.373 Y88.873 E0.87999 F240.000
G1 X105.627 Y88.873 E0.09983 F240.000
G1 X105.627 Y110.127 E1.69332
G1 X104.373 Y110.127 E0.09983
G1 X104.373 Y99.993 E0.80736
G1 X103.750 Y99.993 F3600.000
G1 X103.750 Y88.250 E0.93564 F168.000
G1 X106.250 Y88.250 E0.19919
G1 X106.250 Y110.750 E1.79267
G1 X103.750 Y110.750 E0.19919 F168.000
G1 X103.750 Y100.068 E0.85106
G1 X104.183 Y99.743 F3600.000
G1 X105.000 Y109.727 F3600.000
G1 X105.000 Y89.273 E0.76229 F120.000
G1 E-4.00000 F900.00000
G1 Z0.480 F3600.000
G1 X104.373 Y99.181 F3600.000
G1 E4.00000 F900.00000
G1 X104.373 Y88.873 E0.82125 F1200.000
G1 X105.627 Y88.873 E0.09983 F1200.000
G1 X105.627 Y110.127 E1.69332
G1 X104.373 Y110.127 E0.09983
G1 X104.373 Y99.256 E0.86609
G1 X103.750 Y99.256 F3600.000
G1 X103.750 Y88.250 E0.49253 F840.000
G1 X106.250 Y88.250 E0.11188
G1 X106.250 Y110.750 E1.00690
G1 X103.750 Y110.750 E0.11188 F840.000
G1 X103.750 Y99.331 E0.51101
G1 X104.183 Y99.006 F3600.000
G1 X105.000 Y89.273 F3600.000
G1 X105.000 Y109.727 E0.76229 F600.000
G1 E-10.00000 F900.00000
T0
G1 X105.000 Y111.250 F3600.000
G1 E10.00000 F1800.00000
G1 X103.250 Y111.250 E0.07831 F840.000
G1 X103.250 Y87.750 E1.05165
G1 X106.750 Y87.750 E0.15663
G1 X106.750 Y111.250 E1.05165
G1 X105.075 Y111.250 E0.07496 F840.000
G1 X104.750 Y111.683 F3600.000
G1 X102.873 Y112.661 F3600.000
G1 X102.873 Y111.873 E0.06271 F1200.000
G1 X107.127 Y111.873 E0.33886 F1200.000
G1 X107.127 Y114.127 E0.17951
G1 X102.873 Y114.127 E0.33886
G1 X102.873 Y112.736 E0.11082
G1 E-4.00000 F1800.00000
G1 X107.127 Y86.591 F3600.000
G1 E4.00000 F1800.00000
G1 X107.127 Y87.127 E0.04268 F1200.000
G1 X102.873 Y87.127 E0.33886
G1 X102.873 Y85.873 E0.09983
G1 X107.127 Y85.873 E0.33886 F1200.000
G1 X107.127 Y86.516 E0.05118
G1 X107.750 Y86.516 F3600.000
G1 X107.750 Y114.750 E1.26351 F840.000
G1 X102.250 Y114.750 E0.24613 F840.000
G1 X102.250 Y85.250 E1.32016
G1 X107.750 Y85.250 E0.24613
G1 X107.750 Y86.441 E0.05329
G1 X107.317 Y86.766 F3600.000
G1 X106.727 Y86.500 F3600.000
G1 X103.273 Y86.500 E0.12874 F600.000
G1 X103.477 Y112.437 F3600.000
G1 X103.437 Y112.477 E0.00555 F1200.000
G1 X103.741 Y113.563 E0.11073
G1 X104.868 Y112.437 E0.15633
G1 X105.132 Y113.563 E0.11355
G1 X106.259 Y112.437 E0.15633
G1 X106.563 Y113.523 E0.11073
G1 X106.523 Y113.563 E0.00555
G1 E-4.00000 F1800.00000
G1 Z0.720 F3600.000
G1 X106.523 Y111.250 F3600.000
G1 E4.00000 F1800.00000
G1 X103.250 Y111.250 E0.14648 F840.000
G1 X103.250 Y87.750 E1.05165
G1 X106.750 Y87.750 E0.15663
G1 X106.750 Y111.250 E1.05165
G1 X106.598 Y111.250 E0.00679 F840.000
G1 X106.273 Y111.683 F3600.000
G1 X104.287 Y111.873 F3600.000
G1 X107.127 Y111.873 E0.22622 F1200.000
G1 X107.127 Y114.127 E0.17951
G1 X102.873 Y114.127 E0.33886
G1 X102.873 Y111.873 E0.17951
G1 X104.212 Y111.873 E0.10666 F1200.000
G1 E-4.00000 F1800.00000
G1 X107.127 Y86.192 F3600.000
G1 E4.00000 F1800.00000
G1 X107.127 Y87.127 E0.07449 F1200.000
G1 X102.873 Y87.127 E0.33886
G1 X102.873 Y85.873 E0.09983
G1 X107.127 Y85.873 E0.33886 F1200.000
G1 X107.127 Y86.117 E0.01936
G1 X107.750 Y86.117 F3600.000
G1 X107.750 Y114.750 E1.28138 F840.000
G1 X102.250 Y114.750 E0.24613 F840.000
G1 X102.250 Y85.250 E1.32016
G1 X107.750 Y85.250 E0.24613
G1 X107.750 Y86.042 E0.03542
G1 X107.317 Y86.367 F3600.000
G1 X106.727 Y86.500 F3600.000
G1 X103.273 Y86.500 E0.12874 F600.000
G1 E-4.00000 F1800.00000
G1 X106.563 Y112.477 F3600.000
G1 E4.00000 F1800.00000
G1 X106.523 Y112.437 E0.00555 F1200.000
G1 X106.259 Y113.563 E0.11355
G1 X105.132 Y112.437 E0.15633
G1 X104.868 Y113.563 E0.11355
G1 X103.741 Y112.437 E0.15633
G1 X103.437 Y113.523 E0.11073
G1 X103.477 Y113.563 E0.00555
G1 E-10.00000 F1800.00000
T1
G1 X105.627 Y99.277 F3600.000
G1 E10.00000 F900.00000
G1 X105.627 Y110.127 E0.86445 F1200.000
G1 X104.373 Y110.127 E0.09983
G1 X104.373 Y88.873 E1.69332
G1 X105.627 Y88.873 E0.09983 F1200.000
G1 X105.627 Y99.202 E0.82289
G1 X106.250 Y99.202 F3600.000
G1 X106.250 Y110.750 E0.51680 F840.000
G1 X103.750 Y110.750 E0.11188 F840.000
G1 X103.750 Y88.250 E1.00690
G1 X106.250 Y88.250 E0.11188
G1 X106.250 Y99.127 E0.48675
G1 X105.817 Y99.452 F3600.000
G1 X105.000 Y89.273 F3600.000
G1 X105.000 Y109.727 E0.76229 F600.000
M106 S239.7
G1 E-4.00000 F900.00000
G1 Z0.960 F3600.000
G1 X105.627 Y100.078 F3600.000
G1 E4.00000 F900.00000
G1 X105.627 Y110.127 E0.80063 F1200.000
G1 X104.373 Y110.127 E0.09983
G1 X104.373 Y88.873 E1.69332
G1 X105.627 Y88.873 E0.09983 F1200.000
G1 X105.627 Y100.003 E0.88671
G1 X106.250 Y100.003 F3600.000
G1 X106.250 Y110.750 E0.48095 F840.000
G1 X103.750 Y110.750 E0.11188 F840.000
G1 X103.750 Y88.250 E1.00690
G1 X106.250 Y88.250 E0.11188
G1 X106.250 Y99.928 E0.52259
G1 X105.817 Y100.253 F3600.000
G1 X105.000 Y109.727 F3600.000
G1 X105.000 Y89.273 E0.76229 F600.000
G1 E-10.00000 F900.00000
T0
G1 X105.000 Y87.750 F3600.000
G1 E10.00000 F1800.00000
G1 X106.750 Y87.750 E0.07831 F840.000
G1 X106.750 Y111.250 E1.05165
G1 X103.250 Y111.250 E0.15663 F840.000
G1 X103.250 Y87.750 E1.05165
G1 X104.925 Y87.750 E0.07496
G1 X105.250 Y87.317 F3600.000
G1 E-4.00000 F1800.00000
G1 X103.138 Y114.127 F3600.000
G1 E4.00000 F1800.00000
G1 X102.873 Y114.127 E0.02104 F1200.000
G1 X102.873 Y111.873 E0.17951
G1 X107.127 Y111.873 E0.33886 F1200.000
G1 X107.127 Y114.127 E0.17951
G1 X103.213 Y114.127 E0.31184
G1 E-4.00000 F1800.00000
G1 X103.621 Y85.873 F3600.000
G1 E4.00000 F1800.00000
G1 X107.127 Y85.873 E0.27927 F1200.000
G1 X107.127 Y87.127 E0.09983
G1 X102.873 Y87.127 E0.33886
G1 X102.873 Y85.873 E0.09983
G1 X103.546 Y85.873 E0.05361 F1200.000
G1 X103.546 Y85.250 F3600.000
G1 X107.750 Y85.250 E0.18812 F840.000
G1 X107.750 Y114.750 E1.32016
G1 X102.250 Y114.750 E0.24613 F840.000
G1 X102.250 Y85.250 E1.32016
G1 X103.471 Y85.250 E0.05466
G1 X103.796 Y85.683 F3600.000
G1 X103.273 Y86.500 F3600.000
G1 X106.727 Y86.500 E0.12874 F600.000
G1 E-4.00000 F1800.00000
G1 X103.477 Y112.437 F3600.000
G1 E4.00000 F1800.00000
G1 X103.437 Y112.477 E0.00555 F1200.000
G1 X103.741 Y113.563 E0.11072
G1 X104.868 Y112.437 E0.15633
G1 X105.132 Y113.563 E0.11355
G1 X106.259 Y112.437 E0.15633
G1 X106.563 Y113.523 E0.11072
G1 X106.523 Y113.563 E0.00555
G1 E-4.00000 F1800.00000
G1 Z1.200 F3600.000
G1 X106.523 Y111.250 F3600.000
G1 E4.00000 F1800.00000
G1 X103.250 Y111.250 E0.14648 F840.000
G1 X103.250 Y87.750 E1.05165
G1 X106.750 Y87.750 E0.15663
G1 X106.750 Y111.250 E1.05165
G1 X106.598 Y111.250 E0.00679 F840.000
G1 X106.273 Y111.683 F3600.000
G1 X103.781 Y111.873 F3600.000
G1 X107.127 Y111.873 E0.26652 F1200.000
G1 X107.127 Y114.127 E0.17951
G1 X102.873 Y114.127 E0.33886
G1 X102.873 Y111.873 E0.17951
G1 X103.706 Y111.873 E0.06636 F1200.000
G1 E-4.00000 F1800.00000
G1 X104.437 Y85.873 F3600.000
G1 E4.00000 F1800.00000
G1 X107.127 Y85.873 E0.21431 F1200.000
G1 X107.127 Y87.127 E0.09983
G1 X102.873 Y87.127 E0.33886
G1 X102.873 Y85.873 E0.09983
G1 X104.362 Y85.873 E0.11857 F1200.000
G1 X104.362 Y85.250 F3600.000
G1 X107.750 Y85.250 E0.15163 F840.000
G1 X107.750 Y114.750 E1.32016
G1 X102.250 Y114.750 E0.24613 F840.000
G1 X102.250 Y85.250 E1.32016
G1 X104.287 Y85.250 E0.09115
G1 X104.612 Y85.683 F3600.000
G1 X103.273 Y86.500 F3600.000
G1 X106.727 Y86.500 E0.12874 F600.000
G1 X106.563 Y112.477 F3600.000
G1 X106.523 Y112.437 E0.00555 F1200.000
G1 X106.259 Y113.563 E0.11355
G1 X105.132 Y112.437 E0.15633
G1 X104.868 Y113.563 E0.11355
G1 X103.741 Y112.437 E0.15633
G1 X103.437 Y113.523 E0.11072
G1 X103.477 Y113.563 E0.00555
G1 E-10.00000 F1800.00000
T1
G1 X105.627 Y100.090 F3600.000
G1 E10.00000 F900.00000
G1 X105.627 Y110.127 E0.79965 F1200.000
G1 X104.373 Y110.127 E0.09983
G1 X104.373 Y88.873 E1.69332
G1 X105.627 Y88.873 E0.09983 F1200.000
G1 X105.627 Y100.015 E0.88769
G1 X106.250 Y100.015 F3600.000
G1 X106.250 Y110.750 E0.48040 F840.000
G1 X103.750 Y110.750 E0.11188 F840.000
G1 X103.750 Y88.250 E1.00690
G1 X106.250 Y88.250 E0.11188
G1 X106.250 Y99.940 E0.52314
G1 X105.817 Y100.265 F3600.000
G1 X105.000 Y109.727 F3600.000
G1 X105.000 Y89.273 E0.76229 F600.000
G1 E-4.00000 F900.00000
G1 Z1.440 F3600.000
G1 X104.373 Y98.959 F3600.000
G1 E4.00000 F900.00000
G1 X104.373 Y88.873 E0.80359 F1200.000
G1 X105.627 Y88.873 E0.09983 F1200.000
G1 X105.627 Y110.127 E1.69332
G1 X104.373 Y110.127 E0.09983
G1 X104.373 Y99.034 E0.88375
G1 X103.750 Y99.034 F3600.000
G1 X103.750 Y88.250 E0.48261 F840.000
G1 X106.250 Y88.250 E0.11188
G1 X106.250 Y110.750 E1.00690
G1 X103.750 Y110.750 E0.11188 F840.000
G1 X103.750 Y99.109 E0.52093
G1 X104.183 Y98.784 F3600.000
G1 X105.000 Y89.273 F3600.000
G1 X105.000 Y109.727 E0.76229 F600.000
G1 E-10.00000 F900.00000
T0
G1 X105.000 Y111.250 F3600.000
G1 E10.00000 F1800.00000
G1 X103.250 Y111.250 E0.07831 F840.000
G1 X103.250 Y87.750 E1.05165
G1 X106.750 Y87.750 E0.15663
G1 X106.750 Y111.250 E1.05165
G1 X105.075 Y111.250 E0.07496 F840.000
G1 X104.750 Y111.683 F3600.000
G1 X102.873 Y112.859 F3600.000
G1 X102.873 Y111.873 E0.07854 F1200.000
G1 X107.127 Y111.873 E0.33886 F1200.000
G1 X107.127 Y114.127 E0.17951
G1 X102.873 Y114.127 E0.33886
G1 X102.873 Y112.934 E0.09499
G1 E-4.00000 F1800.00000
G1 X105.766 Y87.127 F3600.000
G1 E4.00000 F1800.00000
G1 X102.873 Y87.127 E0.23044 F1200.000
G1 X102.873 Y85.873 E0.09983
G1 X107.127 Y85.873 E0.33886 F1200.000
G1 X107.127 Y87.127 E0.09983
G1 X105.841 Y87.127 E0.10243
G1 X105.841 Y85.250 F3600.000
G1 X107.750 Y85.250 E0.08544 F840.000
G1 X107.750 Y114.750 E1.32016
G1 X102.250 Y114.750 E0.24613 F840.000
G1 X102.250 Y85.250 E1.32016
G1 X105.766 Y85.250 E0.15734
G1 X106.091 Y85.683 F3600.000
G1 X106.727 Y86.500 F3600.000
G1 X103.273 Y86.500 E0.12874 F600.000
G1 X103.477 Y112.437 F3600.000
G1 X103.437 Y112.477 E0.00555 F1200.000
G1 X103.741 Y113.563 E0.11072
G1 X104.868 Y112.437 E0.15633
G1 X105.132 Y113.563 E0.11355
G1 X106.259 Y112.437 E0.15633
G1 X106.563 Y113.523 E0.11072
G1 X106.523 Y113.563 E0.00555
G1 E-4.00000 F1800.00000
G1 Z1.680 F3600.000
G1 X106.523 Y111.250 F3600.000
G1 E4.00000 F1800.00000
G1 X103.250 Y111.250 E0.14648 F840.000
G1 X103.250 Y87.750 E1.05165
G1 X106.750 Y87.750 E0.15663
G1 X106.750 Y111.250 E1.05165
G1 X106.598 Y111.250 E0.00679 F840.000
G1 X106.273 Y111.683 F3600.000
G1 X107.127 Y113.550 F3600.000
G1 X107.127 Y114.127 E0.04596 F1200.000
G1 X102.873 Y114.127 E0.33886
G1 X102.873 Y111.873 E0.17951
G1 X107.127 Y111.873 E0.33886 F1200.000
G1 X107.127 Y113.475 E0.12757
G1 E-4.00000 F1800.00000
G1 X104.637 Y85.873 F3600.000
G1 E4.00000 F1800.00000
G1 X107.127 Y85.873 E0.19839 F1200.000
G1 X107.127 Y87.127 E0.09983
G1 X102.873 Y87.127 E0.33886
G1 X102.873 Y85.873 E0.09983
G1 X104.562 Y85.873 E0.13449 F1200.000
G1 X104.562 Y85.250 F3600.000
G1 X107.750 Y85.250 E0.14269 F840.000
G1 X107.750 Y114.750 E1.32016
G1 X102.250 Y114.750 E0.24613 F840.000
G1 X102.250 Y85.250 E1.32016
G1 X104.487 Y85.250 E0.10009
G1 X104.812 Y85.683 F3600.000
G1 X103.273 Y86.500 F3600.000
G1 X106.727 Y86.500 E0.12874 F600.000
G1 X106.563 Y112.477 F3600.000
G1 X106.523 Y112.437 E0.00555 F1200.000
G1 X106.259 Y113.563 E0.11355
G1 X105.132 Y112.437 E0.15633
G1 X104.868 Y113.563 E0.11355
G1 X103.741 Y112.437 E0.15633
G1 X103.437 Y113.523 E0.11072
G1 X103.477 Y113.563 E0.00555
G1 E-10.00000 F1800.00000
T1
G1 X105.627 Y99.821 F3600.000
G1 E10.00000 F900.00000
G1 X105.627 Y110.127 E0.82111 F1200.000
G1 X104.373 Y110.127 E0.09983
G1 X104.373 Y88.873 E1.69332
G1 X105.627 Y88.873 E0.09983 F1200.000
G1 X105.627 Y99.746 E0.86623
G1 X106.250 Y99.746 F3600.000
G1 X106.250 Y110.750 E0.49246 F840.000
G1 X103.750 Y110.750 E0.11188 F840.000
G1 X103.750 Y88.250 E1.00690
G1 X106.250 Y88.250 E0.11188
G1 X106.250 Y99.671 E0.51108
G1 X105.817 Y99.996 F3600.000
G1 X105.000 Y109.727 F3600.000
G1 X105.000 Y89.273 E0.76229 F600.000
G1 E-4.00000 F900.00000
G1 Z1.920 F3600.000
G1 X104.373 Y99.773 F3600.000
G1 E4.00000 F900.00000
G1 X104.373 Y88.873 E0.86844 F1200.000
G1 X105.627 Y88.873 E0.09983 F1200.000
G1 X105.627 Y110.127 E1.69332
G1 X104.373 Y110.127 E0.09983
G1 X104.373 Y99.848 E0.81890
G1 X103.750 Y99.848 F3600.000
G1 X103.750 Y88.250 E0.51904 F840.000
G1 X106.250 Y88.250 E0.11188
G1 X106.250 Y110.750 E1.00690
G1 X103.750 Y110.750 E0.11188 F840.000
G1 X103.750 Y99.923 E0.48450
G1 X104.183 Y99.598 F3600.000
G1 X105.000 Y109.727 F3600.000
G1 X105.000 Y89.273 E0.76229 F600.000
G1 E-10.00000 F900.00000
T0
G1 X105.000 Y87.750 F3600.000
G1 E10.00000 F1800.00000
G1 X106.750 Y87.750 E0.07831 F840.000
G1 X106.750 Y111.250 E1.05165
G1 X103.250 Y111.250 E0.15663 F840.000
G1 X103.250 Y87.750 E1.05165
G1 X104.925 Y87.750 E0.07496
G1 X105.250 Y87.317 F3600.000
G1 E-4.00000 F1800.00000
G1 X105.822 Y114.127 F3600.000
G1 E4.00000 F1800.00000
G1 X102.873 Y114.127 E0.23491 F1200.000
G1 X102.873 Y111.873 E0.17951
G1 X107.127 Y111.873 E0.33886 F1200.000
G1 X107.127 Y114.127 E0.17951
