; generated by Slic3r 1.2.5 on 2015-02-10 at 14:43:10

; external perimeters extrusion width = 0.50mm
; perimeters extrusion width = 0.85mm
; infill extrusion width = 0.87mm
; solid infill extrusion width = 0.85mm
; top infill extrusion width = 0.85mm

G21 ; set units to millimeters
G90 ; use absolute coordinates
M83 ; use relative distances for extrusion
M140 S65; Set bed temperature
G28 ; Home all axes
G1 Z5 F200 ; lift nozzle
G1 X2 Y50 F2000; Go to wait for warm position
M116; Wait for all temperatures
G10 P1 S185 R0 ; Set extruder temperature
T1; Select extruder
M116; Wait for all temperatures
M109 S185 ; wait for temperature to be reached
G1 E-4.00000 F1800.00000
G1 Z0.240 F3600.000
G1 X85.361 Y63.869 F3600.000
G1 E4.00000 F1800.00000
G1 X85.908 Y63.189 E0.06957 F240.000
G1 X86.666 Y62.307 E0.09266
G1 X87.012 Y61.935 E0.04051
G1 X88.058 Y60.898 E0.11735
G1 X89.358 Y59.762 E0.13753
G1 X89.755 Y59.445 E0.04051
G1 X90.691 Y58.754 E0.09266
G1 X91.414 Y58.265 E0.06957
G1 X92.399 Y57.646 E0.09266
G1 X92.839 Y57.392 E0.04051
G1 X94.138 Y56.713 E0.11677
G1 X95.721 Y56.007 E0.13810
G1 X96.194 Y55.821 E0.04051
G1 X97.292 Y55.437 E0.09266
G1 X98.127 Y55.182 E0.06957
G1 X99.250 Y54.881 E0.09266
G1 X99.746 Y54.768 E0.04051
G1 X101.180 Y54.503 E0.11620
G1 X102.908 Y54.294 E0.13867
G1 X103.415 Y54.256 E0.04051
G1 X104.577 Y54.212 E0.09266
G1 X105.234 Y54.209 E0.05232
G1 X106.612 Y54.258 E0.10991 F240.000
G1 X107.119 Y54.296 E0.04051
G1 X108.561 Y54.464 E0.11563
G1 X110.281 Y54.774 E0.13924
G1 X110.776 Y54.887 E0.04051
G1 X112.173 Y55.268 E0.11534
G1 X113.831 Y55.831 E0.13953
G1 X114.304 Y56.017 E0.04051
G1 X115.370 Y56.482 E0.09266
G1 X116.156 Y56.862 E0.06957
G1 X117.185 Y57.405 E0.09266
G1 X117.625 Y57.660 E0.04051
G1 X118.610 Y58.278 E0.09266
G1 X119.330 Y58.771 E0.06957
G1 X120.266 Y59.462 E0.09266
G1 X120.663 Y59.779 E0.04051
G1 X121.749 Y60.720 E0.11448
G1 X123.007 Y61.954 E0.14039
G1 X123.352 Y62.327 E0.04051
G1 X124.111 Y63.209 E0.09266
G1 X124.655 Y63.892 E0.06957
G1 X125.345 Y64.827 E0.09266
G1 X125.632 Y65.248 E0.04051
G1 X126.250 Y66.232 E0.09266
G1 X126.686 Y66.989 E0.06957
G1 X127.230 Y68.017 E0.09266
G1 X127.450 Y68.475 E0.04050
G1 X128.016 Y69.784 E0.11362
G1 X128.618 Y71.452 E0.14125
G1 X128.768 Y71.937 E0.04050
G1 X129.131 Y73.313 E0.11334
G1 X129.479 Y75.055 E0.14153
G1 X129.555 Y75.557 E0.04051
G1 X129.709 Y76.968 E0.11306
G1 X129.750 Y77.584 E0.04917
G1 X129.798 Y79.000 E0.11291
G1 X129.798 Y121.000 E3.34632
G1 X129.740 Y122.662 E0.13254
G1 X129.560 Y124.398 E0.13902
G1 X129.470 Y124.999 E0.04841
G1 X129.254 Y126.142 E0.09266
G1 X129.080 Y126.886 E0.06090
G1 X128.751 Y128.114 E0.10132
G1 X128.602 Y128.600 E0.04051
G1 X128.076 Y130.068 E0.12420
G1 X127.426 Y131.574 E0.13067
G1 X127.206 Y132.032 E0.04050
G1 X126.662 Y133.060 E0.09266
G1 X126.219 Y133.812 E0.06957
G1 X125.601 Y134.797 E0.09266
G1 X125.314 Y135.217 E0.04051
G1 X124.384 Y136.459 E0.12363
G1 X123.315 Y137.712 E0.13124
G1 X122.969 Y138.085 E0.04051
G1 X121.867 Y139.172 E0.12335
G1 X120.621 Y140.255 E0.13152
G1 X120.223 Y140.572 E0.04051
G1 X119.288 Y141.262 E0.09266
G1 X118.669 Y141.680 E0.05947
G1 X117.578 Y142.367 E0.10275
G1 X117.137 Y142.621 E0.04051
G1 X115.770 Y143.332 E0.12277
G1 X114.254 Y144.003 E0.13210
G1 X113.780 Y144.188 E0.04051
G1 X112.683 Y144.573 E0.09266
G1 X111.976 Y144.788 E0.05889
G1 X110.723 Y145.125 E0.10333
G1 X110.228 Y145.238 E0.04051
G1 X109.085 Y145.454 E0.09266
G1 X108.357 Y145.561 E0.05861
G1 X107.065 Y145.708 E0.10361
G1 X106.558 Y145.746 E0.04050
G1 X105.396 Y145.790 E0.09266
G1 X104.664 Y145.787 E0.05833
G1 X103.361 Y145.740 E0.10389
G1 X102.854 Y145.702 E0.04051
G1 X101.698 Y145.572 E0.09266
G1 X100.978 Y145.461 E0.05804
G1 X99.693 Y145.220 E0.10418
G1 X99.197 Y145.107 E0.04051
G1 X98.074 Y144.806 E0.09266
G1 X97.382 Y144.590 E0.05775
G1 X96.144 Y144.159 E0.10447
G1 X95.670 Y143.973 E0.04051
G1 X94.604 Y143.508 E0.09266
G1 X93.955 Y143.194 E0.05747
G1 X92.792 Y142.581 E0.10476
G1 X92.352 Y142.327 E0.04051
G1 X91.367 Y141.708 E0.09266
G1 X90.775 Y141.302 E0.05718
G1 X89.713 Y140.521 E0.10504
G1 X89.315 Y140.204 E0.04051
G1 X88.434 Y139.445 E0.09266
G1 X87.911 Y138.959 E0.05690
G1 X86.975 Y138.026 E0.10533
G1 X86.629 Y137.653 E0.04051
G1 X85.871 Y136.771 E0.09266
G1 X85.428 Y136.215 E0.05661
G1 X84.640 Y135.150 E0.10561
G1 X84.353 Y134.730 E0.04051
G1 X83.734 Y133.745 E0.09266
G1 X83.381 Y133.133 E0.05633
G1 X82.759 Y131.959 E0.10590
G1 X82.538 Y131.501 E0.04051
G1 X82.073 Y130.435 E0.09266
G1 X81.816 Y129.780 E0.05604
G1 X81.374 Y128.522 E0.10619
G1 X81.224 Y128.037 E0.04051
G1 X80.845 Y126.588 E0.11935
G1 X80.517 Y124.918 E0.13553
G1 X80.441 Y124.416 E0.04051
G1 X80.282 Y122.930 E0.11906
G1 X80.206 Y121.227 E0.13581
G1 X80.202 Y78.973 E3.36657
G1 X80.250 Y77.556 E0.11291
G1 X80.301 Y76.866 E0.05518
G1 X80.449 Y75.530 E0.10705
G1 X80.525 Y75.028 E0.04051
G1 X80.741 Y73.885 E0.09266
G1 X80.894 Y73.213 E0.05490
G1 X81.240 Y71.911 E0.10733
G1 X81.390 Y71.426 E0.04051
G1 X81.774 Y70.328 E0.09266
G1 X82.024 Y69.690 E0.05461
G1 X82.562 Y68.450 E0.10762
G1 X82.782 Y67.992 E0.04051
G1 X83.326 Y66.964 E0.09266
G1 X83.665 Y66.373 E0.05432
G1 X84.384 Y65.225 E0.10790
G1 X84.670 Y64.805 E0.04051
G1 X85.316 Y63.930 E0.08668
G1 E-4.00000 F1800.00000
G1 X102.928 Y122.973 F3600.000
G1 E4.00000 F1800.00000
G1 X102.405 Y121.997 E0.08826 F240.000
G1 X102.238 Y121.322 E0.05537
G1 X102.245 Y120.628 E0.05537
G1 X102.423 Y119.956 E0.05537
G1 X102.484 Y119.847 E0.00990
G1 X102.763 Y119.349 E0.04547
G1 X103.242 Y118.846 E0.05537
G1 X103.831 Y118.477 E0.05537
G1 X104.493 Y118.266 E0.05536
G1 X105.187 Y118.226 E0.05537
G1 X105.869 Y118.359 E0.05537
G1 X105.981 Y118.412 E0.00990
G1 X106.497 Y118.657 E0.04547
G1 X107.031 Y119.101 E0.05537
G1 X107.438 Y119.664 E0.05538
G1 X107.694 Y120.311 E0.05537
G1 X107.779 Y120.990 E0.05457
G1 X107.720 Y121.568 E0.04627
G1 X107.546 Y122.112 E0.04548
G1 X107.059 Y122.973 E0.07888
G1 X103.003 Y122.973 E0.32314
G1 X103.301 Y122.350 F3600.000
G1 X102.991 Y121.772 E0.05227 F240.000
G1 X102.863 Y121.250 E0.04285
G1 X102.867 Y120.712 E0.04285
G1 X103.028 Y120.152 E0.04639
G1 X103.268 Y119.723 E0.03921
G1 X103.639 Y119.333 E0.04285
G1 X104.095 Y119.048 E0.04286
G1 X104.607 Y118.884 E0.04285
G1 X105.144 Y118.853 E0.04286
G1 X105.714 Y118.975 E0.04640
G1 X106.158 Y119.186 E0.03921
G1 X106.572 Y119.530 E0.04285
G1 X106.887 Y119.966 E0.04286
G1 X107.085 Y120.466 E0.04285
G1 X107.152 Y120.997 E0.04263
G1 X107.106 Y121.440 E0.03544
G1 X106.972 Y121.861 E0.03522
G1 X106.695 Y122.350 E0.04478
G1 X103.376 Y122.350 E0.26443
G1 X102.828 Y122.511 F3600.000
G1 X92.004 Y132.137 F3600.000
G1 X91.497 Y131.521 E0.06352 F240.000
G1 X90.832 Y130.621 E0.08922
G1 X90.242 Y129.682 E0.08830
G1 X89.557 Y128.403 E0.11565
G1 X89.114 Y127.387 E0.08832
G1 X88.626 Y126.019 E0.11563
G1 X88.339 Y124.949 E0.08834
G1 X88.061 Y123.524 E0.11562
G1 X87.937 Y122.422 E0.08835
G1 X87.874 Y120.973 E0.11560
G1 X87.916 Y119.864 E0.08837
G1 X88.069 Y118.422 E0.11558
G1 X88.276 Y117.332 E0.08839
G1 X88.642 Y115.929 E0.11556
G1 X89.133 Y114.573 E0.11485
G1 X89.580 Y113.548 E0.08909
G1 X90.099 Y112.567 E0.08843
G1 X90.862 Y111.335 E0.11552
G1 X91.522 Y110.441 E0.08845
G1 X92.460 Y109.336 E0.11550
G1 X93.245 Y108.551 E0.08847
G1 X94.337 Y107.598 E0.11548
G1 X95.231 Y106.939 E0.08848
G1 X96.453 Y106.160 E0.11547
G1 X97.435 Y105.641 E0.08850
G1 X98.759 Y105.052 E0.11545
G1 X99.808 Y104.685 E0.08852
G1 X101.204 Y104.300 E0.11543
G1 X102.296 Y104.093 E0.08854
G1 X103.734 Y103.921 E0.11541
G1 X104.845 Y103.879 E0.08856 F240.000
G1 X106.293 Y103.923 E0.11539
G1 X107.726 Y104.099 E0.11502
G1 X108.822 Y104.306 E0.08892
G1 X109.896 Y104.594 E0.08859
G1 X111.266 Y105.062 E0.11535
G1 X112.286 Y105.507 E0.08861
G1 X113.571 Y106.173 E0.11533
G1 X114.513 Y106.765 E0.08863
G1 X115.684 Y107.615 E0.11532
G1 X116.527 Y108.341 E0.08865
G1 X117.559 Y109.356 E0.11530
G1 X118.491 Y110.460 E0.11511
G1 X119.153 Y111.357 E0.08883
G1 X119.745 Y112.299 E0.08869
G1 X120.432 Y113.573 E0.11526
G1 X120.877 Y114.593 E0.08870
G1 X121.366 Y115.955 E0.11524
G1 X121.654 Y117.030 E0.08872
G1 X121.935 Y118.449 E0.11522
G1 X122.060 Y119.556 E0.08874
G1 X122.126 Y121.000 E0.11520
G1 X122.076 Y122.304 E0.10396
G1 X121.927 Y123.598 E0.10377
G1 X121.721 Y124.690 E0.08857
G1 X121.349 Y126.097 E0.11595
G1 X120.984 Y127.140 E0.08802
G1 X120.408 Y128.476 E0.11593
G1 X119.891 Y129.453 E0.08804
G1 X119.122 Y130.688 E0.11591
G1 X118.466 Y131.577 E0.08806
G1 X117.521 Y132.683 E0.11589
G1 X116.740 Y133.465 E0.08808
G1 X115.641 Y134.418 E0.11588
G1 X114.751 Y135.075 E0.08810
G1 X113.524 Y135.854 E0.11586
G1 X112.546 Y136.371 E0.08812
G1 X112.244 Y136.509 E0.02646
G1 X111.216 Y136.958 E0.08938
G1 X110.172 Y137.323 E0.08813
G1 X108.769 Y137.706 E0.11582
G1 X107.682 Y137.911 E0.08815
G1 X106.238 Y138.081 E0.11580
G1 X105.133 Y138.122 E0.08817
G1 X103.680 Y138.075 E0.11578
G1 X102.580 Y137.951 E0.08819
G1 X101.151 Y137.688 E0.11576
G1 X100.082 Y137.401 E0.08821
G1 X98.708 Y136.928 E0.11575
G1 X97.693 Y136.485 E0.08823
G1 X96.406 Y135.813 E0.11573
G1 X95.468 Y135.224 E0.08824
G1 X95.196 Y135.033 E0.02646
G1 X94.295 Y134.368 E0.08926
G1 X93.455 Y133.645 E0.08826
G1 X92.423 Y132.624 E0.11569
G1 X92.053 Y132.193 E0.04523
G1 X91.580 Y132.600 F3600.000
G1 X91.217 Y132.179 E0.04432 F168.000
G1 X90.316 Y130.972 E0.11998
G1 X89.706 Y130.001 E0.09141
G1 X88.995 Y128.673 E0.11998
G1 X88.536 Y127.622 E0.09141
G1 X88.030 Y126.203 E0.11997
G1 X87.733 Y125.095 E0.09142
G1 X87.444 Y123.617 E0.11997
G1 X87.316 Y122.477 E0.09142
G1 X87.250 Y120.973 E0.11996
G1 X87.293 Y119.826 E0.09143
G1 X87.452 Y118.329 E0.11995
G1 X87.666 Y117.201 E0.09144
G1 X88.046 Y115.745 E0.11995
G1 X88.425 Y114.661 E0.09144
G1 X89.018 Y113.278 E0.11994
G1 X89.554 Y112.263 E0.09145
G1 X90.347 Y110.983 E0.11994
G1 X91.028 Y110.060 E0.09145
G1 X92.003 Y108.912 E0.11993
G1 X92.814 Y108.100 E0.09146
G1 X93.948 Y107.111 E0.11993
G1 X94.872 Y106.429 E0.09146
G1 X96.141 Y105.619 E0.11992
G1 X97.156 Y105.083 E0.09147
G1 X98.531 Y104.471 E0.11992
G1 X99.615 Y104.092 E0.09147
G1 X101.065 Y103.692 E0.11991
G1 X102.194 Y103.478 E0.09148
G1 X103.688 Y103.299 E0.11990
G1 X105.191 Y103.258 E0.11978
G1 X106.339 Y103.301 E0.09159 F168.000
G1 X107.480 Y103.429 E0.09149
G1 X108.961 Y103.698 E0.11989
G1 X110.070 Y103.995 E0.09149
G1 X111.494 Y104.481 E0.11989
G1 X112.547 Y104.940 E0.09150
G1 X113.883 Y105.633 E0.11988
G1 X114.855 Y106.244 E0.09150
G1 X116.073 Y107.127 E0.11988
G1 X117.203 Y108.119 E0.11981
G1 X118.016 Y108.932 E0.09157
G1 X118.765 Y109.802 E0.09151
G1 X119.669 Y111.005 E0.11986
G1 X120.280 Y111.978 E0.09152
G1 X120.994 Y113.302 E0.11986
G1 X121.453 Y114.355 E0.09153
G1 X121.962 Y115.771 E0.11985
G1 X122.259 Y116.880 E0.09153
G1 X122.552 Y118.356 E0.11985
G1 X122.707 Y119.852 E0.11984
G1 X122.750 Y121.000 E0.09154
G1 X122.698 Y122.352 E0.10782
G1 X122.543 Y123.696 E0.10776
G1 X122.330 Y124.824 E0.09149
G1 X121.945 Y126.281 E0.12006
G1 X121.567 Y127.363 E0.09133
G1 X120.970 Y128.747 E0.12006
G1 X120.434 Y129.760 E0.09134
G1 X120.250 Y130.064 E0.02832
G1 X119.637 Y131.039 E0.09174
G1 X118.957 Y131.962 E0.09134
G1 X117.979 Y133.108 E0.12005
G1 X117.168 Y133.918 E0.09135
G1 X116.030 Y134.906 E0.12004
G1 X115.108 Y135.587 E0.09135
G1 X113.835 Y136.394 E0.12004
G1 X112.822 Y136.930 E0.09136
G1 X112.499 Y137.078 E0.02832
G1 X111.444 Y137.539 E0.09172
G1 X110.361 Y137.917 E0.09136
G1 X108.908 Y138.314 E0.12003
G1 X107.781 Y138.527 E0.09137
G1 X106.285 Y138.703 E0.12002
G1 X105.139 Y138.746 E0.09137
G1 X103.634 Y138.697 E0.12002
G1 X102.494 Y138.568 E0.09138
G1 X101.013 Y138.296 E0.12001
G1 X99.905 Y137.999 E0.09138
G1 X98.480 Y137.509 E0.12000
G1 X97.429 Y137.050 E0.09139
G1 X96.094 Y136.353 E0.12000
G1 X95.123 Y135.743 E0.09139
G1 X94.832 Y135.539 E0.02832
G1 X93.906 Y134.855 E0.09168
G1 X93.036 Y134.107 E0.09140
G1 X91.966 Y133.048 E0.11999
G1 X91.629 Y132.657 E0.04111
G1 X91.745 Y132.128 F3600.000
G1 X92.662 Y132.038 F3600.000
G1 X93.963 Y133.338 E0.14798 F240.000
G1 X97.540 Y135.775 F3600.000
G1 X90.224 Y128.459 E0.83242 F240.000
G1 X99.515 Y136.610 F3600.000
G1 X89.390 Y126.486 E1.15197 F240.000
G1 X88.897 Y124.851 E0.13736
G1 X101.149 Y137.104 E1.39409
G1 X102.562 Y137.377 E0.11579
G1 X88.618 Y123.432 E1.58660
G1 X88.490 Y122.164 E0.10257
G1 X103.842 Y137.516 E1.74682
G1 X105.021 Y137.555 E0.09489
G1 X88.438 Y120.972 E1.88683
G1 X88.481 Y119.875 E0.08835
G1 X106.128 Y137.521 E2.00784
G1 X107.157 Y137.410 E0.08331
G1 X88.591 Y118.844 E2.11249
G1 X88.755 Y117.868 E0.07964
G1 X108.139 Y137.252 E2.20550
G1 X109.068 Y137.040 E0.07665
G1 X88.957 Y116.930 E2.28820
G1 X89.202 Y116.034 E0.07469
G1 X109.964 Y136.796 E2.36227
G1 X110.811 Y136.503 E0.07212
G1 X89.498 Y115.190 E2.42502
G1 X89.834 Y114.386 E0.07011
G1 X111.617 Y136.168 E2.47843
G1 X112.399 Y135.811 E0.06924
G1 X90.192 Y113.603 E2.52683
G1 X90.593 Y112.864 E0.06767
G1 X113.145 Y135.416 E2.56609
G1 X118.531 Y130.539 F3600.000
G1 X108.255 Y120.264 E1.16920 F240.000
G1 X108.298 Y121.447 E0.09526
G1 X118.047 Y131.196 E1.10923
G1 X117.524 Y131.813 E0.06509
G1 X108.059 Y122.348 E1.07688
G1 X107.648 Y123.077 E0.06733
G1 X116.975 Y132.404 E1.06132
G1 X116.405 Y132.975 E0.06487
G1 X106.967 Y123.537 E1.07384
G1 X105.827 Y123.537 E0.09174
G1 X115.815 Y133.525 E1.13648
G1 X115.196 Y134.046 E0.06511
G1 X104.687 Y123.537 E1.19580
G1 X103.546 Y123.537 E0.09174
G1 X114.540 Y134.531 E1.25089
G1 X113.849 Y134.980 E0.06631
G1 X91.017 Y112.148 E2.59791
G1 X91.470 Y111.460 E0.06623
G1 X101.765 Y121.755 E1.17138
G1 X101.686 Y120.536 E0.09828
G1 X91.954 Y110.804 E1.10733
G1 X92.477 Y110.187 E0.06510
G1 X101.946 Y119.655 E1.07737
G1 X102.373 Y118.942 E0.06689
G1 X93.026 Y109.595 E1.06346
G1 X93.596 Y109.025 E0.06487
G1 X102.941 Y118.370 E1.06324
G1 X103.654 Y117.943 E0.06688
G1 X94.184 Y108.473 E1.07744
G1 X94.805 Y107.953 E0.06513
G1 X104.550 Y117.699 E1.10882
G1 X105.754 Y117.763 E0.09703
G1 X95.461 Y107.469 E1.17120
G1 X96.152 Y107.020 E0.06631
G1 X118.983 Y129.851 E2.59773
G1 X119.417 Y129.145 E0.06669
G1 X96.857 Y106.585 E2.56688
G1 X97.610 Y106.197 E0.06811
G1 X119.811 Y128.398 E2.52612
G1 X120.166 Y127.613 E0.06933
G1 X98.383 Y105.830 E2.47850
G1 X99.191 Y105.497 E0.07027
G1 X120.503 Y126.810 E2.42493
G1 X120.799 Y125.965 E0.07200
G1 X100.039 Y105.205 E2.36205
G1 X100.933 Y104.959 E0.07461
G1 X121.042 Y125.068 E2.28800
G1 X121.252 Y124.138 E0.07673
G1 X101.868 Y104.754 E2.20554
G1 X102.843 Y104.588 E0.07956
G1 X121.411 Y123.156 E2.11271
G1 X121.519 Y122.124 E0.08350
G1 X103.874 Y104.479 E2.00765
G1 X104.979 Y104.443 E0.08890
G1 X121.561 Y121.026 E1.88677
G1 X121.508 Y119.833 E0.09609
G1 X106.157 Y104.482 E1.74666
G1 X107.444 Y104.629 E0.10423
G1 X121.381 Y118.565 E1.58572
G1 X121.088 Y117.132 E0.11766
G1 X108.857 Y104.900 E1.39175
G1 X110.480 Y105.383 E0.13626
G1 X120.608 Y115.512 E1.15239
G1 X119.777 Y113.540 F3600.000
G1 X112.477 Y106.240 E0.83059 F240.000
G1 X116.055 Y108.678 F3600.000
G1 X117.321 Y109.944 E0.14405 F240.000
G1 E-4.00000 F1800.00000
G1 Z0.240 F3600.000
G1 X107.059 Y80.973 F3600.000
G1 E4.00000 F1800.00000
G1 X102.928 Y80.973 E0.32912 F240.000
G1 X102.405 Y79.997 E0.08826
G1 X102.238 Y79.322 E0.05537
G1 X102.245 Y78.628 E0.05537
G1 X102.277 Y78.507 E0.00990
G1 X102.423 Y77.956 E0.04547
G1 X102.763 Y77.349 E0.05537
G1 X103.242 Y76.846 E0.05537
G1 X103.347 Y76.780 E0.00990
G1 X103.831 Y76.477 E0.04547
G1 X104.493 Y76.266 E0.05536
G1 X105.187 Y76.226 E0.05537
G1 X105.309 Y76.250 E0.00990
G1 X105.869 Y76.359 E0.04547
G1 X106.497 Y76.657 E0.05537
G1 X107.031 Y77.101 E0.05537
G1 X107.438 Y77.664 E0.05538
G1 X107.694 Y78.311 E0.05537
G1 X107.779 Y78.990 E0.05457
G1 X107.720 Y79.568 E0.04627
G1 X107.546 Y80.112 E0.04548
G1 X107.096 Y80.908 E0.07291
G1 X106.695 Y80.350 F3600.000
G1 X103.301 Y80.350 E0.27040 F240.000
G1 X102.991 Y79.772 E0.05227
G1 X102.863 Y79.250 E0.04285
G1 X102.879 Y78.668 E0.04639
G1 X103.006 Y78.192 E0.03921
G1 X103.268 Y77.723 E0.04286
G1 X103.678 Y77.309 E0.04639
G1 X104.095 Y77.048 E0.03921
G1 X104.607 Y76.884 E0.04285
G1 X105.189 Y76.862 E0.04639
