; generated by Slic3r 1.2.5 on 2015-02-10 at 12:48:29

; external perimeters extrusion width = 0.50mm
; perimeters extrusion width = 0.85mm
; infill extrusion width = 0.87mm
; solid infill extrusion width = 0.85mm
; top infill extrusion width = 0.85mm

G21 ; set units to millimeters
G90 ; use absolute coordinates
M83 ; use relative distances for extrusion
M140 S65; Set bed temperature
G28 ; Home all axes
G1 Z5 F200 ; lift nozzle
G1 X2 Y50 F2000; Go to wait for warm position
M116; Wait for all temperatures
G10 P1 S185 R0 ; Set extruder temperature
T1; Select extruder
M116; Wait for all temperatures
G1 E-4.00000 F1800.00000
G1 Z0.240 F3600.000
G1 X65.925 Y65.925 F3600.000
G1 E4.00000 F1800.00000
G1 X66.962 Y64.898 E0.11629 F240.000
G1 X68.262 Y63.762 E0.13753
G1 X68.659 Y63.445 E0.04051
G1 X69.845 Y62.578 E0.11706
G1 X71.303 Y61.646 E0.13781
G1 X71.743 Y61.392 E0.04051
G1 X73.042 Y60.713 E0.11677
G1 X74.625 Y60.007 E0.13810
G1 X75.098 Y59.821 E0.04051
G1 X76.196 Y59.437 E0.09266
G1 X77.031 Y59.182 E0.06957
G1 X78.154 Y58.881 E0.09266
G1 X78.650 Y58.768 E0.04051
G1 X79.792 Y58.552 E0.09266
G1 X80.656 Y58.424 E0.06957
G1 X81.812 Y58.294 E0.09266
G1 X82.319 Y58.256 E0.04051
G1 X83.481 Y58.212 E0.09266
G1 X84.138 Y58.209 E0.05232
G1 X85.698 Y58.267 E0.12441 F240.000
G1 X127.890 Y60.979 E3.36856
G1 X129.371 Y61.138 E0.11866
G1 X130.234 Y61.270 E0.06957
G1 X131.377 Y61.486 E0.09266
G1 X131.872 Y61.599 E0.04051
G1 X132.996 Y61.900 E0.09266
G1 X133.830 Y62.159 E0.06957
G1 X134.927 Y62.543 E0.09266
G1 X135.400 Y62.729 E0.04051
G1 X136.722 Y63.311 E0.11506
G1 X138.281 Y64.117 E0.13981
G1 X138.721 Y64.371 E0.04051
G1 X139.706 Y64.990 E0.09266
G1 X140.426 Y65.483 E0.06957
G1 X141.362 Y66.174 E0.09266
G1 X141.760 Y66.491 E0.04051
G1 X142.845 Y67.432 E0.11448
G1 X144.103 Y68.666 E0.14039
G1 X144.448 Y69.039 E0.04051
G1 X145.207 Y69.920 E0.09266
G1 X145.751 Y70.604 E0.06957
G1 X146.441 Y71.539 E0.09266
G1 X146.728 Y71.959 E0.04051
G1 X147.484 Y73.173 E0.11391
G1 X148.326 Y74.729 E0.14096
G1 X148.546 Y75.187 E0.04050
G1 X149.011 Y76.253 E0.09266
G1 X149.330 Y77.066 E0.06957
G1 X149.714 Y78.163 E0.09266
G1 X149.864 Y78.649 E0.04050
G1 X150.165 Y79.772 E0.09266
G1 X150.359 Y80.624 E0.06957
G1 X150.575 Y81.766 E0.09266
G1 X150.651 Y82.269 E0.04051
G1 X150.805 Y83.680 E0.11306
G1 X150.890 Y85.458 E0.14181
G1 X150.890 Y85.966 E0.04051
G1 X150.836 Y87.374 E0.11229
G1 X150.669 Y89.000 E0.13022
G1 X150.567 Y89.711 E0.05721
G1 X150.264 Y91.244 E0.12449
G1 X149.847 Y92.826 E0.13038
G1 X149.698 Y93.312 E0.04051
G1 X149.313 Y94.410 E0.09266
G1 X149.032 Y95.116 E0.06061
G1 X148.522 Y96.286 E0.10161
G1 X148.302 Y96.744 E0.04050
G1 X147.758 Y97.772 E0.09266
G1 X147.315 Y98.524 E0.06957
G1 X146.476 Y99.838 E0.12419
G1 X118.601 Y138.946 E3.82641
G1 X116.949 Y140.580 E0.18513
G1 X114.843 Y141.562 E0.18513
G1 X113.065 Y141.798 E0.14292
G1 X104.184 Y141.788 E0.70758
G1 X78.938 Y139.966 E2.01673
G1 X78.292 Y139.888 E0.05184
G1 X77.573 Y139.765 E0.05808
G1 X76.830 Y139.596 E0.06074
G1 X76.129 Y139.394 E0.05808
G1 X75.410 Y139.142 E0.06074
G1 X74.736 Y138.863 E0.05808
G1 X74.049 Y138.533 E0.06074
G1 X73.411 Y138.180 E0.05808
G1 X72.766 Y137.774 E0.06075
G1 X72.171 Y137.352 E0.05809
G1 X71.575 Y136.877 E0.06072
G1 X71.032 Y136.391 E0.05808
G1 X70.493 Y135.852 E0.06074
G1 X70.007 Y135.309 E0.05808
G1 X69.532 Y134.713 E0.06074
G1 X69.110 Y134.118 E0.05808
G1 X68.704 Y133.473 E0.06074
G1 X68.360 Y132.850 E0.05668
G1 X68.021 Y132.148 E0.06214
G1 X67.742 Y131.474 E0.05808
G1 X67.490 Y130.755 E0.06074
G1 X67.288 Y130.054 E0.05808
G1 X67.132 Y129.387 E0.05462
G1 X59.412 Y86.869 E3.44296
G1 X59.215 Y85.260 E0.12915
G1 X59.154 Y84.389 E0.06957
G1 X59.110 Y83.227 E0.09266
G1 X59.110 Y82.719 E0.04051
G1 X59.154 Y81.556 E0.09266
G1 X59.223 Y80.686 E0.06957
G1 X59.353 Y79.530 E0.09266
G1 X59.429 Y79.028 E0.04051
G1 X59.645 Y77.885 E0.09266
G1 X59.843 Y77.035 E0.06957
G1 X60.144 Y75.911 E0.09266
G1 X60.294 Y75.426 E0.04051
G1 X60.678 Y74.328 E0.09266
G1 X61.000 Y73.516 E0.06957
G1 X61.465 Y72.450 E0.09266
G1 X61.686 Y71.992 E0.04051
G1 X62.229 Y70.964 E0.09266
G1 X62.669 Y70.210 E0.06957
G1 X63.288 Y69.225 E0.09266
G1 X63.574 Y68.805 E0.04051
G1 X64.265 Y67.869 E0.09266
G1 X64.812 Y67.189 E0.06957
G1 X65.874 Y65.980 E0.12822
G1 E-4.00000 F1800.00000
G1 X112.815 Y115.250 F3600.000
G1 E4.00000 F1800.00000
G1 X112.815 Y116.250 E0.07967 F168.000
G1 X104.557 Y116.250 E0.65796
G1 X103.880 Y116.294 E0.05407
G1 X103.206 Y116.428 E0.05472
G1 X102.556 Y116.649 E0.05472
G1 X101.940 Y116.953 E0.05472
G1 X101.369 Y117.334 E0.05472
G1 X100.852 Y117.787 E0.05472
G1 X100.399 Y118.304 E0.05472
G1 X100.018 Y118.875 E0.05472
G1 X99.714 Y119.491 E0.05472
G1 X99.493 Y120.141 E0.05472
G1 X99.359 Y120.815 E0.05472
G1 X99.315 Y121.492 E0.05407
G1 X99.315 Y128.508 E0.55902
G1 X99.359 Y129.185 E0.05407
G1 X99.493 Y129.859 E0.05472
G1 X99.714 Y130.509 E0.05472
G1 X100.018 Y131.125 E0.05472
G1 X100.399 Y131.696 E0.05472
G1 X100.852 Y132.213 E0.05472
G1 X101.369 Y132.666 E0.05472
G1 X101.940 Y133.047 E0.05472
G1 X102.527 Y133.337 E0.05216
G1 X103.206 Y133.572 E0.05726
G1 X103.880 Y133.706 E0.05472
G1 X104.557 Y133.750 E0.05407
G1 X112.815 Y133.750 E0.65796
G1 X112.815 Y134.750 E0.07967
G1 X104.572 Y134.750 E0.65675
G1 X103.865 Y134.710 E0.05640
G1 X103.174 Y134.593 E0.05584
G1 X102.501 Y134.399 E0.05584
G1 X101.853 Y134.131 E0.05584
G1 X101.240 Y133.792 E0.05584
G1 X100.668 Y133.386 E0.05584
G1 X100.146 Y132.919 E0.05584
G1 X99.679 Y132.397 E0.05584
G1 X99.273 Y131.825 E0.05584
G1 X98.934 Y131.212 E0.05584
G1 X98.666 Y130.564 E0.05584
G1 X98.472 Y129.891 E0.05584
G1 X98.355 Y129.200 E0.05584
G1 X98.315 Y128.493 E0.05640
G1 X98.315 Y121.507 E0.55660
G1 X98.355 Y120.800 E0.05640
G1 X98.472 Y120.109 E0.05584
G1 X98.666 Y119.436 E0.05584
G1 X98.934 Y118.788 E0.05584
G1 X99.273 Y118.175 E0.05584
G1 X99.679 Y117.603 E0.05584
G1 X100.146 Y117.081 E0.05584
G1 X100.668 Y116.614 E0.05584
G1 X101.240 Y116.208 E0.05584
G1 X101.853 Y115.869 E0.05583
G1 X102.501 Y115.601 E0.05584
G1 X103.174 Y115.407 E0.05584
G1 X103.865 Y115.290 E0.05584
G1 X104.572 Y115.250 E0.05640
G1 X112.740 Y115.250 E0.65078
G1 X112.565 Y115.683 F3600.000
G1 E-4.00000 F1800.00000
G1 Z0.240 F3600.000
G1 X104.835 Y106.532 F3600.000
G1 E4.00000 F1800.00000
G1 X104.835 Y105.532 E0.07967 F168.000
G1 X113.078 Y105.532 E0.65675
G1 X113.784 Y105.572 E0.05640
G1 X114.475 Y105.690 E0.05584
G1 X115.149 Y105.884 E0.05584
G1 X115.796 Y106.152 E0.05584
G1 X116.410 Y106.491 E0.05584
G1 X116.981 Y106.896 E0.05584
G1 X117.504 Y107.363 E0.05584
G1 X117.971 Y107.886 E0.05584
G1 X118.376 Y108.457 E0.05584
G1 X118.715 Y109.071 E0.05584
G1 X118.984 Y109.718 E0.05584
G1 X119.178 Y110.392 E0.05584
G1 X119.295 Y111.083 E0.05584
G1 X119.335 Y111.790 E0.05640
G1 X119.335 Y118.775 E0.55660
G1 X119.295 Y119.482 E0.05640
G1 X119.178 Y120.173 E0.05584
G1 X118.984 Y120.847 E0.05584
G1 X118.715 Y121.494 E0.05584
G1 X118.376 Y122.107 E0.05584
G1 X117.971 Y122.679 E0.05584
G1 X117.504 Y123.202 E0.05584
G1 X116.981 Y123.669 E0.05584
G1 X116.410 Y124.074 E0.05584
G1 X115.796 Y124.413 E0.05584
G1 X115.149 Y124.681 E0.05584
G1 X114.475 Y124.875 E0.05584
G1 X113.784 Y124.993 E0.05584
G1 X113.078 Y125.032 E0.05640
G1 X104.835 Y125.032 E0.65675
G1 X104.835 Y124.032 E0.07967
G1 X113.093 Y124.032 E0.65796
G1 X113.770 Y123.988 E0.05407
G1 X114.444 Y123.854 E0.05472
G1 X115.094 Y123.633 E0.05472
G1 X115.710 Y123.330 E0.05472
G1 X116.281 Y122.948 E0.05472
G1 X116.797 Y122.495 E0.05472
G1 X117.250 Y121.979 E0.05472
G1 X117.632 Y121.408 E0.05472
G1 X117.936 Y120.792 E0.05472
G1 X118.156 Y120.141 E0.05472
G1 X118.290 Y119.468 E0.05472
G1 X118.335 Y118.791 E0.05407
G1 X118.335 Y111.774 E0.55902
G1 X118.290 Y111.097 E0.05407
G1 X118.156 Y110.424 E0.05472
G1 X117.936 Y109.773 E0.05472
G1 X117.632 Y109.157 E0.05472
G1 X117.250 Y108.586 E0.05472
G1 X116.797 Y108.070 E0.05472
G1 X116.281 Y107.617 E0.05472
G1 X115.710 Y107.235 E0.05472
G1 X115.123 Y106.946 E0.05216
G1 X114.444 Y106.711 E0.05726
G1 X113.770 Y106.577 E0.05472
G1 X113.093 Y106.532 E0.05407
G1 X104.910 Y106.532 E0.65199
G1 X105.085 Y106.099 F3600.000
G1 E-4.00000 F1800.00000
G1 Z0.240 F3600.000
G1 X80.044 Y105.855 F3600.000
G1 E4.00000 F1800.00000
G1 X80.044 Y104.855 E0.07967 F168.000
G1 X88.287 Y104.855 E0.65675
G1 X88.994 Y104.894 E0.05640
G1 X89.684 Y105.012 E0.05584
G1 X90.358 Y105.206 E0.05584
G1 X91.005 Y105.474 E0.05584
G1 X91.619 Y105.813 E0.05584
G1 X92.190 Y106.218 E0.05584
G1 X92.713 Y106.685 E0.05584
G1 X93.180 Y107.208 E0.05584
G1 X93.585 Y107.780 E0.05584
G1 X93.924 Y108.393 E0.05584
G1 X94.193 Y109.040 E0.05584
G1 X94.387 Y109.714 E0.05584
G1 X94.504 Y110.405 E0.05584
G1 X94.544 Y111.112 E0.05640
G1 X94.544 Y118.097 E0.55660
G1 X94.504 Y118.804 E0.05640
G1 X94.387 Y119.495 E0.05584
G1 X94.193 Y120.169 E0.05584
G1 X93.924 Y120.816 E0.05584
G1 X93.585 Y121.430 E0.05584
G1 X93.180 Y122.001 E0.05584
G1 X92.713 Y122.524 E0.05584
G1 X92.190 Y122.991 E0.05584
G1 X91.619 Y123.396 E0.05584
G1 X91.005 Y123.735 E0.05584
G1 X90.358 Y124.003 E0.05584
G1 X89.684 Y124.197 E0.05584
G1 X88.994 Y124.315 E0.05584
G1 X88.287 Y124.355 E0.05640
G1 X80.044 Y124.355 E0.65675
G1 X80.044 Y123.355 E0.07967
G1 X88.302 Y123.355 E0.65796
G1 X88.979 Y123.310 E0.05407
G1 X89.653 Y123.176 E0.05472
G1 X90.303 Y122.955 E0.05472
G1 X90.919 Y122.652 E0.05472
G1 X91.490 Y122.270 E0.05472
G1 X92.006 Y121.817 E0.05472
G1 X92.459 Y121.301 E0.05472
G1 X92.841 Y120.730 E0.05472
G1 X93.145 Y120.114 E0.05472
G1 X93.365 Y119.463 E0.05472
G1 X93.499 Y118.790 E0.05472
G1 X93.544 Y118.113 E0.05407
G1 X93.544 Y111.096 E0.55902
G1 X93.499 Y110.419 E0.05407
G1 X93.365 Y109.746 E0.05472
G1 X93.145 Y109.095 E0.05472
G1 X92.841 Y108.479 E0.05472
G1 X92.459 Y107.908 E0.05472
G1 X92.006 Y107.392 E0.05472
G1 X91.490 Y106.939 E0.05472
G1 X90.919 Y106.557 E0.05472
G1 X90.332 Y106.268 E0.05216
G1 X89.653 Y106.033 E0.05726
G1 X88.979 Y105.899 E0.05472
G1 X88.302 Y105.855 E0.05407
G1 X80.119 Y105.855 E0.65199
G1 X80.294 Y105.422 F3600.000
G1 E-4.00000 F1800.00000
G1 Z0.240 F3600.000
G1 X88.408 Y113.476 F3600.000
G1 E4.00000 F1800.00000
G1 X88.408 Y114.476 E0.07967 F168.000
G1 X80.150 Y114.476 E0.65796
G1 X79.473 Y114.520 E0.05407
G1 X78.799 Y114.654 E0.05472
G1 X78.149 Y114.875 E0.05472
G1 X77.533 Y115.179 E0.05472
G1 X76.962 Y115.560 E0.05472
G1 X76.446 Y116.013 E0.05472
G1 X75.993 Y116.530 E0.05472
G1 X75.611 Y117.101 E0.05472
G1 X75.307 Y117.717 E0.05472
G1 X75.087 Y118.367 E0.05472
G1 X74.953 Y119.041 E0.05472
G1 X74.908 Y119.718 E0.05407
G1 X74.908 Y126.734 E0.55902
G1 X74.953 Y127.411 E0.05407
G1 X75.087 Y128.085 E0.05472
G1 X75.307 Y128.735 E0.05472
G1 X75.611 Y129.351 E0.05472
G1 X75.993 Y129.922 E0.05472
G1 X76.446 Y130.439 E0.05472
G1 X76.962 Y130.892 E0.05472
G1 X77.533 Y131.273 E0.05472
G1 X78.120 Y131.563 E0.05216
G1 X78.799 Y131.798 E0.05726
G1 X79.473 Y131.932 E0.05472
G1 X80.150 Y131.976 E0.05407
G1 X88.408 Y131.976 E0.65796
G1 X88.408 Y132.976 E0.07967
G1 X80.165 Y132.976 E0.65675
G1 X79.458 Y132.936 E0.05640
G1 X78.768 Y132.819 E0.05584
G1 X78.094 Y132.625 E0.05584
G1 X77.447 Y132.357 E0.05584
G1 X76.833 Y132.018 E0.05584
G1 X76.262 Y131.612 E0.05584
G1 X75.739 Y131.145 E0.05584
G1 X75.272 Y130.623 E0.05584
G1 X74.867 Y130.051 E0.05584
G1 X74.527 Y129.438 E0.05584
G1 X74.259 Y128.790 E0.05584
G1 X74.065 Y128.117 E0.05584
G1 X73.948 Y127.426 E0.05584
G1 X73.908 Y126.719 E0.05640
G1 X73.908 Y119.733 E0.55660
G1 X73.948 Y119.026 E0.05640
G1 X74.065 Y118.335 E0.05584
G1 X74.259 Y117.662 E0.05584
G1 X74.527 Y117.014 E0.05584
G1 X74.866 Y116.401 E0.05584
G1 X75.272 Y115.829 E0.05584
G1 X75.739 Y115.307 E0.05584
G1 X76.262 Y114.840 E0.05584
G1 X76.833 Y114.434 E0.05584
G1 X77.447 Y114.095 E0.05583
G1 X78.094 Y113.827 E0.05584
G1 X78.768 Y113.633 E0.05584
G1 X79.458 Y113.516 E0.05584
G1 X80.165 Y113.476 E0.05640
G1 X88.333 Y113.476 E0.65078
G1 X88.158 Y113.909 F3600.000
G1 E-4.00000 F1800.00000
G1 Z0.240 F3600.000
G1 X85.509 Y84.973 F3600.000
G1 E4.00000 F1800.00000
G1 X82.297 Y84.973 E0.25593 F240.000
G1 X81.724 Y84.185 E0.07762
G1 X81.493 Y83.585 E0.05124
G1 X81.424 Y82.946 E0.05124
G1 X81.521 Y82.310 E0.05124
G1 X81.778 Y81.721 E0.05124
G1 X82.179 Y81.217 E0.05124
G1 X82.695 Y80.834 E0.05124
G1 X83.293 Y80.596 E0.05125
G1 X83.931 Y80.519 E0.05124
G1 X84.442 Y80.592 E0.04116
G1 X84.568 Y80.610 E0.01009 F240.000
G1 X85.160 Y80.861 E0.05125
G1 X85.668 Y81.255 E0.05124
G1 X86.057 Y81.767 E0.05124
G1 X86.302 Y82.362 E0.05125
G1 X86.385 Y82.998 E0.05111
G1 X86.306 Y83.620 E0.04993
G1 X86.074 Y84.201 E0.04981
G1 X85.553 Y84.913 E0.07030
G1 X85.193 Y84.350 F3600.000
G1 X82.615 Y84.350 E0.20541 F240.000
G1 X82.277 Y83.885 E0.04580
G1 X82.104 Y83.437 E0.03826
G1 X82.052 Y82.959 E0.03826
G1 X82.125 Y82.485 E0.03826
G1 X82.317 Y82.045 E0.03826
G1 X82.616 Y81.669 E0.03826
G1 X83.001 Y81.383 E0.03826
G1 X83.447 Y81.205 E0.03826
G1 X83.924 Y81.148 E0.03825
G1 X84.400 Y81.215 E0.03826
G1 X84.842 Y81.403 E0.03826
G1 X85.221 Y81.698 E0.03826
G1 X85.511 Y82.080 E0.03826
G1 X85.694 Y82.524 E0.03826
G1 X85.756 Y83.000 E0.03822
G1 X85.697 Y83.463 E0.03722
G1 X85.524 Y83.897 E0.03719
G1 X85.237 Y84.289 E0.03879
G1 X85.088 Y84.839 F3600.000
G1 X96.804 Y94.243 F3600.000
G1 X96.425 Y94.683 E0.04623 F240.000
G1 X95.644 Y95.465 E0.08808
G1 X94.545 Y96.418 E0.11588
G1 X93.655 Y97.075 E0.08810
G1 X92.427 Y97.854 E0.11586
G1 X91.450 Y98.371 E0.08812
G1 X90.120 Y98.958 E0.11584
G1 X89.076 Y99.323 E0.08813
G1 X87.673 Y99.706 E0.11582
G1 X86.586 Y99.911 E0.08815
G1 X86.257 Y99.955 E0.02646
G1 X85.142 Y100.081 E0.08935
G1 X84.037 Y100.122 E0.08817
G1 X82.584 Y100.075 E0.11578
G1 X81.484 Y99.951 E0.08819
G1 X80.055 Y99.688 E0.11576
G1 X78.986 Y99.401 E0.08821
G1 X77.612 Y98.928 E0.11575
G1 X76.597 Y98.485 E0.08823
G1 X75.310 Y97.813 E0.11573
G1 X74.372 Y97.224 E0.08824
G1 X74.100 Y97.033 E0.02646
G1 X73.199 Y96.368 E0.08926
G1 X72.359 Y95.645 E0.08826
G1 X71.327 Y94.624 E0.11569
G1 X70.604 Y93.784 E0.08828
G1 X69.736 Y92.621 E0.11567
G1 X69.146 Y91.682 E0.08830
G1 X68.461 Y90.403 E0.11565
G1 X68.017 Y89.387 E0.08832
G1 X67.900 Y89.076 E0.02646
G1 X67.530 Y88.019 E0.08918
G1 X67.243 Y86.949 E0.08834
G1 X66.965 Y85.524 E0.11562
G1 X66.841 Y84.422 E0.08835
G1 X66.778 Y82.973 E0.11560
G1 X66.820 Y81.864 E0.08837
G1 X66.973 Y80.422 E0.11558
G1 X67.257 Y79.009 E0.11483
G1 X67.546 Y77.929 E0.08911
G1 X67.913 Y76.881 E0.08841
G1 X68.484 Y75.548 E0.11554
G1 X69.003 Y74.567 E0.08843
G1 X69.766 Y73.335 E0.11552
G1 X70.426 Y72.441 E0.08845
G1 X71.364 Y71.336 E0.11550
G1 X72.149 Y70.551 E0.08847
G1 X73.241 Y69.598 E0.11548
G1 X74.411 Y68.754 E0.11492
G1 X75.357 Y68.160 E0.08902
G1 X76.339 Y67.640 E0.08850
G1 X77.663 Y67.052 E0.11545
G1 X78.712 Y66.685 E0.08852
G1 X80.108 Y66.300 E0.11543
G1 X81.200 Y66.093 E0.08854
G1 X82.638 Y65.921 E0.11541
G1 X83.749 Y65.879 E0.08856 F240.000
G1 X85.197 Y65.923 E0.11539
G1 X86.301 Y66.047 E0.08858
G1 X87.726 Y66.306 E0.11537
G1 X88.800 Y66.594 E0.08859
G1 X90.170 Y67.062 E0.11535
G1 X91.190 Y67.507 E0.08861
G1 X92.475 Y68.173 E0.11533
G1 X93.417 Y68.765 E0.08863
G1 X94.588 Y69.615 E0.11532
G1 X95.431 Y70.341 E0.08865
G1 X96.463 Y71.356 E0.11530
G1 X97.188 Y72.200 E0.08867
G1 X98.057 Y73.357 E0.11528
G1 X98.649 Y74.299 E0.08869
G1 X99.336 Y75.573 E0.11526
G1 X99.781 Y76.593 E0.08870
G1 X100.270 Y77.955 E0.11524
G1 X100.558 Y79.030 E0.08872
G1 X100.839 Y80.449 E0.11522
G1 X100.963 Y81.556 E0.08874
G1 X101.030 Y83.000 E0.11520
G1 X100.980 Y84.304 E0.10396
G1 X100.831 Y85.598 E0.10377
G1 X100.625 Y86.690 E0.08857
G1 X100.253 Y88.097 E0.11595
G1 X99.888 Y89.140 E0.08802
G1 X99.311 Y90.476 E0.11593
G1 X98.795 Y91.453 E0.08804
G1 X98.026 Y92.688 E0.11591
G1 X97.370 Y93.577 E0.08806
G1 X96.853 Y94.187 E0.06369
G1 X97.325 Y94.593 F3600.000
G1 X96.883 Y95.108 E0.05407 F168.000
G1 X96.072 Y95.918 E0.09135
G1 X94.934 Y96.906 E0.12004
G1 X94.012 Y97.587 E0.09135
G1 X92.739 Y98.394 E0.12004
G1 X91.726 Y98.930 E0.09136
G1 X90.348 Y99.539 E0.12003
G1 X89.265 Y99.917 E0.09136
G1 X87.812 Y100.314 E0.12003
G1 X86.685 Y100.527 E0.09137
G1 X86.333 Y100.574 E0.02832
